;FLAVOR:UltiGCode
;TIME:643
;MATERIAL:660
;MATERIAL2:0
;NOZZLE_DIAMETER:0.4
;MINX:100.51
;MINY:92.51
;MINZ:0.27
;MAXX:122.49
;MAXY:130.49
;MAXZ:4.97
;Generated with Cura_SteamEngine main
M82 ;absolute extrusion mode
G0 F3000 Y50 ;avoid prime blob
G92 E0
G92 E0
G10
;LAYER_COUNT:48
;LAYER:0
M107
G0 F4320 X112.368 Y94.051 Z0.27
G0 X108.754 Y98.538
;TYPE:SKIRT
G11
G1 F1800 X110.503 Y96.43 E0.29582
G1 X112.368 Y94.051 E0.62229
G1 X112.747 Y93.632 E0.68331
G1 X113.182 Y93.271 E0.74436
G1 X113.663 Y92.974 E0.80542
G1 X114.182 Y92.748 E0.86655
G1 X114.727 Y92.598 E0.9276
G1 X115.502 Y92.51 E1.01184
G1 X117.84 Y92.51 E1.26434
G1 X118.538 Y92.52 E1.33973
G1 X119.102 Y92.568 E1.40087
G1 X119.652 Y92.695 E1.46183
G1 X120.18 Y92.899 E1.52296
G1 X120.674 Y93.174 E1.58402
G1 X121.123 Y93.517 E1.64505
G1 X121.52 Y93.919 E1.70606
G1 X121.857 Y94.374 E1.76722
G1 X122.125 Y94.871 E1.8282
G1 X122.321 Y95.401 E1.88923
G1 X122.441 Y95.954 E1.95034
G1 X122.49 Y96.539 E2.01374
G1 X122.49 Y125.804 E5.17436
G1 X122.481 Y126.531 E5.25288
G1 X122.434 Y127.094 E5.3139
G1 X122.308 Y127.645 E5.37494
G1 X122.106 Y128.173 E5.436
G1 X121.831 Y128.667 E5.49706
G1 X121.489 Y129.117 E5.5581
G1 X121.087 Y129.515 E5.6192
G1 X120.634 Y129.852 E5.68017
G1 X120.137 Y130.122 E5.74126
G1 X119.607 Y130.319 E5.80233
G1 X119.055 Y130.44 E5.86336
G1 X118.463 Y130.49 E5.92752
G1 X116.16 Y130.49 E6.17625
G1 X115.459 Y130.48 E6.25196
G1 X114.896 Y130.432 E6.31299
G1 X114.345 Y130.305 E6.37405
G1 X113.817 Y130.101 E6.43519
G1 X113.324 Y129.826 E6.49615
G1 X112.874 Y129.483 E6.55726
G1 X112.366 Y128.945 E6.63717
G1 X110.427 Y126.467 E6.97699
G1 X108.671 Y124.357 E7.27346
G1 X106.871 Y122.314 E7.56753
G1 X105.041 Y120.351 E7.85737
G1 X103.387 Y118.668 E8.11222
G1 X102.73 Y118.015 E8.21226
G1 X102.163 Y117.303 E8.31056
G1 X101.859 Y116.898 E8.36525
G1 X101.503 Y116.342 E8.43655
G1 X100.983 Y115.139 E8.5781
G1 X100.75 Y114.407 E8.66106
G1 X100.611 Y113.494 E8.7608
G1 X100.512 Y112.666 E8.85086
G1 X100.51 Y111.151 E9.01448
G1 X100.52 Y110.454 E9.08977
G1 X100.579 Y109.723 E9.16897
G1 X100.692 Y108.926 E9.25591
G1 X100.833 Y108.281 E9.32721
G1 X101.31 Y107.066 E9.46818
G1 X101.673 Y106.362 E9.55373
G1 X102.461 Y105.304 E9.6962
G1 X102.845 Y104.87 E9.75879
G1 X103.775 Y103.935 E9.90121
G1 X103.828 Y103.872 E9.9101
G1 X105.114 Y102.565 E10.10813
G1 X106.967 Y100.573 E10.40196
G1 X108.754 Y98.538 E10.69445
G10
G0 F4320 X101.678 Y107.219
G11
G1 F1800 X102.019 Y106.567 E10.77391
G1 X102.758 Y105.57 E10.90794
G1 X103.129 Y105.152 E10.9683
G1 X104.075 Y104.201 E11.11317
G1 X104.113 Y104.152 E11.11987
G1 X105.408 Y102.836 E11.31927
G1 X107.278 Y100.825 E11.61585
G1 X109.047 Y98.812 E11.90527
G1 X110.825 Y96.669 E12.206
G1 X112.683 Y94.298 E12.53133
G1 X113.044 Y93.902 E12.5892
G1 X113.46 Y93.564 E12.64709
G1 X113.922 Y93.291 E12.70505
G1 X114.42 Y93.09 E12.76305
G1 X114.941 Y92.965 E12.82091
G1 X115.51 Y92.911 E12.88264
G1 X117.835 Y92.91 E13.13374
G1 X118.533 Y92.92 E13.20913
G1 X119.067 Y92.968 E13.26703
G1 X119.588 Y93.094 E13.32493
G1 X120.085 Y93.297 E13.38291
G1 X120.546 Y93.571 E13.44082
G1 X120.961 Y93.91 E13.4987
G1 X121.321 Y94.308 E13.55666
G1 X121.618 Y94.754 E13.61453
G1 X121.846 Y95.24 E13.6725
G1 X121.998 Y95.754 E13.73039
G1 X122.089 Y96.492 E13.8107
G1 X122.09 Y125.799 E16.97586
G1 X122.081 Y126.526 E17.05438
G1 X122.034 Y127.06 E17.11227
G1 X121.909 Y127.581 E17.17014
G1 X121.707 Y128.078 E17.22808
G1 X121.434 Y128.54 E17.28603
G1 X121.096 Y128.956 E17.34392
G1 X120.699 Y129.317 E17.40187
G1 X120.253 Y129.615 E17.45981
G1 X119.768 Y129.843 E17.51768
G1 X119.254 Y129.997 E17.57563
G1 X118.51 Y130.089 E17.6566
G1 X116.166 Y130.09 E17.90975
G1 X115.465 Y130.08 E17.98547
G1 X114.93 Y130.032 E18.04348
G1 X114.409 Y129.906 E18.10137
G1 X113.913 Y129.703 E18.15925
G1 X113.452 Y129.429 E18.21717
G1 X113.036 Y129.09 E18.27512
G1 X112.681 Y128.699 E18.33216
G1 X110.721 Y126.194 E18.67567
G1 X108.98 Y124.103 E18.96953
G1 X107.18 Y122.06 E19.2636
G1 X105.317 Y120.06 E19.55879
G1 X103.673 Y118.388 E19.81203
G1 X103.028 Y117.747 E19.91024
G1 X102.238 Y116.751 E20.04754
G1 X101.852 Y116.14 E20.12559
G1 X101.352 Y114.987 E20.26132
G1 X101.138 Y114.301 E20.33893
G1 X100.956 Y113.077 E20.47258
G1 X100.912 Y112.474 E20.53787
G1 X100.91 Y111.156 E20.68022
G1 X100.92 Y110.459 E20.7555
G1 X100.977 Y109.763 E20.83092
G1 X101.088 Y108.984 E20.9159
G1 X101.222 Y108.385 E20.98219
G1 X101.678 Y107.219 E21.11741
G10
G0 F4320 X101.31 Y111.162
G11
G1 F1800 X101.32 Y110.465 E21.19269
G1 X101.375 Y109.804 E21.26433
G1 X101.484 Y109.041 E21.34757
G1 X101.671 Y108.336 E21.42634
G1 X102.067 Y107.33 E21.5431
G1 X102.472 Y106.627 E21.63073
G1 X103.07 Y105.821 E21.73912
G1 X103.413 Y105.434 E21.79497
G1 X104.335 Y104.507 E21.93617
G1 X104.398 Y104.433 E21.94667
G1 X105.686 Y103.124 E22.145
G1 X107.571 Y101.098 E22.44387
G1 X109.371 Y99.048 E22.7385
G1 X111.132 Y96.926 E23.03631
G1 X112.998 Y94.545 E23.36302
G1 X113.34 Y94.173 E23.4176
G1 X113.737 Y93.859 E23.47226
G1 X114.178 Y93.612 E23.52685
G1 X114.652 Y93.438 E23.58139
G1 X115.148 Y93.34 E23.63599
G1 X115.751 Y93.311 E23.70119
G1 X117.829 Y93.31 E23.92561
G1 X118.527 Y93.32 E24.001
G1 X119.03 Y93.367 E24.05556
G1 X119.52 Y93.493 E24.11021
G1 X119.984 Y93.695 E24.16486
G1 X120.41 Y93.967 E24.21945
G1 X120.788 Y94.302 E24.274
G1 X121.108 Y94.693 E24.32856
G1 X121.363 Y95.13 E24.38321
G1 X121.546 Y95.601 E24.43778
G1 X121.653 Y96.095 E24.49237
G1 X121.689 Y96.75 E24.56322
G1 X121.69 Y125.794 E27.69997
G1 X121.681 Y126.521 E27.77849
G1 X121.635 Y127.024 E27.83304
G1 X121.51 Y127.514 E27.88766
G1 X121.309 Y127.978 E27.94227
G1 X121.038 Y128.405 E27.99689
G1 X120.703 Y128.784 E28.05152
G1 X120.313 Y129.105 E28.10607
G1 X119.877 Y129.361 E28.16067
G1 X119.406 Y129.544 E28.21525
G1 X118.743 Y129.689 E28.28854
G1 X116.171 Y129.69 E28.56632
G1 X115.47 Y129.68 E28.64204
G1 X114.967 Y129.633 E28.6966
G1 X114.477 Y129.507 E28.75124
G1 X114.014 Y129.305 E28.80579
G1 X113.587 Y129.033 E28.86047
G1 X113.142 Y128.639 E28.92466
G1 X111.044 Y125.958 E29.29233
G1 X109.287 Y123.846 E29.58903
G1 X107.472 Y121.787 E29.88547
G1 X105.595 Y119.772 E30.18288
G1 X103.958 Y118.107 E30.43505
G1 X103.325 Y117.478 E30.53143
G1 X102.541 Y116.489 E30.66773
G1 X102.132 Y115.784 E30.75576
G1 X101.718 Y114.829 E30.86817
G1 X101.503 Y114.039 E30.95659
G1 X101.387 Y113.262 E31.04144
G1 X101.313 Y112.492 E31.12498
G1 X101.31 Y111.162 E31.26862
G10
;MESH:cd_handle.stl
G0 F4320 X106.229 Y111.187
G0 X106.81 Y111.159
;TYPE:WALL-OUTER
G11
G1 F1800 X106.981 Y110.495 E31.34267
G1 X107.304 Y109.906 E31.41522
G1 X107.754 Y109.429 E31.48605
G1 X107.888 Y109.337 E31.5036
G1 X108.348 Y109.047 E31.56233
G1 X108.993 Y108.836 E31.63562
G1 X109.661 Y108.795 E31.7079
G1 X110.335 Y108.919 E31.78192
G1 X110.955 Y109.21 E31.85588
G1 X111.471 Y109.638 E31.92829
G1 X111.877 Y110.195 E32.00273
G1 X112.122 Y110.813 E32.07453
G1 X112.212 Y111.499 E32.14925
G1 X112.129 Y112.161 E32.2213
G1 X111.877 Y112.805 E32.29599
G1 X111.474 Y113.359 E32.36998
G1 X110.955 Y113.79 E32.44284
G1 X110.336 Y114.08 E32.51666
G1 X109.696 Y114.203 E32.58705
G1 X108.988 Y114.165 E32.66362
G1 X108.348 Y113.953 E32.73644
G1 X107.76 Y113.582 E32.81153
G1 X107.307 Y113.095 E32.88336
G1 X106.98 Y112.5 E32.95668
G1 X106.812 Y111.849 E33.02929
G1 X106.81 Y111.159 E33.10381
G0 F4320 X106.859 Y110.966
G10
G0 X106.57 Y110.892
G0 X107.15 Y109.723
G0 X108.198 Y108.843
G0 X109.021 Y108.595
G0 X110.473 Y108.72
G0 X112.267 Y109.744
G0 X112.985 Y107.311
G0 X115.553 Y106.71
G11
G1 F1800 X108.517 Y106.71 E33.8637
G1 X107.522 Y106.841 E33.97209
G1 X106.607 Y107.22 E34.07905
G1 X105.822 Y107.824 E34.18602
G1 X105.22 Y108.607 E34.29269
G1 X104.841 Y109.523 E34.39975
G1 X104.711 Y110.517 E34.50802
G1 X104.71 Y112.488 E34.72089
G1 X104.84 Y113.476 E34.82851
G1 X105.22 Y114.394 E34.93581
G1 X105.822 Y115.176 E35.0424
G1 X106.607 Y115.78 E35.14937
G1 X107.522 Y116.159 E35.25633
G1 X108.517 Y116.29 E35.36472
G1 X115.553 Y116.29 E36.1246
G1 X115.71 Y116.413 E36.14614
G1 X115.71 Y126.29 E37.21286
G1 X118.29 Y126.29 E37.4915
G1 X118.29 Y98 E40.54682
G1 X118.29 Y96.71 E40.68614
G1 X115.71 Y96.71 E40.96478
G1 X115.708 Y106.545 E42.02696
G1 X115.553 Y106.71 E42.05141
G0 F4320 X115.353 Y106.71
G0 X115.033 Y107.21
G0 X108.518 Y107.276
G0 X107.593 Y107.419
G0 X106.82 Y107.764
G0 X106.168 Y108.295
G0 X105.677 Y108.971
G0 X105.365 Y109.835
G0 X105.27 Y110.868
G0 X105.275 Y112.487
G0 X105.419 Y113.406
G0 X105.812 Y114.244
G0 X106.972 Y115.324
G0 X107.749 Y115.623
G0 X108.721 Y115.709
G0 X115.945 Y115.95
G0 X115.871 Y116.009
;TYPE:WALL-INNER
G1 F1800 X116.04 Y116.207 E42.07952
G1 X116.11 Y116.49 E42.11101
G1 X116.11 Y125.89 E43.12621
G1 X117.89 Y125.89 E43.31845
G1 X117.89 Y98 E46.33057
G1 X117.89 Y97.11 E46.42669
G1 X116.11 Y97.11 E46.61893
G1 X116.11 Y106.591 E47.64288
G1 X116.04 Y106.793 E47.66597
G1 X115.871 Y106.991 E47.69408
G1 X115.633 Y107.11 E47.72282
G1 X108.543 Y107.11 E48.48854
G1 X107.626 Y107.231 E48.58843
G1 X106.809 Y107.57 E48.68396
G1 X106.107 Y108.109 E48.77955
G1 X105.57 Y108.809 E48.87483
G1 X105.231 Y109.627 E48.97046
G1 X105.111 Y110.543 E49.07024
G1 X105.11 Y112.462 E49.27749
G1 X105.23 Y113.372 E49.37662
G1 X105.569 Y114.192 E49.47245
G1 X106.108 Y114.891 E49.56778
G1 X106.809 Y115.43 E49.66328
G1 X107.626 Y115.769 E49.75881
G1 X108.543 Y115.89 E49.8587
G1 X115.633 Y115.89 E50.62442
G1 X115.871 Y116.009 E50.65316
G10
G0 F4320 X115.945 Y115.95
G0 X112.99 Y115.69
G0 X111.347 Y114.219
G0 X106.41 Y111.887
G11
G1 F1800 X106.41 Y111.105 E50.73762
G1 X106.606 Y110.348 E50.82207
G1 X106.985 Y109.662 E50.90671
G1 X107.505 Y109.109 E50.98869
G1 X107.674 Y108.999 E51.01047
G1 X108.194 Y108.674 E51.0767
G1 X108.901 Y108.443 E51.15703
G1 X109.707 Y108.392 E51.24425
G1 X110.459 Y108.536 E51.32694
G1 X111.169 Y108.868 E51.41159
G1 X111.765 Y109.362 E51.49519
G1 X112.232 Y110.001 E51.58067
G1 X112.519 Y110.73 E51.66528
G1 X112.616 Y111.5 E51.7491
G1 X112.518 Y112.271 E51.83304
G1 X112.229 Y113.001 E51.91783
G1 X111.771 Y113.632 E52.00204
G1 X111.169 Y114.131 E52.08649
G1 X110.459 Y114.464 E52.17118
G1 X109.699 Y114.61 E52.25476
G1 X108.916 Y114.561 E52.33949
G1 X108.193 Y114.326 E52.4216
G1 X107.491 Y113.881 E52.51136
G1 X106.974 Y113.322 E52.5936
G1 X106.607 Y112.651 E52.6762
G1 X106.41 Y111.887 E52.76141
G0 F4320 X105.996 Y112.02
;TYPE:SKIN
G1 F1337.2 X105.999 Y110.957 E52.90374
G1 F1292.1 X106.2 Y110.094 E53.02602
G1 F1483.9 X106.489 Y109.771 E53.07893
G1 F1800 X106.665 Y109.453 E53.11622
G1 X107.267 Y108.81 E53.2066
G1 X108.023 Y108.334 E53.29826
G1 F1687.9 X108.682 Y108.09 E53.37468
G1 F1501.5 X108.822 Y108.024 E53.39338
G1 F1476.9 X109.761 Y107.983 E53.50862
G1 F1653.3 X110.61 Y108.185 E53.60532
G1 F1800 X111.371 Y108.542 E53.69156
G1 X112.044 Y109.098 E53.78113
G1 X112.566 Y109.816 E53.87221
G1 X112.882 Y110.611 E53.95998
G1 X112.998 Y111.496 E54.05156
G1 X112.893 Y112.344 E54.13923
G1 X112.569 Y113.18 E54.23122
G1 X112.045 Y113.899 E54.3225
G1 X111.373 Y114.456 E54.41205
G1 X110.612 Y114.815 E54.49838
G1 F1653.3 X109.763 Y115.018 E54.59511
G1 F1490.9 X108.87 Y114.981 E54.70378
G1 F1556.8 X108.686 Y114.9 E54.72729
G1 F1733 X108.014 Y114.662 E54.80299
G1 F1800 X107.288 Y114.212 E54.89063
G1 X107.056 Y113.971 E54.92495
G1 X106.649 Y113.527 E54.98675
G1 X106.488 Y113.229 E55.0215
G1 F1483.9 X106.198 Y112.902 E55.07486
G1 F1297.6 X105.996 Y112.02 E55.19926
G10
G0 F4320 X106.323 Y111.949
G0 X107.15 Y113.277
G0 X108.198 Y114.157
G0 X109.021 Y114.405
G0 X110.473 Y114.28
G0 X112.265 Y113.258
G0 X114.267 Y115.69
G0 X116.131 Y115.735
G11
G1 F1800 X116.393 Y116.074 E55.24322
G1 X116.49 Y116.491 E55.28715
G1 X116.49 Y125.51 E56.2125
G1 X117.51 Y125.51 E56.31715
G1 X117.51 Y98 E59.13968
G1 X117.51 Y97.49 E59.192
G1 X116.49 Y97.49 E59.29666
G1 X116.488 Y106.648 E60.23627
G1 X116.39 Y106.943 E60.26816
G1 X116.131 Y107.266 E60.31064
G1 X115.718 Y107.49 E60.35884
G1 X110.628 Y107.49 E60.88108
G1 F1653.3 X109.805 Y107.523 E60.97234
G1 F1501.5 X109.292 Y107.529 E61.03433
G1 F1453 X108.779 Y107.536 E61.09815
G1 F1501.5 X108.592 Y107.514 E61.1209
G1 F1636.5 X107.743 Y107.594 E61.21627
G1 F1742.3 X107.005 Y107.899 E61.30065
G1 F1800 X106.38 Y108.382 E61.3817
G1 X105.899 Y109.007 E61.46261
G1 X105.734 Y109.407 E61.50701
G1 F1429.8 X105.673 Y109.895 E61.56907
G1 F1284 X105.529 Y110.714 E61.68446
G1 F1404 X105.529 Y111.238 E61.75167
G1 F1388.3 X105.528 Y111.762 E61.81954
G1 F1376 X105.527 Y112.286 E61.88795
G1 F1265.3 X105.671 Y113.1 E62.00415
G1 F1429.8 X105.73 Y113.588 E62.06618
G1 F1800 X105.899 Y113.995 E62.1114
G1 X106.381 Y114.62 E62.19238
G1 X107.001 Y115.097 E62.27264
G1 X107.726 Y115.396 E62.3531
G1 F1733 X108.592 Y115.496 E62.44567
G1 F1556.8 X108.856 Y115.467 E62.47673
G1 F1490.9 X109.803 Y115.478 E62.59188
G1 F1653.3 X110.63 Y115.51 E62.68359
G1 F1800 X115.667 Y115.51 E63.20038
G1 X116.131 Y115.735 E63.25329
G0 F4320 X115.913 Y115.921
G0 X116.282 Y125.718
G0 X117.718 Y125.718
G0 X117.79 Y98.076
G0 X117.309 Y98.076
G1 F1800 X116.922 Y97.689 E63.30944
G0 F4320 X116.688 Y98.021
G1 F1800 X117.309 Y98.642 E63.39955
G0 F4320 X117.309 Y99.207
G1 F1800 X116.688 Y98.586 E63.48966
G0 F4320 X116.688 Y99.151
G1 F1800 X117.309 Y99.773 E63.57983
G0 F4320 X117.309 Y100.339
G1 F1800 X116.688 Y99.717 E63.67001
G0 F4320 X116.687 Y100.282
G1 F1800 X117.309 Y100.904 E63.76026
G0 F4320 X117.309 Y101.47
G1 F1800 X116.687 Y100.848 E63.85052
G0 F4320 X116.687 Y101.413
G1 F1800 X117.309 Y102.036 E63.94084
G0 F4320 X117.309 Y102.601
G1 F1800 X116.686 Y101.978 E64.03124
G0 F4320 X116.686 Y102.544
G1 F1800 X117.309 Y103.167 E64.12163
G0 F4320 X117.309 Y103.733
G1 F1800 X116.686 Y103.109 E64.2121
G0 F4320 X116.686 Y103.675
G1 F1800 X117.309 Y104.298 E64.3025
G0 F4320 X117.309 Y104.864
G1 F1800 X116.685 Y104.24 E64.39304
G0 F4320 X116.685 Y104.805
G1 F1800 X117.309 Y105.43 E64.48365
G0 F4320 X117.309 Y105.996
G1 F1800 X116.685 Y105.371 E64.57427
G0 F4320 X116.684 Y105.936
G1 F1800 X117.309 Y106.561 E64.66495
G0 F4320 X117.309 Y107.127
G1 F1800 X116.684 Y106.502 E64.75564
G0 F4320 X116.589 Y106.972
G1 F1800 X117.309 Y107.693 E64.86018
G0 F4320 X117.309 Y108.258
G1 F1800 X116.353 Y107.302 E64.9989
G0 F4320 X116.028 Y107.543
G1 F1800 X117.309 Y108.824 E65.18477
G0 F4320 X117.309 Y109.39
G1 F1800 X115.609 Y107.69 E65.43143
G0 F4320 X115.044 Y107.69
G1 F1800 X117.309 Y109.955 E65.76008
G0 F4320 X117.309 Y110.521
G1 F1800 X114.478 Y107.69 E66.17086
G0 F4320 X113.912 Y107.69
G1 F1800 X117.309 Y111.087 E66.66375
G0 F4320 X117.31 Y111.653
G1 F1800 X113.347 Y107.69 E67.23878
G0 F4320 X112.781 Y107.69
G1 F1800 X117.31 Y112.219 E67.89593
G0 F4320 X117.31 Y112.784
G1 F1800 X112.215 Y107.69 E68.63513
G0 F4320 X111.65 Y107.69
G1 F1800 X117.31 Y113.35 E69.45639
G0 F4320 X117.31 Y113.916
G1 F1800 X111.084 Y107.69 E70.35977
G0 F4320 X110.954 Y108.126
G1 F1800 X110.527 Y107.698 E70.4218
G10
G0 F4320 X110.52 Y107.211
G0 X111.49 Y107.311
G0 X111.18 Y108.674
G0 X112.869 Y110.041
G11
G1 F1800 X117.31 Y114.482 E71.06618
G0 F4320 X117.31 Y115.047
G1 F1800 X113.117 Y110.854 E71.67458
G0 F4320 X113.198 Y111.501
G1 F1800 X117.31 Y115.613 E72.27122
G0 F4320 X117.31 Y116.179
G1 F1800 X113.135 Y112.004 E72.87701
G1 X113.065 Y111.934
G0 F4320 X112.575 Y112.407
G0 X112.343 Y110.724
G0 X111.624 Y109.456
G0 X110.003 Y108.347
G0 X110.1 Y107.838
G1 F1800 X110.002 Y107.739 E72.8913
G10
G0 F4320 X110.002 Y107.211
G0 X111.49 Y107.311
G0 X111.18 Y108.674
G0 X113.053 Y112.487
G11
G1 F1800 X116.017 Y115.451 E73.32137
G0 F4320 X115.309 Y115.309
G1 F1800 X112.894 Y112.894 E73.67179
G0 F4320 X112.73 Y113.296
G1 F1800 X114.743 Y115.309 E73.96387
G0 F4320 X114.177 Y115.309
G1 F1800 X112.492 Y113.623 E74.20843
G0 F4320 X112.253 Y113.95
G1 F1800 X113.612 Y115.309 E74.40562
G0 F4320 X113.046 Y115.309
G1 F1800 X111.963 Y114.226 E74.56276
G0 F4320 X111.654 Y114.482
G1 F1800 X112.48 Y115.309 E74.68269
G0 F4320 X111.915 Y115.309
G1 F1800 X111.312 Y114.706 E74.77018
G0 F4320 X110.927 Y114.887
G1 F1800 X111.349 Y115.309 E74.83141
G0 F4320 X110.783 Y115.309
G1 F1800 X110.52 Y115.045 E74.86964
G10
G0 F4320 X110.392 Y114.578
