;FLAVOR:UltiGCode
;TIME:7549
;MATERIAL:7382
;MATERIAL2:0
;NOZZLE_DIAMETER:0.4
;MINX:78.17
;MINY:78.17
;MINZ:0.27
;MAXX:144.83
;MAXY:144.83
;MAXZ:4.37
;Generated with Cura_SteamEngine main
M82 ;absolute extrusion mode
G0 F3000 Y50 ;avoid prime blob
G92 E0
G92 E0
G10
;LAYER_COUNT:42
;LAYER:0
M107
G0 F4320 X80.548 Y91.986 Z0.27
G0 X78.17 Y97.807
;TYPE:SKIRT
G11
G1 F1800 X78.215 Y96.924 E0.09549
G1 X78.334 Y96.144 E0.1807
G1 X78.532 Y95.379 E0.26604
G1 X78.813 Y94.608 E0.35467
G1 X79.198 Y93.798 E0.45153
G1 X79.608 Y93.122 E0.53692
G1 X80.084 Y92.492 E0.62219
G1 X80.548 Y91.986 E0.69634
G1 X91.986 Y80.548 E2.44332
G1 X92.572 Y80.018 E2.52866
G1 X93.208 Y79.551 E2.61387
G1 X93.888 Y79.15 E2.69913
G1 X94.623 Y78.807 E2.78673
G1 X95.466 Y78.506 E2.8834
G1 X96.233 Y78.317 E2.96872
G1 X97.015 Y78.206 E3.05402
G1 X97.823 Y78.17 E3.14137
G1 X98.709 Y78.215 E3.23718
G1 X99.489 Y78.334 E3.3224
G1 X99.553 Y78.351 E3.32955
G1 X105.975 Y78.907 E4.02572
G1 X106.702 Y78.671 E4.10827
G1 X107.474 Y78.505 E4.19355
G1 X108.384 Y78.403 E4.29245
G1 X123.247 Y78.404 E5.89765
G1 X123.616 Y78.314 E5.93867
G1 X124.398 Y78.205 E6.02394
G1 X125.191 Y78.17 E6.10967
G1 X126.076 Y78.215 E6.20537
G1 X126.856 Y78.334 E6.29059
G1 X127.621 Y78.532 E6.37593
G1 X128.392 Y78.813 E6.46456
G1 X129.202 Y79.198 E6.56142
G1 X129.878 Y79.608 E6.6468
G1 X130.508 Y80.084 E6.73208
G1 X131.014 Y80.548 E6.80622
G1 X142.452 Y91.986 E8.55321
G1 X142.982 Y92.572 E8.63854
G1 X143.449 Y93.208 E8.72376
G1 X143.85 Y93.888 E8.80902
G1 X144.193 Y94.623 E8.89662
G1 X144.494 Y95.466 E8.99329
G1 X144.683 Y96.233 E9.0786
G1 X144.794 Y97.015 E9.16391
G1 X144.83 Y97.822 E9.25115
G1 X144.785 Y98.707 E9.34685
G1 X144.68 Y99.397 E9.42223
G1 X144.677 Y114.428 E11.04558
G1 X144.248 Y122.141 E11.87987
G1 X144.499 Y122.849 E11.961
G1 X144.686 Y123.616 E12.04626
G1 X144.795 Y124.398 E12.13153
G1 X144.83 Y125.191 E12.21726
G1 X144.785 Y126.076 E12.31296
G1 X144.666 Y126.856 E12.39818
G1 X144.468 Y127.621 E12.48352
G1 X144.187 Y128.392 E12.57214
G1 X143.802 Y129.202 E12.669
G1 X143.392 Y129.878 E12.75439
G1 X142.916 Y130.508 E12.83967
G1 X142.452 Y131.014 E12.91381
G1 X131.014 Y142.452 E14.6608
G1 X130.428 Y142.982 E14.74613
G1 X129.792 Y143.449 E14.83135
G1 X129.112 Y143.85 E14.91661
G1 X128.377 Y144.193 E15.0042
G1 X127.534 Y144.494 E15.10088
G1 X126.767 Y144.683 E15.18619
G1 X125.985 Y144.794 E15.27149
G1 X125.178 Y144.83 E15.35874
G1 X124.293 Y144.785 E15.45444
G1 X123.513 Y144.666 E15.53965
G1 X122.748 Y144.468 E15.625
G1 X122.008 Y144.194 E15.71022
G1 X121.243 Y143.826 E15.8019
G1 X120.445 Y143.343 E15.90264
G1 X119.814 Y142.869 E15.98788
G1 X119.234 Y142.333 E16.07317
G1 X118.711 Y141.741 E16.15848
G1 X118.251 Y141.1 E16.24369
G1 X117.793 Y140.304 E16.34287
G1 X111.156 Y124.975 E18.14692
G1 X105.9 Y138.464 E19.71042
G1 X105.787 Y138.911 E19.76021
G1 X105.502 Y139.702 E19.85102
G1 X105.12 Y140.503 E19.94686
G1 X104.711 Y141.178 E20.0321
G1 X104.235 Y141.809 E20.11746
G1 X103.695 Y142.398 E20.20376
G1 X103.038 Y142.992 E20.29942
G1 X102.402 Y143.459 E20.38463
G1 X101.722 Y143.86 E20.46989
G1 X100.986 Y144.203 E20.55759
G1 X100.151 Y144.499 E20.65327
G1 X99.384 Y144.686 E20.73853
G1 X98.602 Y144.795 E20.8238
G1 X97.809 Y144.83 E20.90953
G1 X96.924 Y144.785 E21.00523
G1 X96.144 Y144.666 E21.09045
G1 X95.379 Y144.468 E21.17579
G1 X94.608 Y144.187 E21.26442
G1 X93.798 Y143.802 E21.36127
G1 X93.122 Y143.392 E21.44666
G1 X92.492 Y142.916 E21.53194
G1 X91.986 Y142.452 E21.60608
G1 X80.548 Y131.014 E23.35307
G1 X80.018 Y130.428 E23.4384
G1 X79.551 Y129.792 E23.52362
G1 X79.15 Y129.112 E23.60888
G1 X78.807 Y128.377 E23.69647
G1 X78.506 Y127.534 E23.79315
G1 X78.317 Y126.767 E23.87846
G1 X78.206 Y125.985 E23.96376
G1 X78.17 Y125.177 E24.05112
G1 X78.215 Y124.291 E24.14693
G1 X78.334 Y123.511 E24.23214
G1 X78.532 Y122.746 E24.31748
G1 X78.803 Y122 E24.4032
G1 X79.181 Y121.202 E24.49857
G1 X79.589 Y120.526 E24.58384
G1 X80.063 Y119.894 E24.66916
G1 X80.415 Y119.51 E24.72542
G1 X80.027 Y119.073 E24.78854
G1 X79.566 Y118.432 E24.87381
G1 X79.173 Y117.747 E24.9591
G1 X78.85 Y117.026 E25.04442
G1 X78.602 Y116.277 E25.12963
G1 X78.431 Y115.506 E25.21493
G1 X78.339 Y114.721 E25.30029
G1 X78.322 Y114.205 E25.35604
G1 X78.323 Y99.414 E26.95347
G1 X78.309 Y99.356 E26.95992
G1 X78.203 Y98.573 E27.04525
G1 X78.17 Y97.807 E27.12806
G0 F4320 X78.571 Y97.798
G1 F1800 X78.615 Y96.945 E27.2203
G1 X78.734 Y96.185 E27.30338
G1 X78.932 Y95.442 E27.38643
G1 X79.184 Y94.755 E27.46546
G1 X79.56 Y93.97 E27.55946
G1 X79.961 Y93.314 E27.6425
G1 X80.429 Y92.703 E27.72562
G1 X80.83 Y92.268 E27.78951
G1 X92.268 Y80.83 E29.5365
G1 X92.84 Y80.316 E29.61955
G1 X93.462 Y79.863 E29.70265
G1 X94.127 Y79.477 E29.7857
G1 X94.782 Y79.173 E29.86368
G1 X95.601 Y78.883 E29.95752
G1 X96.348 Y78.702 E30.04053
G1 X97.111 Y78.6 E30.12367
G1 X97.828 Y78.57 E30.20117
G1 X98.688 Y78.615 E30.29418
G1 X99.448 Y78.734 E30.37726
G1 X99.5 Y78.748 E30.38307
G1 X106.046 Y79.315 E31.09269
G1 X106.243 Y79.233 E31.11573
G1 X106.98 Y79.013 E31.1988
G1 X107.736 Y78.87 E31.2819
G1 X108.729 Y78.803 E31.38938
G1 X123.294 Y78.804 E32.9624
G1 X123.73 Y78.699 E33.01084
G1 X124.493 Y78.598 E33.09396
G1 X125.198 Y78.57 E33.17016
G1 X126.055 Y78.615 E33.26284
G1 X126.815 Y78.734 E33.34592
G1 X127.558 Y78.932 E33.42897
G1 X128.245 Y79.184 E33.508
G1 X129.03 Y79.56 E33.602
G1 X129.686 Y79.961 E33.68504
G1 X130.297 Y80.429 E33.76816
G1 X130.732 Y80.83 E33.83206
G1 X142.17 Y92.268 E35.57904
G1 X142.684 Y92.84 E35.66209
G1 X143.137 Y93.462 E35.7452
G1 X143.523 Y94.127 E35.82824
G1 X143.827 Y94.782 E35.90623
G1 X144.117 Y95.601 E36.00006
G1 X144.298 Y96.348 E36.08307
G1 X144.4 Y97.111 E36.16621
G1 X144.43 Y97.827 E36.2436
G1 X144.385 Y98.686 E36.3365
G1 X144.28 Y99.358 E36.40996
G1 X144.277 Y114.424 E38.03709
G1 X143.844 Y122.207 E38.87895
G1 X144.121 Y122.982 E38.96784
G1 X144.301 Y123.73 E39.05093
G1 X144.402 Y124.493 E39.13405
G1 X144.43 Y125.198 E39.21025
G1 X144.385 Y126.055 E39.30293
G1 X144.266 Y126.815 E39.38601
G1 X144.068 Y127.558 E39.46906
G1 X143.816 Y128.245 E39.54809
G1 X143.44 Y129.03 E39.64209
G1 X143.039 Y129.686 E39.72513
G1 X142.571 Y130.297 E39.80825
G1 X142.17 Y130.732 E39.87214
G1 X130.732 Y142.17 E41.61913
G1 X130.16 Y142.684 E41.70218
G1 X129.538 Y143.137 E41.78528
G1 X128.873 Y143.523 E41.86833
G1 X128.218 Y143.827 E41.94631
G1 X127.399 Y144.117 E42.04015
G1 X126.652 Y144.298 E42.12316
G1 X125.889 Y144.4 E42.2063
G1 X125.173 Y144.43 E42.28369
G1 X124.314 Y144.385 E42.37659
G1 X123.554 Y144.266 E42.45967
G1 X122.811 Y144.068 E42.54271
G1 X122.092 Y143.794 E42.62581
G1 X121.423 Y143.467 E42.70624
G1 X120.652 Y143.001 E42.80353
G1 X120.039 Y142.536 E42.88663
G1 X119.478 Y142.01 E42.96968
G1 X118.974 Y141.429 E43.05275
G1 X118.533 Y140.799 E43.1358
G1 X118.019 Y139.819 E43.25532
G1 X111.479 Y124.714 E45.033
G1 X111.161 Y123.858 E45.13162
G1 X105.523 Y138.33 E46.80902
G1 X105.387 Y138.851 E46.86717
G1 X105.129 Y139.554 E46.94805
G1 X104.759 Y140.331 E47.04099
G1 X104.357 Y140.987 E47.12408
G1 X103.89 Y141.598 E47.20714
G1 X103.408 Y142.12 E47.28387
G1 X102.77 Y142.694 E47.37656
G1 X102.148 Y143.147 E47.45966
G1 X101.483 Y143.533 E47.54271
G1 X100.828 Y143.835 E47.6206
G1 X100.018 Y144.121 E47.71338
G1 X99.27 Y144.301 E47.79647
G1 X98.507 Y144.402 E47.87959
G1 X97.802 Y144.43 E47.95579
G1 X96.945 Y144.385 E48.04847
G1 X96.185 Y144.266 E48.13155
G1 X95.442 Y144.068 E48.2146
G1 X94.755 Y143.816 E48.29363
G1 X93.97 Y143.44 E48.38763
G1 X93.314 Y143.039 E48.47067
G1 X92.703 Y142.571 E48.55379
G1 X92.268 Y142.17 E48.61768
G1 X80.83 Y130.732 E50.36467
G1 X80.316 Y130.16 E50.44772
G1 X79.863 Y129.538 E50.53082
G1 X79.477 Y128.873 E50.61387
G1 X79.173 Y128.218 E50.69185
G1 X78.883 Y127.399 E50.78569
G1 X78.702 Y126.652 E50.8687
G1 X78.6 Y125.889 E50.95183
G1 X78.57 Y125.172 E51.02934
G1 X78.615 Y124.312 E51.12235
G1 X78.734 Y123.552 E51.20543
G1 X78.932 Y122.809 E51.28847
G1 X79.175 Y122.147 E51.36463
G1 X79.543 Y121.373 E51.45719
G1 X79.943 Y120.716 E51.54026
G1 X80.409 Y120.105 E51.62325
G1 X80.949 Y119.518 E51.70939
G1 X80.29 Y118.76 E51.81787
G1 X79.849 Y118.13 E51.90092
G1 X79.475 Y117.458 E51.98398
G1 X79.174 Y116.751 E52.06697
G1 X78.947 Y116.016 E52.15005
G1 X78.798 Y115.261 E52.23316
G1 X78.722 Y114.205 E52.3475
G1 X78.723 Y99.36 E53.95076
G1 X78.691 Y99.223 E53.96596
G1 X78.595 Y98.46 E54.04901
G1 X78.571 Y97.798 E54.12056
G0 F4320 X78.975 Y97.713
G1 F1800 X79.015 Y96.966 E54.20135
G1 X79.134 Y96.228 E54.28208
G1 X79.332 Y95.506 E54.36294
G1 X79.558 Y94.901 E54.43269
G1 X79.921 Y94.143 E54.52345
G1 X80.315 Y93.507 E54.60425
G1 X80.864 Y92.8 E54.70093
G1 X92.551 Y81.113 E56.48594
G1 X93.108 Y80.613 E56.56678
G1 X93.714 Y80.176 E56.64747
G1 X94.364 Y79.805 E56.7283
G1 X95.029 Y79.51 E56.80687
G1 X95.735 Y79.26 E56.88776
G1 X96.462 Y79.088 E56.96844
G1 X97.205 Y78.993 E57.04934
G1 X97.838 Y78.971 E57.11774
G1 X98.667 Y79.015 E57.2074
G1 X99.441 Y79.144 E57.29215
G1 X106.11 Y79.722 E58.0151
G1 X106.533 Y79.556 E58.06417
G1 X107.255 Y79.36 E58.14497
G1 X107.993 Y79.242 E58.22569
G1 X108.729 Y79.203 E58.30529
G1 X123.337 Y79.204 E59.88295
G1 X123.844 Y79.085 E59.9392
G1 X124.586 Y78.992 E60.01996
G1 X125.287 Y78.975 E60.09569
G1 X126.034 Y79.015 E60.17648
G1 X126.772 Y79.134 E60.25721
G1 X127.494 Y79.332 E60.33807
G1 X128.099 Y79.558 E60.40782
G1 X128.857 Y79.921 E60.49859
G1 X129.493 Y80.315 E60.57939
G1 X130.2 Y80.864 E60.67606
G1 X141.887 Y92.551 E62.46107
G1 X142.387 Y93.108 E62.54191
G1 X142.824 Y93.714 E62.6226
G1 X143.195 Y94.364 E62.70343
G1 X143.49 Y95.029 E62.782
G1 X143.74 Y95.735 E62.86289
G1 X143.912 Y96.462 E62.94357
G1 X144.007 Y97.205 E63.02447
G1 X144.029 Y97.836 E63.09266
G1 X143.985 Y98.665 E63.18232
G1 X143.88 Y99.317 E63.25364
G1 X143.877 Y114.401 E64.88271
G1 X143.44 Y122.251 E65.73183
G1 X143.744 Y123.115 E65.83075
G1 X143.915 Y123.844 E65.91161
G1 X144.008 Y124.586 E65.99238
G1 X144.025 Y125.287 E66.06811
G1 X143.985 Y126.034 E66.1489
G1 X143.866 Y126.772 E66.22963
G1 X143.668 Y127.494 E66.31049
G1 X143.442 Y128.099 E66.38024
G1 X143.079 Y128.857 E66.471
G1 X142.685 Y129.493 E66.55181
G1 X142.136 Y130.2 E66.64848
G1 X130.449 Y141.887 E68.43349
G1 X129.892 Y142.387 E68.51433
G1 X129.286 Y142.824 E68.59502
G1 X128.636 Y143.195 E68.67585
G1 X127.971 Y143.49 E68.75442
G1 X127.265 Y143.74 E68.83531
G1 X126.538 Y143.912 E68.91599
G1 X125.795 Y144.007 E68.99689
G1 X125.164 Y144.029 E69.06508
G1 X124.335 Y143.985 E69.15474
G1 X123.597 Y143.866 E69.23547
G1 X122.875 Y143.668 E69.31633
G1 X122.179 Y143.395 E69.39707
G1 X121.499 Y143.047 E69.47957
G1 X120.86 Y142.658 E69.56036
G1 X120.266 Y142.204 E69.64111
G1 X119.724 Y141.688 E69.72193
G1 X119.24 Y141.118 E69.80269
G1 X118.819 Y140.499 E69.88353
G1 X118.386 Y139.66 E69.9855
G1 X111.846 Y124.555 E71.76319
G1 X111.586 Y123.854 E71.84393
G1 X111.402 Y123.129 E71.92472
G1 X111.338 Y122.676 E71.97413
G1 X111.016 Y123.129 E72.03415
G1 X105.147 Y138.192 E73.78008
G1 X104.986 Y138.788 E73.84675
G1 X104.759 Y139.406 E73.91786
G1 X104.397 Y140.158 E74.00799
G1 X104.004 Y140.794 E74.08874
G1 X103.545 Y141.385 E74.16955
G1 X103.059 Y141.897 E74.24579
G1 X102.502 Y142.397 E74.32663
G1 X101.896 Y142.834 E74.40732
G1 X101.246 Y143.205 E74.48815
G1 X100.669 Y143.468 E74.55663
G1 X99.885 Y143.744 E74.6464
G1 X99.156 Y143.915 E74.72727
G1 X98.414 Y144.008 E74.80803
G1 X97.713 Y144.025 E74.88376
G1 X96.966 Y143.985 E74.96455
G1 X96.228 Y143.866 E75.04529
G1 X95.506 Y143.668 E75.12614
G1 X94.901 Y143.442 E75.19589
G1 X94.143 Y143.079 E75.28666
G1 X93.507 Y142.685 E75.36746
G1 X92.8 Y142.136 E75.46413
G1 X81.113 Y130.449 E77.24915
G1 X80.613 Y129.892 E77.32999
G1 X80.176 Y129.286 E77.41068
G1 X79.805 Y128.636 E77.49151
G1 X79.51 Y127.971 E77.57008
G1 X79.26 Y127.265 E77.65096
G1 X79.088 Y126.538 E77.73165
G1 X78.993 Y125.795 E77.81254
G1 X78.971 Y125.162 E77.88095
G1 X79.015 Y124.333 E77.97061
G1 X79.134 Y123.595 E78.05134
G1 X79.332 Y122.873 E78.1322
G1 X79.582 Y122.221 E78.20761
G1 X79.904 Y121.545 E78.28848
G1 X80.296 Y120.908 E78.36926
G1 X80.754 Y120.317 E78.45001
G1 X81.186 Y119.851 E78.51864
G1 X81.562 Y119.514 E78.57317
G1 X81.04 Y119.019 E78.65086
G1 X80.555 Y118.449 E78.73169
G1 X80.134 Y117.831 E78.81245
G1 X79.782 Y117.171 E78.89323
G1 X79.501 Y116.478 E78.974
G1 X79.296 Y115.758 E79.05485
G1 X79.17 Y115.021 E79.1356
G1 X79.122 Y114.205 E79.22388
G1 X79.123 Y99.308 E80.83275
G1 X79.074 Y99.092 E80.85667
G1 X78.988 Y98.349 E80.93745
G1 X78.975 Y97.713 E81.00616
G0 F4320 X79.368 Y97.834
G1 F1800 X79.415 Y96.988 E81.09766
G1 X79.534 Y96.271 E81.17616
G1 X79.732 Y95.572 E81.25462
G1 X79.967 Y94.971 E81.32432
G1 X80.282 Y94.316 E81.40281
G1 X80.667 Y93.7 E81.48126
G1 X81.186 Y93.044 E81.5716
G1 X92.834 Y81.396 E83.35066
G1 X93.375 Y80.912 E83.42906
G1 X93.966 Y80.489 E83.50755
G1 X94.6 Y80.135 E83.58597
G1 X95.183 Y79.879 E83.65474
G1 X95.868 Y79.638 E83.73317
G1 X96.575 Y79.474 E83.81155
G1 X97.297 Y79.388 E83.89008
G1 X97.92 Y79.375 E83.95738
G1 X98.645 Y79.415 E84.03579
G1 X99.387 Y79.541 E84.11708
G1 X106.154 Y80.127 E84.85065
G1 X106.819 Y79.885 E84.92708
G1 X107.525 Y79.714 E85.00553
G1 X108.385 Y79.603 E85.09918
G1 X123.379 Y79.604 E86.71853
G1 X123.956 Y79.471 E86.78248
G1 X124.677 Y79.387 E86.86088
G1 X125.287 Y79.375 E86.92677
G1 X126.012 Y79.415 E87.00519
G1 X126.729 Y79.534 E87.08368
G1 X127.428 Y79.732 E87.16215
G1 X128.029 Y79.967 E87.23184
G1 X128.684 Y80.282 E87.31033
G1 X129.3 Y80.667 E87.38879
G1 X129.956 Y81.186 E87.47913
G1 X141.604 Y92.834 E89.25819
G1 X142.088 Y93.375 E89.33658
G1 X142.511 Y93.966 E89.41508
G1 X142.865 Y94.6 E89.4935
G1 X143.121 Y95.183 E89.56226
G1 X143.362 Y95.868 E89.64069
G1 X143.526 Y96.575 E89.71907
G1 X143.612 Y97.297 E89.7976
G1 X143.625 Y97.918 E89.86468
G1 X143.585 Y98.643 E89.9431
G1 X143.48 Y99.277 E90.01251
G1 X143.477 Y114.397 E91.64547
G1 X143.037 Y122.308 E92.50118
G1 X143.366 Y123.248 E92.60873
G1 X143.529 Y123.956 E92.6872
G1 X143.613 Y124.677 E92.76559
G1 X143.625 Y125.287 E92.83149
G1 X143.585 Y126.012 E92.9099
G1 X143.466 Y126.729 E92.9884
G1 X143.268 Y127.428 E93.06686
G1 X143.033 Y128.029 E93.13656
G1 X142.718 Y128.684 E93.21505
G1 X142.333 Y129.3 E93.2935
G1 X141.814 Y129.956 E93.38384
G1 X130.166 Y141.604 E95.1629
G1 X129.625 Y142.088 E95.2413
G1 X129.034 Y142.511 E95.31979
G1 X128.4 Y142.865 E95.39821
G1 X127.817 Y143.121 E95.46698
G1 X127.132 Y143.362 E95.54541
G1 X126.425 Y143.526 E95.62379
G1 X125.703 Y143.612 E95.70232
G1 X125.082 Y143.625 E95.7694
G1 X124.357 Y143.585 E95.84782
G1 X123.64 Y143.466 E95.92631
G1 X122.941 Y143.268 E96.00478
G1 X121.847 Y142.79 E96.13371
G1 X121.068 Y142.316 E96.2322
G1 X120.494 Y141.872 E96.31057
G1 X119.971 Y141.367 E96.38909
G1 X119.507 Y140.808 E96.46755
G1 X119.108 Y140.202 E96.54591
G1 X118.753 Y139.501 E96.63077
G1 X112.213 Y124.396 E98.40845
G1 X111.962 Y123.715 E98.48684
G1 X111.787 Y123.01 E98.56529
G1 X111.69 Y122.29 E98.64375
G1 X111.673 Y121.564 E98.72218
G1 X111.64 Y121.274 E98.7537
G1 X111.173 Y122.194 E98.86513
G1 X110.774 Y122.801 E98.94358
G1 X110.666 Y122.926 E98.96142
G1 X104.77 Y138.059 E100.71545
G1 X104.586 Y138.724 E100.78997
G1 X104.351 Y139.33 E100.86017
G1 X104.036 Y139.985 E100.93866
G1 X103.651 Y140.601 E101.01712
G1 X103.201 Y141.171 E101.09555
G1 X102.776 Y141.614 E101.16185
G1 X102.235 Y142.098 E101.24025
G1 X101.644 Y142.521 E101.31874
G1 X101.01 Y142.875 E101.39716
G1 X100.438 Y143.126 E101.46462
G1 X99.752 Y143.366 E101.54312
G1 X99.044 Y143.529 E101.62158
G1 X98.323 Y143.613 E101.69997
G1 X97.713 Y143.625 E101.76587
G1 X96.988 Y143.585 E101.84429
G1 X96.271 Y143.466 E101.92278
G1 X95.572 Y143.268 E102.00124
G1 X94.971 Y143.033 E102.07094
G1 X94.316 Y142.718 E102.14943
G1 X93.7 Y142.333 E102.22789
G1 X93.044 Y141.814 E102.31822
G1 X81.396 Y130.166 E104.09728
G1 X80.912 Y129.625 E104.17568
G1 X80.489 Y129.034 E104.25417
G1 X80.135 Y128.4 E104.3326
G1 X79.879 Y127.817 E104.40136
G1 X79.638 Y127.132 E104.47979
G1 X79.474 Y126.425 E104.55817
G1 X79.388 Y125.703 E104.6367
G1 X79.375 Y125.08 E104.704
G1 X79.415 Y124.355 E104.78242
