;FLAVOR:UltiGCode
;TIME:4593
;MATERIAL:4946
;MATERIAL2:0
;NOZZLE_DIAMETER:0.4
;MINX:49.21
;MINY:93.21
;MINZ:0.27
;MAXX:173.79
;MAXY:129.79
;MAXZ:2.97
;Generated with Cura_SteamEngine main
M82 ;absolute extrusion mode
G0 F3000 Y50 ;avoid prime blob
G92 E0
G92 E0
G10
;LAYER_COUNT:28
;LAYER:0
M107
G0 F4320 X52.88 Y94.393 Z0.27
G0 X49.21 Y101.01
;TYPE:SKIRT
G11
G1 F1800 X49.25 Y100.221 E0.08532
G1 X49.369 Y99.441 E0.17054
G1 X49.567 Y98.676 E0.25588
G1 X49.841 Y97.936 E0.3411
G1 X50.189 Y97.227 E0.4264
G1 X50.607 Y96.556 E0.51178
G1 X51.09 Y95.932 E0.597
G1 X51.633 Y95.359 E0.68226
G1 X52.232 Y94.844 E0.76757
G1 X52.88 Y94.393 E0.85284
G1 X53.571 Y94.009 E0.93822
G1 X54.296 Y93.697 E1.02346
G1 X55.049 Y93.46 E1.10872
G1 X55.823 Y93.301 E1.19405
G1 X56.705 Y93.21 E1.28981
G1 X165.99 Y93.21 E13.09259
G1 X166.779 Y93.25 E13.17792
G1 X167.559 Y93.369 E13.26313
G1 X168.324 Y93.567 E13.34847
G1 X169.064 Y93.841 E13.4337
G1 X169.773 Y94.189 E13.51899
G1 X170.444 Y94.607 E13.60437
G1 X171.068 Y95.09 E13.68959
G1 X171.641 Y95.633 E13.77485
G1 X172.156 Y96.232 E13.86017
G1 X172.607 Y96.88 E13.94543
G1 X172.991 Y97.571 E14.03081
G1 X173.303 Y98.296 E14.11605
G1 X173.54 Y99.049 E14.20131
G1 X173.699 Y99.823 E14.28665
G1 X173.79 Y100.705 E14.38241
G1 X173.79 Y105.99 E14.95319
G1 X173.75 Y106.779 E15.03851
G1 X173.631 Y107.559 E15.12372
G1 X173.433 Y108.324 E15.20907
G1 X173.159 Y109.064 E15.29429
G1 X172.811 Y109.773 E15.37959
G1 X172.393 Y110.444 E15.46497
G1 X171.91 Y111.068 E15.55019
G1 X171.514 Y111.486 E15.61238
G1 X172.156 Y112.232 E15.71867
G1 X172.607 Y112.88 E15.80394
G1 X172.991 Y113.571 E15.88931
G1 X173.303 Y114.296 E15.97456
G1 X173.54 Y115.049 E16.05981
G1 X173.699 Y115.823 E16.14515
G1 X173.79 Y116.705 E16.24091
G1 X173.79 Y121.99 E16.81169
G1 X173.75 Y122.779 E16.89701
G1 X173.631 Y123.559 E16.98223
G1 X173.433 Y124.324 E17.06757
G1 X173.159 Y125.064 E17.15279
G1 X172.811 Y125.773 E17.23809
G1 X172.393 Y126.444 E17.32347
G1 X171.91 Y127.068 E17.40869
G1 X171.367 Y127.641 E17.49395
G1 X170.768 Y128.156 E17.57926
G1 X170.12 Y128.607 E17.66453
G1 X169.429 Y128.991 E17.74991
G1 X168.704 Y129.303 E17.83515
G1 X167.951 Y129.54 E17.92041
G1 X167.177 Y129.699 E18.00574
G1 X166.295 Y129.79 E18.10151
G1 X57.01 Y129.79 E29.90429
G1 X56.221 Y129.75 E29.98961
G1 X55.441 Y129.631 E30.07482
G1 X54.676 Y129.433 E30.16016
G1 X53.936 Y129.159 E30.24539
G1 X53.227 Y128.811 E30.33069
G1 X52.556 Y128.393 E30.41607
G1 X51.932 Y127.91 E30.50129
G1 X51.359 Y127.367 E30.58654
G1 X50.844 Y126.768 E30.67186
G1 X50.393 Y126.12 E30.75712
G1 X50.009 Y125.429 E30.8425
G1 X49.697 Y124.704 E30.92774
G1 X49.46 Y123.951 E31.013
G1 X49.301 Y123.177 E31.09834
G1 X49.21 Y122.295 E31.1941
G1 X49.21 Y117.01 E31.76488
G1 X49.25 Y116.221 E31.8502
G1 X49.369 Y115.441 E31.93542
G1 X49.567 Y114.676 E32.02076
G1 X49.841 Y113.936 E32.10598
G1 X50.189 Y113.227 E32.19128
G1 X50.607 Y112.556 E32.27666
G1 X51.09 Y111.932 E32.36188
G1 X51.486 Y111.514 E32.42407
G1 X50.844 Y110.768 E32.53036
G1 X50.393 Y110.12 E32.61563
G1 X50.009 Y109.429 E32.70101
G1 X49.697 Y108.704 E32.78625
G1 X49.46 Y107.951 E32.8715
G1 X49.301 Y107.177 E32.95684
G1 X49.21 Y106.295 E33.0526
G1 X49.21 Y101.01 E33.62338
G0 F4320 X49.61 Y101.01
G1 F1800 X49.65 Y100.242 E33.70644
G1 X49.769 Y99.482 E33.78952
G1 X49.967 Y98.739 E33.87256
G1 X50.241 Y98.02 E33.95566
G1 X50.588 Y97.334 E34.03869
G1 X51.004 Y96.687 E34.12176
G1 X51.485 Y96.087 E34.20482
G1 X52.026 Y95.54 E34.28791
G1 X52.621 Y95.052 E34.37101
G1 X53.263 Y94.629 E34.45405
G1 X53.946 Y94.274 E34.53718
G1 X54.661 Y93.993 E34.62015
G1 X55.403 Y93.787 E34.70332
G1 X56.161 Y93.659 E34.78634
G1 X57.01 Y93.61 E34.87818
G1 X165.99 Y93.61 E46.64802
G1 X166.758 Y93.65 E46.73108
G1 X167.518 Y93.769 E46.81416
G1 X168.261 Y93.967 E46.89721
G1 X168.98 Y94.241 E46.98031
G1 X169.666 Y94.588 E47.06333
G1 X170.313 Y95.004 E47.14641
G1 X170.913 Y95.485 E47.22946
G1 X171.46 Y96.026 E47.31255
G1 X171.948 Y96.621 E47.39566
G1 X172.371 Y97.263 E47.47869
G1 X172.726 Y97.946 E47.56182
G1 X173.007 Y98.661 E47.64479
G1 X173.213 Y99.403 E47.72796
G1 X173.341 Y100.161 E47.81098
G1 X173.39 Y101.01 E47.90283
G1 X173.39 Y105.99 E48.44067
G1 X173.35 Y106.758 E48.52372
G1 X173.231 Y107.518 E48.6068
G1 X173.033 Y108.261 E48.68985
G1 X172.759 Y108.98 E48.77295
G1 X172.412 Y109.666 E48.85597
G1 X171.996 Y110.313 E48.93905
G1 X171.515 Y110.913 E49.0221
G1 X170.931 Y111.503 E49.11175
G1 X171.46 Y112.026 E49.19209
G1 X171.948 Y112.621 E49.2752
G1 X172.371 Y113.263 E49.35824
G1 X172.726 Y113.946 E49.44137
G1 X173.007 Y114.661 E49.52434
G1 X173.213 Y115.403 E49.60751
G1 X173.341 Y116.161 E49.69053
G1 X173.39 Y117.01 E49.78237
G1 X173.39 Y121.99 E50.32021
G1 X173.35 Y122.758 E50.40327
G1 X173.231 Y123.518 E50.48635
G1 X173.033 Y124.261 E50.56939
G1 X172.759 Y124.98 E50.65249
G1 X172.412 Y125.666 E50.73552
G1 X171.996 Y126.313 E50.81859
G1 X171.515 Y126.913 E50.90165
G1 X170.974 Y127.46 E50.98474
G1 X170.379 Y127.948 E51.06784
G1 X169.737 Y128.371 E51.15088
G1 X169.054 Y128.726 E51.23401
G1 X168.339 Y129.007 E51.31698
G1 X167.597 Y129.213 E51.40015
G1 X166.839 Y129.341 E51.48317
G1 X165.99 Y129.39 E51.57501
G1 X57.01 Y129.39 E63.34485
G1 X56.242 Y129.35 E63.42791
G1 X55.482 Y129.231 E63.51099
G1 X54.739 Y129.033 E63.59404
G1 X54.02 Y128.759 E63.67713
G1 X53.334 Y128.412 E63.76016
G1 X52.687 Y127.996 E63.84324
G1 X52.087 Y127.515 E63.92629
G1 X51.54 Y126.974 E64.00938
G1 X51.052 Y126.379 E64.09248
G1 X50.629 Y125.737 E64.17552
G1 X50.274 Y125.054 E64.25865
G1 X49.993 Y124.339 E64.34162
G1 X49.787 Y123.597 E64.42479
G1 X49.659 Y122.839 E64.50781
G1 X49.61 Y121.99 E64.59966
G1 X49.61 Y117.01 E65.1375
G1 X49.65 Y116.242 E65.22055
G1 X49.769 Y115.482 E65.30363
G1 X49.967 Y114.739 E65.38668
G1 X50.241 Y114.02 E65.46978
G1 X50.588 Y113.334 E65.5528
G1 X51.004 Y112.687 E65.63588
G1 X51.485 Y112.087 E65.71893
G1 X52.069 Y111.497 E65.80858
G1 X51.54 Y110.974 E65.88892
G1 X51.052 Y110.379 E65.97203
G1 X50.629 Y109.737 E66.05507
G1 X50.274 Y109.054 E66.1382
G1 X49.993 Y108.339 E66.22117
G1 X49.787 Y107.597 E66.30434
G1 X49.659 Y106.839 E66.38736
G1 X49.61 Y105.99 E66.4792
G1 X49.61 Y101.01 E67.01704
G0 F4320 X50.01 Y101.01
G1 F1800 X50.05 Y100.263 E67.09783
G1 X50.169 Y99.525 E67.17857
G1 X50.367 Y98.803 E67.25942
G1 X50.64 Y98.107 E67.34017
G1 X50.987 Y97.444 E67.42099
G1 X51.402 Y96.821 E67.50183
G1 X51.881 Y96.247 E67.58257
G1 X52.418 Y95.726 E67.66338
G1 X53.008 Y95.267 E67.74411
G1 X53.644 Y94.872 E67.82497
G1 X54.318 Y94.548 E67.90573
G1 X55.023 Y94.298 E67.98652
G1 X55.751 Y94.124 E68.06736
G1 X56.493 Y94.029 E68.14815
G1 X57.01 Y94.01 E68.20402
G1 X165.99 Y94.01 E79.97386
G1 X166.737 Y94.05 E80.05465
G1 X167.475 Y94.169 E80.13539
G1 X168.197 Y94.367 E80.21624
G1 X168.893 Y94.64 E80.29698
G1 X169.556 Y94.987 E80.3778
G1 X170.179 Y95.402 E80.45865
G1 X170.753 Y95.881 E80.53939
G1 X171.274 Y96.418 E80.6202
G1 X171.733 Y97.008 E80.70093
G1 X172.128 Y97.644 E80.78179
G1 X172.452 Y98.318 E80.86255
G1 X172.702 Y99.023 E80.94334
G1 X172.876 Y99.751 E81.02418
G1 X172.971 Y100.493 E81.10497
G1 X172.99 Y101.01 E81.16084
G1 X172.99 Y105.99 E81.69868
G1 X172.95 Y106.737 E81.77947
G1 X172.831 Y107.475 E81.8602
G1 X172.633 Y108.197 E81.94106
G1 X172.36 Y108.893 E82.0218
G1 X172.013 Y109.556 E82.10262
G1 X171.598 Y110.179 E82.18347
G1 X171.119 Y110.753 E82.26421
G1 X170.325 Y111.524 E82.38374
G1 X170.753 Y111.881 E82.44393
G1 X171.274 Y112.418 E82.52474
G1 X171.733 Y113.008 E82.60547
G1 X172.128 Y113.644 E82.68632
G1 X172.452 Y114.318 E82.76709
G1 X172.702 Y115.023 E82.84788
G1 X172.876 Y115.751 E82.92871
G1 X172.971 Y116.493 E83.0095
G1 X172.99 Y117.01 E83.06538
G1 X172.99 Y121.99 E83.60322
G1 X172.95 Y122.737 E83.68401
G1 X172.831 Y123.475 E83.76474
G1 X172.633 Y124.197 E83.8456
G1 X172.36 Y124.893 E83.92634
G1 X172.013 Y125.556 E84.00716
G1 X171.598 Y126.179 E84.08801
G1 X171.119 Y126.753 E84.16875
G1 X170.582 Y127.274 E84.24955
G1 X169.992 Y127.733 E84.33029
G1 X169.356 Y128.128 E84.41114
G1 X168.682 Y128.452 E84.49191
G1 X167.977 Y128.702 E84.57269
G1 X167.249 Y128.876 E84.65353
G1 X166.507 Y128.971 E84.73432
G1 X165.99 Y128.99 E84.7902
G1 X57.01 Y128.99 E96.56004
G1 X56.263 Y128.95 E96.64083
G1 X55.525 Y128.831 E96.72156
G1 X54.803 Y128.633 E96.80242
G1 X54.107 Y128.36 E96.88316
G1 X53.444 Y128.013 E96.96398
G1 X52.821 Y127.598 E97.04482
G1 X52.247 Y127.119 E97.12557
G1 X51.726 Y126.582 E97.20637
G1 X51.267 Y125.992 E97.2871
G1 X50.872 Y125.356 E97.36796
G1 X50.548 Y124.682 E97.44873
G1 X50.298 Y123.977 E97.52951
G1 X50.124 Y123.249 E97.61035
G1 X50.029 Y122.507 E97.69114
G1 X50.01 Y121.99 E97.74701
G1 X50.01 Y117.01 E98.28485
G1 X50.05 Y116.263 E98.36565
G1 X50.169 Y115.525 E98.44638
G1 X50.367 Y114.803 E98.52723
G1 X50.64 Y114.107 E98.60798
G1 X50.987 Y113.444 E98.6888
G1 X51.402 Y112.821 E98.76964
G1 X51.881 Y112.247 E98.85038
G1 X52.675 Y111.476 E98.96991
G1 X52.247 Y111.119 E99.0301
G1 X51.726 Y110.582 E99.11091
G1 X51.267 Y109.992 E99.19164
G1 X50.872 Y109.356 E99.2725
G1 X50.548 Y108.682 E99.35327
G1 X50.298 Y107.977 E99.43405
G1 X50.124 Y107.249 E99.51489
G1 X50.029 Y106.507 E99.59568
G1 X50.01 Y105.99 E99.65155
G1 X50.01 Y101.01 E100.18939
G0 F4320 X50.41 Y101.01
G1 F1800 X50.45 Y100.285 E100.26781
G1 X50.569 Y99.568 E100.34631
G1 X50.767 Y98.869 E100.42477
G1 X51.04 Y98.196 E100.50321
G1 X51.385 Y97.557 E100.58163
G1 X51.799 Y96.96 E100.6601
G1 X52.275 Y96.412 E100.73849
G1 X52.809 Y95.919 E100.81698
G1 X53.394 Y95.489 E100.89539
G1 X54.023 Y95.125 E100.97388
G1 X54.688 Y94.832 E101.05236
G1 X55.381 Y94.614 E101.13082
G1 X56.093 Y94.474 E101.20919
G1 X57.01 Y94.41 E101.30847
G1 X165.99 Y94.41 E113.07831
G1 X166.715 Y94.45 E113.15673
G1 X167.432 Y94.569 E113.23522
G1 X168.131 Y94.767 E113.31368
G1 X168.804 Y95.04 E113.39212
G1 X169.443 Y95.385 E113.47055
G1 X170.04 Y95.799 E113.54901
G1 X170.588 Y96.275 E113.6274
G1 X171.081 Y96.809 E113.7059
G1 X171.511 Y97.394 E113.78431
G1 X171.875 Y98.023 E113.86279
G1 X172.168 Y98.688 E113.94128
G1 X172.386 Y99.381 E114.01974
G1 X172.526 Y100.093 E114.09811
G1 X172.59 Y101.01 E114.19738
G1 X172.59 Y105.99 E114.73522
G1 X172.55 Y106.715 E114.81364
G1 X172.431 Y107.432 E114.89214
G1 X172.233 Y108.131 E114.9706
G1 X171.96 Y108.804 E115.04904
G1 X171.615 Y109.443 E115.12746
G1 X171.201 Y110.04 E115.20593
G1 X170.725 Y110.588 E115.28432
G1 X170.191 Y111.081 E115.36281
G1 X169.615 Y111.504 E115.43999
G1 X170.04 Y111.799 E115.49587
G1 X170.588 Y112.275 E115.57426
G1 X171.081 Y112.809 E115.65275
G1 X171.511 Y113.394 E115.73116
G1 X171.875 Y114.023 E115.80965
G1 X172.168 Y114.688 E115.88813
G1 X172.386 Y115.381 E115.96659
G1 X172.526 Y116.093 E116.04496
G1 X172.59 Y117.01 E116.14424
G1 X172.59 Y121.99 E116.68208
G1 X172.55 Y122.715 E116.7605
G1 X172.431 Y123.432 E116.83899
G1 X172.233 Y124.131 E116.91745
G1 X171.96 Y124.804 E116.99589
G1 X171.615 Y125.443 E117.07432
G1 X171.201 Y126.04 E117.15278
G1 X170.725 Y126.588 E117.23117
G1 X170.191 Y127.081 E117.30966
G1 X169.606 Y127.511 E117.38808
G1 X168.977 Y127.875 E117.46656
G1 X168.312 Y128.168 E117.54505
G1 X167.619 Y128.386 E117.62351
G1 X166.907 Y128.526 E117.70187
G1 X165.99 Y128.59 E117.80115
G1 X57.01 Y128.59 E129.57099
G1 X56.285 Y128.55 E129.64941
G1 X55.568 Y128.431 E129.72791
G1 X54.869 Y128.233 E129.80637
G1 X54.196 Y127.96 E129.8848
G1 X53.557 Y127.615 E129.96323
G1 X52.96 Y127.201 E130.04169
G1 X52.412 Y126.725 E130.12009
G1 X51.919 Y126.191 E130.19858
G1 X51.489 Y125.606 E130.27699
G1 X51.125 Y124.977 E130.35548
G1 X50.832 Y124.312 E130.43396
G1 X50.614 Y123.619 E130.51242
G1 X50.474 Y122.907 E130.59079
G1 X50.41 Y121.99 E130.69007
G1 X50.41 Y117.01 E131.22791
G1 X50.45 Y116.285 E131.30632
G1 X50.569 Y115.568 E131.38482
G1 X50.767 Y114.869 E131.46328
G1 X51.04 Y114.196 E131.54172
G1 X51.385 Y113.557 E131.62015
G1 X51.799 Y112.96 E131.69861
G1 X52.275 Y112.412 E131.777
G1 X52.809 Y111.919 E131.85549
G1 X53.385 Y111.496 E131.93267
G1 X52.96 Y111.201 E131.98855
G1 X52.412 Y110.725 E132.06694
G1 X51.919 Y110.191 E132.14543
G1 X51.489 Y109.606 E132.22385
G1 X51.125 Y108.977 E132.30233
G1 X50.832 Y108.312 E132.38081
G1 X50.614 Y107.619 E132.45927
G1 X50.474 Y106.907 E132.53764
G1 X50.41 Y105.99 E132.63692
G1 X50.41 Y101.01 E133.17476
G0 F4320 X50.81 Y101.01
G1 F1800 X50.85 Y100.307 E133.25081
G1 X50.969 Y99.613 E133.32685
G1 X51.167 Y98.938 E133.40282
G1 X51.439 Y98.289 E133.47882
G1 X51.784 Y97.675 E133.55489
G1 X52.195 Y97.104 E133.63087
G1 X52.669 Y96.583 E133.70694
G1 X53.199 Y96.119 E133.78301
G1 X53.778 Y95.719 E133.85902
G1 X54.399 Y95.387 E133.93507
G1 X55.053 Y95.127 E134.01108
G1 X55.733 Y94.943 E134.08716
G1 X56.429 Y94.837 E134.16319
G1 X57.01 Y94.81 E134.22601
G1 X165.99 Y94.81 E145.99585
G1 X166.693 Y94.85 E146.0719
G1 X167.387 Y94.969 E146.14794
G1 X168.062 Y95.167 E146.22391
G1 X168.711 Y95.439 E146.29991
G1 X169.325 Y95.784 E146.37598
G1 X169.896 Y96.195 E146.45196
G1 X170.417 Y96.669 E146.52803
G1 X170.881 Y97.199 E146.6041
G1 X171.281 Y97.778 E146.68011
G1 X171.613 Y98.399 E146.75616
G1 X171.873 Y99.053 E146.83217
G1 X172.057 Y99.733 E146.90825
G1 X172.163 Y100.429 E146.98428
G1 X172.19 Y101.01 E147.0471
G1 X172.19 Y105.99 E147.58494
G1 X172.15 Y106.693 E147.66099
G1 X172.031 Y107.387 E147.73703
G1 X171.833 Y108.062 E147.813
G1 X171.561 Y108.711 E147.889
G1 X171.216 Y109.325 E147.96507
G1 X170.805 Y109.896 E148.04105
G1 X170.331 Y110.417 E148.11712
G1 X169.801 Y110.881 E148.19319
G1 X169.19 Y111.298 E148.27309
G1 X169.19 Y111.687 E148.3151
G1 X169.896 Y112.195 E148.40903
G1 X170.417 Y112.669 E148.4851
G1 X170.881 Y113.199 E148.56118
G1 X171.281 Y113.778 E148.63718
G1 X171.613 Y114.399 E148.71323
G1 X171.873 Y115.053 E148.78924
G1 X172.057 Y115.733 E148.86532
G1 X172.163 Y116.429 E148.94136
G1 X172.19 Y117.01 E149.00417
G1 X172.19 Y121.99 E149.54201
G1 X172.15 Y122.693 E149.61806
G1 X172.031 Y123.387 E149.69411
G1 X171.833 Y124.062 E149.77008
G1 X171.561 Y124.711 E149.84608
G1 X171.216 Y125.325 E149.92214
G1 X170.805 Y125.896 E149.99812
G1 X170.331 Y126.417 E150.07419
G1 X169.801 Y126.881 E150.15027
G1 X169.222 Y127.281 E150.22627
G1 X168.601 Y127.613 E150.30232
G1 X167.947 Y127.873 E150.37833
G1 X167.267 Y128.057 E150.45441
G1 X166.571 Y128.163 E150.53045
G1 X165.99 Y128.19 E150.59326
G1 X57.01 Y128.19 E162.3631
G1 X56.307 Y128.15 E162.43915
G1 X55.613 Y128.031 E162.5152
G1 X54.938 Y127.833 E162.59117
G1 X54.289 Y127.561 E162.66717
G1 X53.675 Y127.216 E162.74323
G1 X53.104 Y126.805 E162.81921
G1 X52.583 Y126.331 E162.89528
G1 X52.119 Y125.801 E162.97136
G1 X51.719 Y125.222 E163.04736
G1 X51.387 Y124.601 E163.12341
G1 X51.127 Y123.947 E163.19942
G1 X50.943 Y123.267 E163.2755
G1 X50.837 Y122.571 E163.35154
G1 X50.81 Y121.99 E163.41435
G1 X50.81 Y117.01 E163.95219
G1 X50.85 Y116.307 E164.02824
G1 X50.969 Y115.613 E164.10429
G1 X51.167 Y114.938 E164.18026
G1 X51.439 Y114.289 E164.25626
G1 X51.784 Y113.675 E164.33232
G1 X52.195 Y113.104 E164.4083
G1 X52.669 Y112.583 E164.48437
G1 X53.199 Y112.119 E164.56045
G1 X53.81 Y111.702 E164.64034
G1 X53.81 Y111.313 E164.68235
G1 X53.104 Y110.805 E164.77629
G1 X52.583 Y110.331 E164.85236
G1 X52.119 Y109.801 E164.92844
G1 X51.719 Y109.222 E165.00444
G1 X51.387 Y108.601 E165.08049
G1 X51.127 Y107.947 E165.1565
G1 X50.943 Y107.267 E165.23258
G1 X50.837 Y106.571 E165.30861
G1 X50.81 Y105.99 E165.37143
G1 X50.81 Y101.01 E165.90927
G0 F4320 X51.21 Y101.01
G1 F1800 X51.25 Y100.33 E165.98284
G1 X51.369 Y99.66 E166.05633
G1 X51.566 Y99.008 E166.12989
G1 X51.838 Y98.384 E166.20341
G1 X52.182 Y97.796 E166.27698
G1 X52.592 Y97.252 E166.35055
G1 X53.063 Y96.761 E166.42403
G1 X53.588 Y96.327 E166.4976
G1 X54.16 Y95.958 E166.57111
G1 X54.772 Y95.659 E166.64467
G1 X55.414 Y95.434 E166.71814
G1 X56.079 Y95.285 E166.79174
G1 X57.01 Y95.21 E166.89262
G1 X165.99 Y95.21 E178.66246
G1 X166.67 Y95.25 E178.73603
G1 X167.34 Y95.369 E178.80952
G1 X167.992 Y95.566 E178.88308
G1 X168.616 Y95.838 E178.95659
G1 X169.204 Y96.182 E179.03017
G1 X169.748 Y96.592 E179.10374
G1 X170.239 Y97.063 E179.17722
G1 X170.673 Y97.588 E179.25078
