;FLAVOR:UltiGCode
;TIME:5804
;MATERIAL:5629
;MATERIAL2:0
;NOZZLE_DIAMETER:0.4
;MINX:74.206
;MINY:74.223
;MINZ:0.27
;MAXX:148.794
;MAXY:148.777
;MAXZ:2.97
;Generated with Cura_SteamEngine main
M82 ;absolute extrusion mode
G0 F3000 Y50 ;avoid prime blob
G92 E0
G92 E0
G10
;LAYER_COUNT:28
;LAYER:0
M107
G0 F4320 X84.742 Y85.524 Z0.27
G0 X80.568 Y90.666
;TYPE:SKIRT
G11
G1 F1800 X81.853 Y88.877 E0.23789
G1 X83.254 Y87.15 E0.47806
G1 X84.742 Y85.524 E0.7161
G1 X86.325 Y83.984 E0.95462
G1 X87.996 Y82.544 E1.19285
G1 X89.769 Y81.193 E1.43359
G1 X91.583 Y79.97 E1.66987
G1 X93.496 Y78.84 E1.90983
G1 X95.459 Y77.832 E2.14815
G1 X97.483 Y76.941 E2.38698
G1 X99.562 Y76.169 E2.6265
G1 X101.662 Y75.528 E2.86363
G1 X103.82 Y75.007 E3.10339
G1 X106.004 Y74.614 E3.34305
G1 X108.182 Y74.355 E3.57993
G1 X110.398 Y74.223 E3.81968
G1 X112.602 Y74.223 E4.05771
G1 X114.821 Y74.355 E4.29779
G1 X116.991 Y74.613 E4.5338
G1 X119.185 Y75.007 E4.77454
G1 X121.327 Y75.525 E5.01255
G1 X123.454 Y76.175 E5.25275
G1 X125.515 Y76.94 E5.49018
G1 X127.538 Y77.83 E5.72887
G1 X129.504 Y78.84 E5.96758
G1 X131.408 Y79.965 E6.20642
G1 X133.237 Y81.197 E6.44459
G1 X135.003 Y82.544 E6.68446
G1 X136.673 Y83.983 E6.92254
G1 X138.256 Y85.523 E7.16106
G1 X139.752 Y87.157 E7.40032
G1 X141.141 Y88.868 E7.63834
G1 X142.427 Y90.66 E7.87655
G1 X143.616 Y92.542 E8.11697
G1 X144.677 Y94.468 E8.35446
G1 X145.626 Y96.462 E8.59295
G1 X146.457 Y98.505 E8.83115
G1 X147.17 Y100.613 E9.07149
G1 X147.753 Y102.751 E9.31082
G1 X148.206 Y104.904 E9.54844
G1 X148.531 Y107.08 E9.78605
G1 X148.728 Y109.302 E10.02697
G1 X148.794 Y111.499 E10.26435
G1 X148.728 Y113.698 E10.50195
G1 X148.531 Y115.919 E10.74276
G1 X148.206 Y118.097 E10.98059
G1 X147.751 Y120.258 E11.21909
G1 X147.169 Y122.386 E11.45736
G1 X146.458 Y124.491 E11.69732
G1 X145.628 Y126.534 E11.93547
G1 X144.676 Y128.534 E12.1747
G1 X143.613 Y130.461 E12.41238
G1 X142.433 Y132.332 E12.65127
G1 X141.139 Y134.134 E12.89087
G1 X139.756 Y135.839 E13.12797
G1 X138.253 Y137.482 E13.36846
G1 X136.677 Y139.01 E13.60554
G1 X134.999 Y140.458 E13.84491
G1 X133.231 Y141.806 E14.08502
G1 X131.413 Y143.033 E14.3219
G1 X129.508 Y144.158 E14.56083
G1 X127.541 Y145.168 E14.79964
G1 X125.525 Y146.056 E15.03755
G1 X123.432 Y146.833 E15.27867
G1 X121.323 Y147.477 E15.51683
G1 X119.196 Y147.99 E15.75313
G1 X116.992 Y148.387 E15.99499
G1 X114.821 Y148.645 E16.23111
G1 X112.602 Y148.777 E16.47118
G1 X110.397 Y148.777 E16.70932
G1 X108.181 Y148.645 E16.94908
G1 X106.003 Y148.386 E17.18596
G1 X103.823 Y147.995 E17.42515
G1 X101.668 Y147.474 E17.6646
G1 X99.545 Y146.826 E17.90433
G1 X97.494 Y146.064 E18.14063
G1 X95.45 Y145.163 E18.38188
G1 X93.497 Y144.16 E18.61899
G1 X91.583 Y143.03 E18.85904
G1 X89.762 Y141.802 E19.09625
G1 X88.002 Y140.46 E19.33528
G1 X86.337 Y139.025 E19.57267
G1 X84.732 Y137.467 E19.81425
G1 X83.248 Y135.843 E20.05184
G1 X81.859 Y134.131 E20.28993
G1 X80.565 Y132.329 E20.52953
G1 X79.388 Y130.464 E20.76771
G1 X78.322 Y128.53 E21.00621
G1 X77.374 Y126.537 E21.24456
G1 X76.538 Y124.483 E21.48406
G1 X75.832 Y122.39 E21.72262
G1 X75.252 Y120.264 E21.96062
G1 X74.796 Y118.1 E22.19946
G1 X74.468 Y115.905 E22.43916
G1 X74.272 Y113.698 E22.67845
G1 X74.206 Y111.501 E22.91583
G1 X74.272 Y109.303 E23.15332
G1 X74.469 Y107.081 E23.39424
G1 X74.793 Y104.912 E23.63109
G1 X75.25 Y102.74 E23.8708
G1 X75.83 Y100.611 E24.10912
G1 X76.543 Y98.505 E24.34925
G1 X77.37 Y96.47 E24.58648
G1 X78.322 Y94.469 E24.8258
G1 X79.388 Y92.534 E25.06439
G1 X80.568 Y90.666 E25.30302
G10
G0 F4320 X78.109 Y96.777
G11
G1 F1800 X79.031 Y94.84 E25.53471
G1 X80.077 Y92.943 E25.76866
G1 X81.232 Y91.114 E26.00228
G1 X82.495 Y89.355 E26.23615
G1 X83.86 Y87.673 E26.4701
G1 X85.308 Y86.09 E26.7018
G1 X86.867 Y84.574 E26.93665
G1 X88.508 Y83.16 E27.1706
G1 X90.219 Y81.855 E27.403
G1 X92.023 Y80.64 E27.6379
G1 X93.885 Y79.54 E27.87147
G1 X95.803 Y78.555 E28.10433
G1 X97.787 Y77.681 E28.33847
G1 X99.817 Y76.928 E28.57231
G1 X101.882 Y76.297 E28.80551
G1 X103.98 Y75.791 E29.03859
G1 X106.109 Y75.407 E29.27223
G1 X108.273 Y75.151 E29.50758
G1 X110.41 Y75.023 E29.73878
G1 X112.588 Y75.023 E29.97401
G1 X114.73 Y75.151 E30.20576
G1 X116.891 Y75.407 E30.44078
G1 X119.022 Y75.79 E30.67461
G1 X121.107 Y76.294 E30.90628
G1 X123.195 Y76.933 E31.14211
G1 X125.208 Y77.68 E31.374
G1 X127.194 Y78.554 E31.60834
G1 X129.122 Y79.544 E31.84241
G1 X130.989 Y80.647 E32.0766
G1 X132.768 Y81.845 E32.30824
G1 X134.49 Y83.159 E32.54217
G1 X136.131 Y84.572 E32.77605
G1 X137.69 Y86.089 E33.01098
G1 X139.138 Y87.671 E33.2426
G1 X140.506 Y89.356 E33.477
G1 X141.766 Y91.112 E33.71042
G1 X142.921 Y92.94 E33.94395
G1 X143.972 Y94.847 E34.17911
G1 X144.894 Y96.785 E34.4109
G1 X145.712 Y98.794 E34.64516
G1 X146.399 Y100.828 E34.87703
G1 X146.975 Y102.941 E35.11356
G1 X147.416 Y105.036 E35.34478
G1 X147.737 Y107.184 E35.57934
G1 X147.929 Y109.346 E35.81375
G1 X147.993 Y111.499 E36.04638
G1 X147.929 Y113.654 E36.27922
G1 X147.737 Y115.815 E36.51353
G1 X147.416 Y117.963 E36.74809
G1 X146.973 Y120.067 E36.9803
G1 X146.402 Y122.156 E37.21419
G1 X145.707 Y124.216 E37.44899
G1 X144.896 Y126.212 E37.68168
G1 X143.97 Y128.155 E37.91413
G1 X142.916 Y130.067 E38.14993
G1 X141.768 Y131.886 E38.38223
G1 X140.511 Y133.637 E38.61502
G1 X139.142 Y135.325 E38.84974
G1 X137.688 Y136.915 E39.08244
G1 X136.128 Y138.428 E39.31714
G1 X134.495 Y139.837 E39.55008
G1 X132.781 Y141.144 E39.78287
G1 X130.973 Y142.364 E40.01843
G1 X129.118 Y143.458 E40.25102
G1 X127.19 Y144.448 E40.48509
G1 X125.227 Y145.313 E40.71676
G1 X123.173 Y146.076 E40.95341
G1 X121.123 Y146.702 E41.1849
G1 X119.019 Y147.209 E41.41864
G1 X116.889 Y147.593 E41.65238
G1 X114.73 Y147.849 E41.88719
G1 X112.588 Y147.977 E42.11894
G1 X110.409 Y147.977 E42.35427
G1 X108.272 Y147.849 E42.58548
G1 X106.106 Y147.592 E42.82105
G1 X103.984 Y147.211 E43.05389
G1 X101.884 Y146.703 E43.28723
G1 X99.81 Y146.071 E43.52139
G1 X97.787 Y145.319 E43.75448
G1 X95.801 Y144.444 E43.98887
G1 X93.885 Y143.46 E44.22149
G1 X92.023 Y142.36 E44.45505
G1 X90.212 Y141.14 E44.69088
G1 X88.505 Y139.837 E44.92281
G1 X86.877 Y138.434 E45.15492
G1 X85.315 Y136.918 E45.39
G1 X83.855 Y135.32 E45.62377
G1 X82.493 Y133.643 E45.8571
G1 X81.23 Y131.882 E46.09114
G1 X80.076 Y130.055 E46.32452
G1 X79.031 Y128.157 E46.55852
G1 X78.106 Y126.214 E46.79093
G1 X77.288 Y124.204 E47.0253
G1 X76.6 Y122.166 E47.25761
G1 X76.03 Y120.073 E47.49189
G1 X75.582 Y117.952 E47.72601
G1 X75.264 Y115.818 E47.95902
G1 X75.071 Y113.654 E48.19366
G1 X75.007 Y111.501 E48.42629
G1 X75.071 Y109.347 E48.65903
G1 X75.263 Y107.184 E48.89355
G1 X75.583 Y105.045 E49.12713
G1 X76.028 Y102.93 E49.36055
G1 X76.598 Y100.84 E49.59452
G1 X77.29 Y98.796 E49.82758
G1 X78.109 Y96.777 E50.06289
G10
G0 F4320 X76.805 Y103.119
G11
G1 F1800 X77.366 Y101.063 E50.29305
G1 X78.038 Y99.079 E50.51928
G1 X78.836 Y97.114 E50.74833
G1 X79.747 Y95.201 E50.97717
G1 X80.771 Y93.341 E51.20648
G1 X81.895 Y91.561 E51.43384
G1 X83.128 Y89.844 E51.66213
G1 X84.465 Y88.196 E51.89132
G1 X85.89 Y86.638 E52.11936
G1 X87.4 Y85.171 E52.34673
G1 X89.012 Y83.782 E52.57654
G1 X90.688 Y82.503 E52.80423
G1 X92.441 Y81.322 E53.03251
G1 X94.267 Y80.244 E53.26152
G1 X96.161 Y79.271 E53.49149
G1 X98.079 Y78.426 E53.71784
G1 X100.076 Y77.685 E53.94789
G1 X102.087 Y77.071 E54.17497
G1 X104.156 Y76.572 E54.40483
G1 X106.229 Y76.198 E54.63233
G1 X108.328 Y75.949 E54.86061
G1 X110.443 Y75.823 E55.08944
G1 X112.557 Y75.823 E55.31775
G1 X114.673 Y75.949 E55.54668
G1 X116.757 Y76.197 E55.77334
G1 X118.858 Y76.574 E56.00387
G1 X120.902 Y77.068 E56.23098
G1 X122.94 Y77.691 E56.46114
G1 X124.911 Y78.423 E56.68821
G1 X126.857 Y79.279 E56.91782
G1 X128.721 Y80.236 E57.14411
G1 X130.56 Y81.323 E57.37482
G1 X132.31 Y82.502 E57.60271
G1 X133.986 Y83.78 E57.83034
G1 X135.592 Y85.163 E58.05924
G1 X137.107 Y86.638 E58.2876
G1 X138.539 Y88.202 E58.51662
G1 X139.87 Y89.843 E58.74481
G1 X141.104 Y91.562 E58.97335
G1 X142.234 Y93.35 E59.20178
G1 X143.249 Y95.192 E59.42892
G1 X144.165 Y97.115 E59.65896
G1 X144.962 Y99.077 E59.88768
G1 X145.638 Y101.076 E60.11558
G1 X146.193 Y103.111 E60.34339
G1 X146.63 Y105.184 E60.57219
G1 X146.944 Y107.288 E60.80194
G1 X147.129 Y109.374 E61.02811
G1 X147.193 Y111.498 E61.25761
G1 X147.129 Y113.627 E61.48764
G1 X146.944 Y115.711 E61.7136
G1 X146.63 Y117.815 E61.94335
G1 X146.196 Y119.877 E62.17092
G1 X145.635 Y121.927 E62.40046
G1 X144.957 Y123.935 E62.62936
G1 X144.161 Y125.895 E62.85783
G1 X143.256 Y127.796 E63.08521
G1 X142.236 Y129.644 E63.31318
G1 X141.104 Y131.439 E63.54237
G1 X139.869 Y133.159 E63.77106
G1 X138.536 Y134.803 E63.99964
G1 X137.114 Y136.358 E64.22721
G1 X135.586 Y137.839 E64.45703
G1 X133.993 Y139.214 E64.6843
G1 X132.312 Y140.496 E64.91262
G1 X130.554 Y141.682 E65.14165
G1 X128.739 Y142.753 E65.36925
G1 X126.84 Y143.729 E65.59985
G1 X124.922 Y144.573 E65.82616
G1 X122.919 Y145.317 E66.05692
G1 X120.916 Y145.929 E66.28312
G1 X118.847 Y146.428 E66.51298
G1 X116.767 Y146.802 E66.74122
G1 X114.673 Y147.051 E66.96897
G1 X112.557 Y147.177 E67.1979
G1 X110.442 Y147.177 E67.42632
G1 X108.327 Y147.051 E67.65514
G1 X106.242 Y146.803 E67.88191
G1 X104.145 Y146.427 E68.112
G1 X102.083 Y145.928 E68.34112
G1 X100.075 Y145.316 E68.56784
G1 X98.086 Y144.577 E68.797
G1 X96.152 Y143.724 E69.02528
G1 X94.267 Y142.756 E69.25414
G1 X92.441 Y141.678 E69.48315
G1 X90.69 Y140.498 E69.71119
G1 X89.01 Y139.216 E69.93942
G1 X87.41 Y137.837 E70.16754
G1 X85.881 Y136.354 E70.39759
G1 X84.468 Y134.807 E70.62387
G1 X83.129 Y133.157 E70.85336
G1 X81.891 Y131.432 E71.08268
G1 X80.771 Y129.658 E71.30926
G1 X79.747 Y127.799 E71.53847
G1 X78.835 Y125.884 E71.76755
G1 X78.037 Y123.921 E71.9964
G1 X77.366 Y121.932 E72.22311
G1 X76.804 Y119.872 E72.45372
G1 X76.371 Y117.818 E72.68043
G1 X76.057 Y115.713 E72.91028
G1 X75.871 Y113.626 E73.13657
G1 X75.807 Y111.502 E73.36607
G1 X75.871 Y109.375 E73.59589
G1 X76.056 Y107.289 E73.82206
G1 X76.37 Y105.19 E74.05128
G1 X76.805 Y103.119 E74.27982
G10
G0 F4320 X76.27 Y109.406
G11
G1 F1800 X76.455 Y107.332 E74.50471
G1 X76.766 Y105.247 E74.73238
G1 X77.192 Y103.22 E74.95608
G1 X77.749 Y101.18 E75.18446
G1 X78.417 Y99.206 E75.40953
G1 X79.198 Y97.285 E75.63349
G1 X80.104 Y95.381 E75.86121
G1 X81.113 Y93.549 E76.08709
G1 X82.228 Y91.783 E76.31265
G1 X83.442 Y90.092 E76.53747
G1 X84.773 Y88.452 E76.76558
G1 X86.173 Y86.921 E76.98964
G1 X87.674 Y85.462 E77.21571
G1 X89.262 Y84.094 E77.44208
G1 X90.926 Y82.826 E77.66802
G1 X92.661 Y81.656 E77.89403
G1 X94.461 Y80.593 E78.11979
G1 X96.32 Y79.639 E78.34546
G1 X98.234 Y78.795 E78.57138
G1 X100.196 Y78.067 E78.79739
G1 X102.201 Y77.455 E79.02379
G1 X104.232 Y76.965 E79.24943
G1 X106.295 Y76.593 E79.47583
G1 X108.367 Y76.347 E79.70118
G1 X110.45 Y76.223 E79.92654
G1 X112.55 Y76.223 E80.15334
G1 X114.636 Y76.347 E80.37903
G1 X116.706 Y76.593 E80.60416
G1 X118.759 Y76.962 E80.82944
G1 X120.812 Y77.458 E81.05754
G1 X122.806 Y78.068 E81.28274
G1 X124.761 Y78.794 E81.50797
G1 X126.679 Y79.638 E81.73428
G1 X128.54 Y80.594 E81.96024
G1 X130.342 Y81.658 E82.18625
G1 X132.069 Y82.822 E82.41118
G1 X133.738 Y84.094 E82.63781
G1 X135.316 Y85.454 E82.86279
G1 X136.825 Y86.921 E83.09009
G1 X138.241 Y88.469 E83.31666
G1 X139.549 Y90.08 E83.54078
G1 X140.776 Y91.791 E83.76817
G1 X141.88 Y93.538 E83.99136
G1 X142.898 Y95.385 E84.21913
G1 X143.794 Y97.266 E84.44415
G1 X144.59 Y99.224 E84.67242
G1 X145.256 Y101.194 E84.89701
G1 X145.806 Y103.214 E85.12311
G1 X146.233 Y105.242 E85.34694
G1 X146.545 Y107.33 E85.57495
G1 X146.73 Y109.405 E85.79994
G1 X146.792 Y111.498 E86.02608
G1 X146.73 Y113.597 E86.25287
G1 X146.544 Y115.683 E86.47905
G1 X146.237 Y117.742 E86.70388
G1 X145.806 Y119.79 E86.92991
G1 X145.258 Y121.794 E87.15429
G1 X144.582 Y123.795 E87.3824
G1 X143.792 Y125.739 E87.60902
G1 X142.905 Y127.601 E87.83177
G1 X141.887 Y129.448 E88.05954
G1 X140.77 Y131.218 E88.28558
G1 X139.555 Y132.911 E88.51064
G1 X138.237 Y134.536 E88.73661
G1 X136.815 Y136.091 E88.96418
G1 X135.321 Y137.54 E89.18895
G1 X133.744 Y138.9 E89.41386
G1 X132.082 Y140.168 E89.63963
G1 X130.338 Y141.344 E89.8668
G1 X128.532 Y142.411 E90.09335
G1 X126.674 Y143.364 E90.31887
G1 X124.779 Y144.2 E90.54256
G1 X122.793 Y144.937 E90.77134
G1 X120.804 Y145.544 E90.99593
G1 X118.767 Y146.035 E91.22223
G1 X116.699 Y146.408 E91.44918
G1 X114.636 Y146.653 E91.67355
G1 X112.55 Y146.777 E91.89923
G1 X110.449 Y146.777 E92.12614
G1 X108.366 Y146.653 E92.3515
G1 X106.289 Y146.406 E92.5774
G1 X104.243 Y146.039 E92.80189
G1 X102.193 Y145.543 E93.02968
G1 X100.195 Y144.934 E93.25527
G1 X98.235 Y144.206 E93.48108
G1 X96.317 Y143.36 E93.70748
G1 X94.46 Y142.407 E93.9329
G1 X92.661 Y141.344 E94.15858
G1 X90.919 Y140.17 E94.38545
G1 X89.267 Y138.909 E94.6099
G1 X87.683 Y137.545 E94.83566
G1 X86.173 Y136.079 E95.06295
G1 X84.758 Y134.531 E95.28946
G1 X83.45 Y132.919 E95.51366
G1 X82.224 Y131.21 E95.74081
G1 X81.113 Y129.45 E95.96559
G1 X80.104 Y127.62 E96.19129
G1 X79.206 Y125.733 E96.41698
G1 X78.409 Y123.773 E96.64549
G1 X77.749 Y121.815 E96.86865
G1 X77.195 Y119.786 E97.0958
G1 X76.765 Y117.747 E97.32086
G1 X76.455 Y115.667 E97.54798
G1 X76.27 Y113.597 E97.77243
G1 X76.208 Y111.501 E97.9989
G1 X76.27 Y109.406 E98.22525
G0 F4320 X76.607 Y111.501
G1 F1800 X76.669 Y109.436 E98.44838
G1 X76.852 Y107.378 E98.67152
G1 X77.156 Y105.338 E98.89427
G1 X77.587 Y103.292 E99.12009
G1 X78.127 Y101.309 E99.34205
G1 X78.789 Y99.355 E99.56486
G1 X79.571 Y97.429 E99.78936
G1 X80.458 Y95.565 E100.01231
G1 X81.452 Y93.763 E100.23457
G1 X82.559 Y92.009 E100.45857
G1 X83.762 Y90.333 E100.68138
G1 X85.073 Y88.718 E100.90604
G1 X86.466 Y87.195 E101.12894
G1 X87.948 Y85.754 E101.35219
G1 X89.509 Y84.409 E101.57472
G1 X91.155 Y83.154 E101.79827
G1 X92.871 Y81.998 E102.02173
G1 X94.668 Y80.936 E102.24716
G1 X96.492 Y80 E102.46858
G1 X98.384 Y79.166 E102.69188
G1 X100.315 Y78.45 E102.91431
G1 X102.309 Y77.841 E103.13948
G1 X104.312 Y77.357 E103.36203
G1 X106.348 Y76.99 E103.58546
G1 X108.403 Y76.746 E103.80896
G1 X110.474 Y76.623 E104.03302
G1 X112.526 Y76.623 E104.25464
G1 X114.6 Y76.747 E104.47903
G1 X116.652 Y76.99 E104.70219
G1 X118.68 Y77.354 E104.92472
G1 X120.702 Y77.844 E105.14942
G1 X122.685 Y78.45 E105.37336
G1 X124.606 Y79.163 E105.59465
G1 X126.506 Y79.999 E105.81884
G1 X128.339 Y80.94 E106.04137
G1 X130.14 Y82.004 E106.26728
G1 X131.833 Y83.144 E106.48771
G1 X133.491 Y84.409 E106.71295
G1 X135.06 Y85.761 E106.93663
G1 X136.525 Y87.186 E107.15735
G1 X137.934 Y88.725 E107.3827
G1 X139.228 Y90.32 E107.60452
G1 X140.439 Y92.008 E107.82889
G1 X141.546 Y93.759 E108.05262
G1 X142.545 Y95.573 E108.27628
G1 X143.429 Y97.431 E108.4985
G1 X144.21 Y99.35 E108.72225
G1 X144.873 Y101.311 E108.94582
G1 X145.414 Y103.296 E109.16802
G1 X145.843 Y105.334 E109.39295
G1 X146.148 Y107.376 E109.61593
G1 X146.331 Y109.435 E109.83918
G1 X146.393 Y111.499 E110.06219
G1 X146.331 Y113.565 E110.28542
G1 X146.148 Y115.623 E110.50856
G1 X145.843 Y117.666 E110.73165
G1 X145.415 Y119.703 E110.95645
G1 X144.873 Y121.682 E111.17805
G1 X144.205 Y123.661 E111.40363
G1 X143.434 Y125.559 E111.62488
G1 X142.54 Y127.435 E111.84932
G1 X141.541 Y129.248 E112.07288
G1 X140.442 Y130.989 E112.29524
G1 X139.233 Y132.674 E112.51921
G1 X137.938 Y134.271 E112.74127
G1 X136.531 Y135.809 E112.96639
G1 X135.054 Y137.241 E113.18857
G1 X133.487 Y138.593 E113.4121
G1 X131.833 Y139.854 E113.63672
G1 X130.136 Y140.999 E113.85781
G1 X128.337 Y142.061 E114.08343
G1 X126.508 Y143 E114.30548
G1 X124.624 Y143.83 E114.52782
G1 X122.659 Y144.56 E114.75421
G1 X120.711 Y145.155 E114.97419
G1 X118.687 Y145.643 E115.19905
G1 X116.646 Y146.01 E115.42301
G1 X114.6 Y146.253 E115.64553
G1 X112.527 Y146.377 E115.86981
G1 X110.473 Y146.377 E116.09165
G1 X108.402 Y146.254 E116.31571
G1 X106.341 Y146.009 E116.53986
G1 X104.307 Y145.643 E116.76306
G1 X102.314 Y145.161 E116.98451
G1 X100.319 Y144.553 E117.20976
G1 X98.391 Y143.837 E117.43188
G1 X96.483 Y142.996 E117.65707
G1 X94.668 Y142.064 E117.87742
G1 X92.872 Y141.003 E118.10271
G1 X91.148 Y139.842 E118.32718
G1 X89.514 Y138.594 E118.54924
G1 X87.949 Y137.246 E118.77232
