;FLAVOR:UltiGCode
;TIME:5377
;MATERIAL:5830
;MATERIAL2:0
;NOZZLE_DIAMETER:0.4
;MINX:49.21
;MINY:90.71
;MINZ:0.27
;MAXX:173.79
;MAXY:132.29
;MAXZ:2.97
;Generated with Cura_SteamEngine main
M82 ;absolute extrusion mode
G0 F3000 Y50 ;avoid prime blob
G92 E0
G92 E0
G10
;LAYER_COUNT:28
;LAYER:0
M107
G0 F4320 X52.88 Y91.893 Z0.27
G0 X49.21 Y98.51
;TYPE:SKIRT
G11
G1 F1800 X49.25 Y97.721 E0.08532
G1 X49.369 Y96.941 E0.17054
G1 X49.567 Y96.176 E0.25588
G1 X49.841 Y95.436 E0.3411
G1 X50.189 Y94.727 E0.4264
G1 X50.607 Y94.056 E0.51178
G1 X51.09 Y93.432 E0.597
G1 X51.633 Y92.859 E0.68226
G1 X52.232 Y92.344 E0.76757
G1 X52.88 Y91.893 E0.85284
G1 X53.571 Y91.509 E0.93822
G1 X54.296 Y91.197 E1.02346
G1 X55.049 Y90.96 E1.10872
G1 X55.823 Y90.801 E1.19405
G1 X56.705 Y90.71 E1.28981
G1 X165.99 Y90.71 E13.09259
G1 X166.779 Y90.75 E13.17792
G1 X167.559 Y90.869 E13.26313
G1 X168.324 Y91.067 E13.34847
G1 X169.064 Y91.341 E13.4337
G1 X169.773 Y91.689 E13.51899
G1 X170.444 Y92.107 E13.60437
G1 X171.068 Y92.59 E13.68959
G1 X171.641 Y93.133 E13.77485
G1 X172.156 Y93.732 E13.86017
G1 X172.607 Y94.38 E13.94543
G1 X172.991 Y95.071 E14.03081
G1 X173.303 Y95.796 E14.11605
G1 X173.54 Y96.549 E14.20131
G1 X173.699 Y97.323 E14.28665
G1 X173.79 Y98.205 E14.38241
G1 X173.79 Y103.49 E14.95319
G1 X173.75 Y104.279 E15.03851
G1 X173.631 Y105.059 E15.12372
G1 X173.433 Y105.824 E15.20907
G1 X173.159 Y106.564 E15.29429
G1 X172.811 Y107.273 E15.37959
G1 X172.393 Y107.944 E15.46497
G1 X171.91 Y108.568 E15.55019
G1 X171.367 Y109.141 E15.63545
G1 X170.79 Y109.637 E15.71762
G1 X170.79 Y113.375 E16.12133
G1 X171.068 Y113.59 E16.15928
G1 X171.641 Y114.133 E16.24454
G1 X172.156 Y114.732 E16.32985
G1 X172.607 Y115.38 E16.41512
G1 X172.991 Y116.071 E16.5005
G1 X173.303 Y116.796 E16.58574
G1 X173.54 Y117.549 E16.671
G1 X173.699 Y118.323 E16.75633
G1 X173.79 Y119.205 E16.85209
G1 X173.79 Y124.49 E17.42287
G1 X173.75 Y125.279 E17.5082
G1 X173.631 Y126.059 E17.59341
G1 X173.433 Y126.824 E17.67875
G1 X173.159 Y127.564 E17.76398
G1 X172.811 Y128.273 E17.84927
G1 X172.393 Y128.944 E17.93465
G1 X171.91 Y129.568 E18.01988
G1 X171.367 Y130.141 E18.10513
G1 X170.768 Y130.656 E18.19045
G1 X170.12 Y131.107 E18.27571
G1 X169.429 Y131.491 E18.36109
G1 X168.704 Y131.803 E18.44633
G1 X167.951 Y132.04 E18.53159
G1 X167.177 Y132.199 E18.61693
G1 X166.295 Y132.29 E18.71269
G1 X60.01 Y132.29 E30.19147
G1 X59.221 Y132.25 E30.27679
G1 X58.441 Y132.131 E30.36201
G1 X57.676 Y131.933 E30.44735
G1 X56.936 Y131.659 E30.53257
G1 X56.227 Y131.311 E30.61787
G1 X55.556 Y130.893 E30.70325
G1 X54.932 Y130.41 E30.78847
G1 X54.359 Y129.867 E30.87373
G1 X53.844 Y129.268 E30.95904
G1 X53.393 Y128.62 E31.04431
G1 X53.009 Y127.929 E31.12968
G1 X52.697 Y127.204 E31.21493
G1 X52.46 Y126.451 E31.30018
G1 X52.301 Y125.677 E31.38552
G1 X52.21 Y124.795 E31.48128
G1 X52.21 Y119.625 E32.03964
G1 X51.932 Y119.41 E32.0776
G1 X51.359 Y118.867 E32.16286
G1 X50.844 Y118.268 E32.24817
G1 X50.393 Y117.62 E32.33344
G1 X50.009 Y116.929 E32.41881
G1 X49.697 Y116.204 E32.50406
G1 X49.46 Y115.451 E32.58931
G1 X49.301 Y114.677 E32.67465
G1 X49.21 Y113.795 E32.77041
G1 X49.21 Y108.51 E33.34119
G1 X49.25 Y107.721 E33.42651
G1 X49.369 Y106.941 E33.51173
G1 X49.622 Y105.964 E33.62072
G1 X49.46 Y105.451 E33.67883
G1 X49.301 Y104.677 E33.76416
G1 X49.21 Y103.795 E33.85992
G1 X49.21 Y98.51 E34.4307
G0 F4320 X49.61 Y98.51
G1 F1800 X49.65 Y97.742 E34.51376
G1 X49.769 Y96.982 E34.59684
G1 X49.967 Y96.239 E34.67989
G1 X50.241 Y95.52 E34.76299
G1 X50.588 Y94.834 E34.84601
G1 X51.004 Y94.187 E34.92909
G1 X51.485 Y93.587 E35.01214
G1 X52.026 Y93.04 E35.09523
G1 X52.621 Y92.552 E35.17834
G1 X53.263 Y92.129 E35.26137
G1 X53.946 Y91.774 E35.3445
G1 X54.661 Y91.493 E35.42747
G1 X55.403 Y91.287 E35.51064
G1 X56.161 Y91.159 E35.59366
G1 X57.01 Y91.11 E35.68551
G1 X165.99 Y91.11 E47.45535
G1 X166.758 Y91.15 E47.5384
G1 X167.518 Y91.269 E47.62148
G1 X168.261 Y91.467 E47.70453
G1 X168.98 Y91.741 E47.78763
G1 X169.666 Y92.088 E47.87065
G1 X170.313 Y92.504 E47.95373
G1 X170.913 Y92.985 E48.03678
G1 X171.46 Y93.526 E48.11987
G1 X171.948 Y94.121 E48.20298
G1 X172.371 Y94.763 E48.28601
G1 X172.726 Y95.446 E48.36914
G1 X173.007 Y96.161 E48.45211
G1 X173.213 Y96.903 E48.53528
G1 X173.341 Y97.661 E48.6183
G1 X173.39 Y98.51 E48.71015
G1 X173.39 Y103.49 E49.24799
G1 X173.35 Y104.258 E49.33104
G1 X173.231 Y105.018 E49.41412
G1 X173.033 Y105.761 E49.49717
G1 X172.759 Y106.48 E49.58027
G1 X172.412 Y107.166 E49.66329
G1 X171.996 Y107.813 E49.74637
G1 X171.515 Y108.413 E49.82942
G1 X170.974 Y108.96 E49.91251
G1 X170.39 Y109.439 E49.99408
G1 X170.39 Y113.566 E50.4398
G1 X170.913 Y113.985 E50.51217
G1 X171.46 Y114.526 E50.59526
G1 X171.948 Y115.121 E50.67837
G1 X172.371 Y115.763 E50.7614
G1 X172.726 Y116.446 E50.84454
G1 X173.007 Y117.161 E50.92751
G1 X173.213 Y117.903 E51.01067
G1 X173.341 Y118.661 E51.0937
G1 X173.39 Y119.51 E51.18554
G1 X173.39 Y124.49 E51.72338
G1 X173.35 Y125.258 E51.80644
G1 X173.231 Y126.018 E51.88952
G1 X173.033 Y126.761 E51.97256
G1 X172.759 Y127.48 E52.05566
G1 X172.412 Y128.166 E52.13869
G1 X171.996 Y128.813 E52.22176
G1 X171.515 Y129.413 E52.30481
G1 X170.974 Y129.96 E52.3879
G1 X170.379 Y130.448 E52.47101
G1 X169.737 Y130.871 E52.55404
G1 X169.054 Y131.226 E52.63718
G1 X168.339 Y131.507 E52.72015
G1 X167.597 Y131.713 E52.80331
G1 X166.839 Y131.841 E52.88634
G1 X165.99 Y131.89 E52.97818
G1 X60.01 Y131.89 E64.42402
G1 X59.242 Y131.85 E64.50708
G1 X58.482 Y131.731 E64.59016
G1 X57.739 Y131.533 E64.6732
G1 X57.02 Y131.259 E64.7563
G1 X56.334 Y130.912 E64.83933
G1 X55.687 Y130.496 E64.9224
G1 X55.087 Y130.015 E65.00545
G1 X54.54 Y129.474 E65.08854
G1 X54.052 Y128.879 E65.17165
G1 X53.629 Y128.237 E65.25469
G1 X53.274 Y127.554 E65.33782
G1 X52.993 Y126.839 E65.42079
G1 X52.787 Y126.097 E65.50396
G1 X52.659 Y125.339 E65.58698
G1 X52.61 Y124.49 E65.67882
G1 X52.61 Y119.434 E66.22487
G1 X52.087 Y119.015 E66.29725
G1 X51.54 Y118.474 E66.38034
G1 X51.052 Y117.879 E66.46344
G1 X50.629 Y117.237 E66.54648
G1 X50.274 Y116.554 E66.62961
G1 X49.993 Y115.839 E66.71258
G1 X49.787 Y115.097 E66.79575
G1 X49.659 Y114.339 E66.87877
G1 X49.61 Y113.49 E66.97061
G1 X49.61 Y108.51 E67.50845
G1 X49.65 Y107.742 E67.59151
G1 X49.769 Y106.982 E67.67459
G1 X49.967 Y106.239 E67.75763
G1 X50.046 Y106.031 E67.78166
G1 X49.787 Y105.097 E67.88634
G1 X49.659 Y104.339 E67.96937
G1 X49.61 Y103.49 E68.06121
G1 X49.61 Y98.51 E68.59905
G0 F4320 X50.01 Y98.51
G1 F1800 X50.05 Y97.763 E68.67984
G1 X50.169 Y97.025 E68.76058
G1 X50.367 Y96.303 E68.84143
G1 X50.64 Y95.607 E68.92217
G1 X50.987 Y94.944 E69.00299
G1 X51.402 Y94.321 E69.08384
G1 X51.881 Y93.747 E69.16458
G1 X52.418 Y93.226 E69.24539
G1 X53.008 Y92.767 E69.32612
G1 X53.644 Y92.372 E69.40697
G1 X54.318 Y92.048 E69.48774
G1 X55.023 Y91.798 E69.56853
G1 X55.751 Y91.624 E69.64936
G1 X56.493 Y91.529 E69.73015
G1 X57.01 Y91.51 E69.78603
G1 X165.99 Y91.51 E81.55587
G1 X166.737 Y91.55 E81.63666
G1 X167.475 Y91.669 E81.71739
G1 X168.197 Y91.867 E81.79825
G1 X168.893 Y92.14 E81.87899
G1 X169.556 Y92.487 E81.95981
G1 X170.179 Y92.902 E82.04066
G1 X170.753 Y93.381 E82.1214
G1 X171.274 Y93.918 E82.2022
G1 X171.733 Y94.508 E82.28294
G1 X172.128 Y95.144 E82.36379
G1 X172.452 Y95.818 E82.44456
G1 X172.702 Y96.523 E82.52534
G1 X172.876 Y97.251 E82.60618
G1 X172.971 Y97.993 E82.68697
G1 X172.99 Y98.51 E82.74285
G1 X172.99 Y103.49 E83.28069
G1 X172.95 Y104.237 E83.36148
G1 X172.831 Y104.975 E83.44221
G1 X172.633 Y105.697 E83.52307
G1 X172.36 Y106.393 E83.60381
G1 X172.013 Y107.056 E83.68463
G1 X171.598 Y107.679 E83.76547
G1 X171.119 Y108.253 E83.84622
G1 X170.582 Y108.774 E83.92702
G1 X169.99 Y109.234 E84.00799
G1 X169.99 Y113.744 E84.49507
G1 X170.753 Y114.381 E84.60242
G1 X171.274 Y114.918 E84.68322
G1 X171.733 Y115.508 E84.76395
G1 X172.128 Y116.144 E84.84481
G1 X172.452 Y116.818 E84.92558
G1 X172.702 Y117.523 E85.00636
G1 X172.876 Y118.251 E85.0872
G1 X172.971 Y118.993 E85.16799
G1 X172.99 Y119.51 E85.22387
G1 X172.99 Y124.49 E85.76171
G1 X172.95 Y125.237 E85.8425
G1 X172.831 Y125.975 E85.92323
G1 X172.633 Y126.697 E86.00409
G1 X172.36 Y127.393 E86.08483
G1 X172.013 Y128.056 E86.16565
G1 X171.598 Y128.679 E86.24649
G1 X171.119 Y129.253 E86.32723
G1 X170.582 Y129.774 E86.40804
G1 X169.992 Y130.233 E86.48877
G1 X169.356 Y130.628 E86.56963
G1 X168.682 Y130.952 E86.6504
G1 X167.977 Y131.202 E86.73118
G1 X167.249 Y131.376 E86.81202
G1 X166.507 Y131.471 E86.89281
G1 X165.99 Y131.49 E86.94868
G1 X60.01 Y131.49 E98.39452
G1 X59.263 Y131.45 E98.47532
G1 X58.525 Y131.331 E98.55605
G1 X57.803 Y131.133 E98.6369
G1 X57.107 Y130.86 E98.71765
G1 X56.444 Y130.513 E98.79847
G1 X55.821 Y130.098 E98.87931
G1 X55.247 Y129.619 E98.96005
G1 X54.726 Y129.082 E99.04086
G1 X54.267 Y128.492 E99.12159
G1 X53.872 Y127.856 E99.20245
G1 X53.548 Y127.182 E99.28321
G1 X53.298 Y126.477 E99.364
G1 X53.124 Y125.749 E99.44484
G1 X53.029 Y125.007 E99.52563
G1 X53.01 Y124.49 E99.5815
G1 X53.01 Y119.256 E100.14677
G1 X52.247 Y118.619 E100.25412
G1 X51.726 Y118.082 E100.33493
G1 X51.267 Y117.492 E100.41566
G1 X50.872 Y116.856 E100.49652
G1 X50.548 Y116.182 E100.57728
G1 X50.298 Y115.477 E100.65807
G1 X50.124 Y114.749 E100.73891
G1 X50.029 Y114.007 E100.8197
G1 X50.01 Y113.49 E100.87557
G1 X50.01 Y108.51 E101.41341
G1 X50.05 Y107.763 E101.4942
G1 X50.169 Y107.025 E101.57493
G1 X50.367 Y106.303 E101.65579
G1 X50.485 Y106.003 E101.69061
G1 X50.298 Y105.477 E101.7509
G1 X50.124 Y104.749 E101.83174
G1 X50.029 Y104.007 E101.91253
G1 X50.01 Y103.49 E101.9684
G1 X50.01 Y98.51 E102.50624
G0 F4320 X50.41 Y98.51
G1 F1800 X50.45 Y97.785 E102.58466
G1 X50.569 Y97.068 E102.66315
G1 X50.767 Y96.369 E102.74162
G1 X51.04 Y95.696 E102.82005
G1 X51.385 Y95.057 E102.89848
G1 X51.799 Y94.46 E102.97694
G1 X52.275 Y93.912 E103.05534
G1 X52.809 Y93.419 E103.13383
G1 X53.394 Y92.989 E103.21224
G1 X54.023 Y92.625 E103.29073
G1 X54.688 Y92.332 E103.36921
G1 X55.381 Y92.114 E103.44767
G1 X56.093 Y91.974 E103.52604
G1 X57.01 Y91.91 E103.62531
G1 X165.99 Y91.91 E115.39515
G1 X166.715 Y91.95 E115.47357
G1 X167.432 Y92.069 E115.55207
G1 X168.131 Y92.267 E115.63053
G1 X168.804 Y92.54 E115.70897
G1 X169.443 Y92.885 E115.78739
G1 X170.04 Y93.299 E115.86586
G1 X170.588 Y93.775 E115.94425
G1 X171.081 Y94.309 E116.02274
G1 X171.511 Y94.894 E116.10115
G1 X171.875 Y95.523 E116.17964
G1 X172.168 Y96.188 E116.25812
G1 X172.386 Y96.881 E116.33658
G1 X172.526 Y97.593 E116.41495
G1 X172.59 Y98.51 E116.51423
G1 X172.59 Y103.49 E117.05207
G1 X172.55 Y104.215 E117.13049
G1 X172.431 Y104.932 E117.20898
G1 X172.233 Y105.631 E117.28744
G1 X171.96 Y106.304 E117.36588
G1 X171.615 Y106.943 E117.44431
G1 X171.201 Y107.54 E117.52277
G1 X170.725 Y108.088 E117.60116
G1 X170.191 Y108.581 E117.67966
G1 X169.59 Y109.02 E117.76004
G1 X169.59 Y113.987 E118.29647
G1 X170.04 Y114.299 E118.35561
G1 X170.588 Y114.775 E118.434
G1 X171.081 Y115.309 E118.5125
G1 X171.511 Y115.894 E118.59091
G1 X171.875 Y116.523 E118.6694
G1 X172.168 Y117.188 E118.74788
G1 X172.386 Y117.881 E118.82634
G1 X172.526 Y118.593 E118.90471
G1 X172.59 Y119.51 E119.00398
G1 X172.59 Y124.49 E119.54182
G1 X172.55 Y125.215 E119.62024
G1 X172.431 Y125.932 E119.69874
G1 X172.233 Y126.631 E119.7772
G1 X171.96 Y127.304 E119.85564
G1 X171.615 Y127.943 E119.93406
G1 X171.201 Y128.54 E120.01253
G1 X170.725 Y129.088 E120.09092
G1 X170.191 Y129.581 E120.16941
G1 X169.606 Y130.011 E120.24782
G1 X168.977 Y130.375 E120.32631
G1 X168.312 Y130.668 E120.40479
G1 X167.619 Y130.886 E120.48325
G1 X166.907 Y131.026 E120.56162
G1 X165.99 Y131.09 E120.6609
G1 X60.01 Y131.09 E132.10674
G1 X59.285 Y131.05 E132.18516
G1 X58.568 Y130.931 E132.26365
G1 X57.869 Y130.733 E132.34211
G1 X57.196 Y130.46 E132.42055
G1 X56.557 Y130.115 E132.49898
G1 X55.96 Y129.701 E132.57744
G1 X55.412 Y129.225 E132.65583
G1 X54.919 Y128.691 E132.73433
G1 X54.489 Y128.106 E132.81274
G1 X54.125 Y127.477 E132.89122
G1 X53.832 Y126.812 E132.96971
G1 X53.614 Y126.119 E133.04817
G1 X53.474 Y125.407 E133.12653
G1 X53.41 Y124.49 E133.22581
G1 X53.41 Y119.013 E133.81733
G1 X52.96 Y118.701 E133.87647
G1 X52.412 Y118.225 E133.95486
G1 X51.919 Y117.691 E134.03335
G1 X51.489 Y117.106 E134.11176
G1 X51.125 Y116.477 E134.19025
G1 X50.832 Y115.812 E134.26873
G1 X50.614 Y115.119 E134.34719
G1 X50.474 Y114.407 E134.42556
G1 X50.41 Y113.49 E134.52484
G1 X50.41 Y108.51 E135.06268
G1 X50.45 Y107.785 E135.1411
G1 X50.569 Y107.068 E135.21959
G1 X50.767 Y106.369 E135.29805
G1 X50.902 Y106.036 E135.33686
G1 X50.614 Y105.119 E135.44067
G1 X50.474 Y104.407 E135.51903
G1 X50.41 Y103.49 E135.61831
G1 X50.41 Y98.51 E136.15615
G0 F4320 X50.81 Y98.51
G1 F1800 X50.85 Y97.807 E136.2322
G1 X50.969 Y97.113 E136.30824
G1 X51.167 Y96.438 E136.38422
G1 X51.439 Y95.789 E136.46021
G1 X51.784 Y95.175 E136.53628
G1 X52.195 Y94.604 E136.61226
G1 X52.669 Y94.083 E136.68833
G1 X53.199 Y93.619 E136.76441
G1 X53.778 Y93.219 E136.84041
G1 X54.399 Y92.887 E136.91646
G1 X55.053 Y92.627 E136.99247
G1 X55.733 Y92.443 E137.06855
G1 X56.429 Y92.337 E137.14459
G1 X57.01 Y92.31 E137.2074
G1 X165.99 Y92.31 E148.97724
G1 X166.693 Y92.35 E149.05329
G1 X167.387 Y92.469 E149.12933
G1 X168.062 Y92.667 E149.20531
G1 X168.711 Y92.939 E149.2813
G1 X169.325 Y93.284 E149.35737
G1 X169.896 Y93.695 E149.43335
G1 X170.417 Y94.169 E149.50942
G1 X170.881 Y94.699 E149.5855
G1 X171.281 Y95.278 E149.6615
G1 X171.613 Y95.899 E149.73755
G1 X171.873 Y96.553 E149.81356
G1 X172.057 Y97.233 E149.88964
G1 X172.163 Y97.929 E149.96568
G1 X172.19 Y98.51 E150.02849
G1 X172.19 Y103.49 E150.56633
G1 X172.15 Y104.193 E150.64238
G1 X172.031 Y104.887 E150.71842
G1 X171.833 Y105.562 E150.7944
G1 X171.561 Y106.211 E150.87039
G1 X171.216 Y106.825 E150.94646
G1 X170.805 Y107.396 E151.02244
G1 X170.331 Y107.917 E151.09851
G1 X169.801 Y108.381 E151.17459
G1 X169.19 Y108.798 E151.25448
G1 X169.19 Y114.187 E151.83649
G1 X169.896 Y114.695 E151.93043
G1 X170.417 Y115.169 E152.0065
G1 X170.881 Y115.699 E152.08257
G1 X171.281 Y116.278 E152.15858
G1 X171.613 Y116.899 E152.23463
G1 X171.873 Y117.553 E152.31064
G1 X172.057 Y118.233 E152.38672
G1 X172.163 Y118.929 E152.46275
G1 X172.19 Y119.51 E152.52557
G1 X172.19 Y124.49 E153.06341
G1 X172.15 Y125.193 E153.13945
G1 X172.031 Y125.887 E153.2155
G1 X171.833 Y126.562 E153.29147
G1 X171.561 Y127.211 E153.36747
G1 X171.216 Y127.825 E153.44353
G1 X170.805 Y128.396 E153.51951
G1 X170.331 Y128.917 E153.59559
G1 X169.801 Y129.381 E153.67166
G1 X169.222 Y129.781 E153.74767
G1 X168.601 Y130.113 E153.82372
G1 X167.947 Y130.373 E153.89973
G1 X167.267 Y130.557 E153.97581
G1 X166.571 Y130.663 E154.05184
G1 X165.99 Y130.69 E154.11466
G1 X60.01 Y130.69 E165.5605
G1 X59.307 Y130.65 E165.63654
G1 X58.613 Y130.531 E165.71259
G1 X57.938 Y130.333 E165.78856
G1 X57.289 Y130.061 E165.86456
G1 X56.675 Y129.716 E165.94062
G1 X56.104 Y129.305 E166.0166
G1 X55.583 Y128.831 E166.09268
G1 X55.119 Y128.301 E166.16875
G1 X54.719 Y127.722 E166.24475
G1 X54.387 Y127.101 E166.32081
G1 X54.127 Y126.447 E166.39682
G1 X53.943 Y125.767 E166.4729
G1 X53.837 Y125.071 E166.54893
G1 X53.81 Y124.49 E166.61175
G1 X53.81 Y118.813 E167.22486
G1 X53.104 Y118.305 E167.3188
G1 X52.583 Y117.831 E167.39487
G1 X52.119 Y117.301 E167.47094
G1 X51.719 Y116.722 E167.54695
G1 X51.387 Y116.101 E167.623
G1 X51.127 Y115.447 E167.69901
G1 X50.943 Y114.767 E167.77509
G1 X50.837 Y114.071 E167.85112
G1 X50.81 Y113.49 E167.91394
G1 X50.81 Y108.51 E168.45178
G1 X50.85 Y107.807 E168.52783
G1 X50.969 Y107.113 E168.60387
G1 X51.167 Y106.438 E168.67984
G1 X51.349 Y106.005 E168.73057
G1 X51.127 Y105.447 E168.79543
G1 X50.943 Y104.767 E168.87151
G1 X50.837 Y104.071 E168.94754
G1 X50.81 Y103.49 E169.01036
G1 X50.81 Y98.51 E169.5482
G0 F4320 X51.21 Y98.51
G1 F1800 X51.25 Y97.83 E169.62177
G1 X51.369 Y97.16 E169.69526
G1 X51.566 Y96.508 E169.76882
G1 X51.838 Y95.884 E169.84234
G1 X52.182 Y95.296 E169.91591
G1 X52.592 Y94.752 E169.98948
G1 X53.063 Y94.261 E170.06296
G1 X53.588 Y93.827 E170.13653
G1 X54.16 Y93.458 E170.21004
G1 X54.772 Y93.159 E170.2836
G1 X55.414 Y92.934 E170.35707
G1 X56.079 Y92.785 E170.43068
