;FLAVOR:UltiGCode
;TIME:10761
;MATERIAL:10693
;MATERIAL2:0
;NOZZLE_DIAMETER:0.4
;MINX:49.21
;MINY:76.71
;MINZ:0.27
;MAXX:173.79
;MAXY:146.29
;MAXZ:2.97
;Generated with Cura_SteamEngine main
M82 ;absolute extrusion mode
G0 F3000 Y50 ;avoid prime blob
G92 E0
G92 E0
G10
;LAYER_COUNT:28
;LAYER:0
M107
G0 F4320 X55.232 Y78.344 Z0.27
G0 X49.21 Y87.51
;TYPE:SKIRT
G11
G1 F1800 X49.25 Y86.721 E0.08532
G1 X49.369 Y85.941 E0.17054
G1 X49.567 Y85.176 E0.25588
G1 X49.841 Y84.436 E0.3411
G1 X50.189 Y83.727 E0.4264
G1 X50.607 Y83.056 E0.51178
G1 X51.09 Y82.432 E0.597
G1 X51.633 Y81.859 E0.68226
G1 X52.232 Y81.344 E0.76757
G1 X52.88 Y80.893 E0.85284
G1 X53.194 Y80.718 E0.89166
G1 X53.607 Y80.056 E0.97593
G1 X54.09 Y79.432 E1.06115
G1 X54.633 Y78.859 E1.14641
G1 X55.232 Y78.344 E1.23172
G1 X55.88 Y77.893 E1.31699
G1 X56.571 Y77.509 E1.40237
G1 X57.296 Y77.197 E1.48761
G1 X58.049 Y76.96 E1.57287
G1 X58.823 Y76.801 E1.6582
G1 X59.705 Y76.71 E1.75397
G1 X78.99 Y76.71 E3.83675
G1 X79.779 Y76.75 E3.92207
G1 X80.559 Y76.869 E4.00728
G1 X81.324 Y77.067 E4.09262
G1 X82.064 Y77.341 E4.17785
G1 X82.773 Y77.689 E4.26315
G1 X83.444 Y78.107 E4.34852
G1 X84.068 Y78.59 E4.43375
G1 X84.641 Y79.133 E4.519
G1 X85.156 Y79.732 E4.60432
G1 X85.607 Y80.38 E4.68958
G1 X85.79 Y80.71 E4.73034
G1 X147.2 Y80.71 E11.36262
G1 X147.607 Y80.056 E11.44581
G1 X148.09 Y79.432 E11.53103
G1 X148.633 Y78.859 E11.61629
G1 X149.232 Y78.344 E11.7016
G1 X149.88 Y77.893 E11.78687
G1 X150.571 Y77.509 E11.87225
G1 X151.296 Y77.197 E11.95749
G1 X152.049 Y76.96 E12.04275
G1 X152.823 Y76.801 E12.12808
G1 X153.705 Y76.71 E12.22384
G1 X162.99 Y76.71 E13.22662
G1 X163.779 Y76.75 E13.31195
G1 X164.559 Y76.869 E13.39716
G1 X165.324 Y77.067 E13.4825
G1 X166.064 Y77.341 E13.56773
G1 X166.773 Y77.689 E13.65302
G1 X167.444 Y78.107 E13.7384
G1 X168.068 Y78.59 E13.82363
G1 X168.641 Y79.133 E13.90888
G1 X169.156 Y79.732 E13.9942
G1 X169.607 Y80.38 E14.07946
G1 X169.782 Y80.694 E14.11829
G1 X170.444 Y81.107 E14.20255
G1 X171.068 Y81.59 E14.28778
G1 X171.641 Y82.133 E14.37303
G1 X172.156 Y82.732 E14.45835
G1 X172.607 Y83.38 E14.54361
G1 X172.991 Y84.071 E14.62899
G1 X173.303 Y84.796 E14.71423
G1 X173.54 Y85.549 E14.79949
G1 X173.699 Y86.323 E14.88483
G1 X173.79 Y87.205 E14.98059
G1 X173.79 Y92.49 E15.55137
G1 X173.75 Y93.279 E15.63669
G1 X173.631 Y94.059 E15.72191
G1 X173.433 Y94.824 E15.80725
G1 X173.159 Y95.564 E15.89247
G1 X172.811 Y96.273 E15.97777
G1 X172.393 Y96.944 E16.06315
G1 X171.91 Y97.568 E16.14837
G1 X171.367 Y98.141 E16.23363
G1 X170.79 Y98.637 E16.3158
G1 X170.79 Y102.375 E16.71951
G1 X171.068 Y102.59 E16.75746
G1 X171.641 Y103.133 E16.84272
G1 X172.156 Y103.732 E16.92803
G1 X172.607 Y104.38 E17.0133
G1 X172.991 Y105.071 E17.09868
G1 X173.303 Y105.796 E17.18392
G1 X173.54 Y106.549 E17.26918
G1 X173.699 Y107.323 E17.35451
G1 X173.79 Y108.205 E17.45028
G1 X173.79 Y113.49 E18.02106
G1 X173.75 Y114.279 E18.10638
G1 X173.631 Y115.059 E18.19159
G1 X173.433 Y115.824 E18.27693
G1 X173.159 Y116.564 E18.36216
G1 X172.811 Y117.273 E18.44746
G1 X172.393 Y117.944 E18.53284
G1 X171.91 Y118.568 E18.61806
G1 X171.367 Y119.141 E18.70331
G1 X170.79 Y119.637 E18.78549
G1 X170.79 Y124.375 E19.29719
G1 X171.068 Y124.59 E19.33515
G1 X171.641 Y125.133 E19.42041
G1 X172.156 Y125.732 E19.50572
G1 X172.607 Y126.38 E19.59099
G1 X172.991 Y127.071 E19.67636
G1 X173.303 Y127.796 E19.76161
G1 X173.54 Y128.549 E19.84686
G1 X173.699 Y129.323 E19.9322
G1 X173.79 Y130.205 E20.02796
G1 X173.79 Y135.49 E20.59874
G1 X173.75 Y136.279 E20.68406
G1 X173.631 Y137.059 E20.76928
G1 X173.433 Y137.824 E20.85462
G1 X173.159 Y138.564 E20.93984
G1 X172.811 Y139.273 E21.02514
G1 X172.393 Y139.944 E21.11052
G1 X171.91 Y140.568 E21.19574
G1 X171.367 Y141.141 E21.281
G1 X170.768 Y141.656 E21.36631
G1 X170.12 Y142.107 E21.45158
G1 X169.806 Y142.282 E21.4904
G1 X169.393 Y142.944 E21.57467
G1 X168.91 Y143.568 E21.65989
G1 X168.367 Y144.141 E21.74515
G1 X167.768 Y144.656 E21.83047
G1 X167.12 Y145.107 E21.91573
G1 X166.429 Y145.491 E22.00111
G1 X165.704 Y145.803 E22.08635
G1 X164.951 Y146.04 E22.17161
G1 X164.177 Y146.199 E22.25695
G1 X163.295 Y146.29 E22.35271
G1 X147.01 Y146.29 E24.11149
G1 X146.221 Y146.25 E24.19681
G1 X145.441 Y146.131 E24.28202
G1 X144.676 Y145.933 E24.36737
G1 X143.936 Y145.659 E24.45259
G1 X143.227 Y145.311 E24.53789
G1 X142.556 Y144.893 E24.62327
G1 X141.932 Y144.41 E24.70849
G1 X141.359 Y143.867 E24.79375
G1 X140.844 Y143.268 E24.87906
G1 X140.393 Y142.62 E24.96433
G1 X140.21 Y142.29 E25.00508
G1 X86.8 Y142.29 E30.77336
G1 X86.393 Y142.944 E30.85655
G1 X85.91 Y143.568 E30.94177
G1 X85.367 Y144.141 E31.02703
G1 X84.768 Y144.656 E31.11235
G1 X84.12 Y145.107 E31.19761
G1 X83.429 Y145.491 E31.28299
G1 X82.704 Y145.803 E31.36823
G1 X81.951 Y146.04 E31.45349
G1 X81.177 Y146.199 E31.53883
G1 X80.295 Y146.29 E31.63459
G1 X60.01 Y146.29 E33.82537
G1 X59.221 Y146.25 E33.91069
G1 X58.441 Y146.131 E33.9959
G1 X57.676 Y145.933 E34.08125
G1 X56.936 Y145.659 E34.16647
G1 X56.227 Y145.311 E34.25177
G1 X55.556 Y144.893 E34.33715
G1 X54.932 Y144.41 E34.42237
G1 X54.359 Y143.867 E34.50762
G1 X53.844 Y143.268 E34.59294
G1 X53.393 Y142.62 E34.67821
G1 X53.218 Y142.306 E34.71703
G1 X52.556 Y141.893 E34.8013
G1 X51.932 Y141.41 E34.88652
G1 X51.359 Y140.867 E34.97178
G1 X50.844 Y140.268 E35.05709
G1 X50.393 Y139.62 E35.14236
G1 X50.009 Y138.929 E35.22773
G1 X49.697 Y138.204 E35.31298
G1 X49.46 Y137.451 E35.39823
G1 X49.301 Y136.677 E35.48357
G1 X49.21 Y135.795 E35.57933
G1 X49.21 Y130.51 E36.15011
G1 X49.25 Y129.721 E36.23543
G1 X49.369 Y128.941 E36.32065
G1 X49.567 Y128.176 E36.40599
G1 X49.841 Y127.436 E36.49121
G1 X50.189 Y126.727 E36.57651
G1 X50.607 Y126.056 E36.66189
G1 X51.09 Y125.432 E36.74711
G1 X51.633 Y124.859 E36.83237
G1 X52.21 Y124.363 E36.91455
G1 X52.21 Y119.625 E37.42625
G1 X51.932 Y119.41 E37.4642
G1 X51.359 Y118.867 E37.54946
G1 X50.844 Y118.268 E37.63478
G1 X50.393 Y117.62 E37.72004
G1 X50.009 Y116.929 E37.80542
G1 X49.697 Y116.204 E37.89066
G1 X49.46 Y115.451 E37.97592
G1 X49.301 Y114.677 E38.06126
G1 X49.21 Y113.795 E38.15702
G1 X49.21 Y108.51 E38.7278
G1 X49.25 Y107.721 E38.81312
G1 X49.369 Y106.941 E38.89833
G1 X49.567 Y106.176 E38.98368
G1 X49.841 Y105.436 E39.0689
G1 X50.189 Y104.727 E39.1542
G1 X50.607 Y104.056 E39.23958
G1 X51.09 Y103.432 E39.3248
G1 X51.633 Y102.859 E39.41006
G1 X52.21 Y102.363 E39.49223
G1 X52.21 Y98.625 E39.89594
G1 X51.932 Y98.41 E39.93389
G1 X51.359 Y97.867 E40.01915
G1 X50.844 Y97.268 E40.10446
G1 X50.393 Y96.62 E40.18973
G1 X50.009 Y95.929 E40.27511
G1 X49.697 Y95.204 E40.36035
G1 X49.46 Y94.451 E40.44561
G1 X49.301 Y93.677 E40.53094
G1 X49.21 Y92.795 E40.6267
G1 X49.21 Y87.51 E41.19748
G0 F4320 X49.61 Y87.51
G1 F1800 X49.65 Y86.742 E41.28054
G1 X49.769 Y85.982 E41.36362
G1 X49.967 Y85.239 E41.44667
G1 X50.241 Y84.52 E41.52977
G1 X50.588 Y83.834 E41.61279
G1 X51.004 Y83.187 E41.69587
G1 X51.485 Y82.587 E41.77892
G1 X52.026 Y82.04 E41.86201
G1 X52.621 Y81.552 E41.94512
G1 X53.263 Y81.129 E42.02815
G1 X53.466 Y81.023 E42.05288
G1 X54.004 Y80.187 E42.16025
G1 X54.485 Y79.587 E42.2433
G1 X55.026 Y79.04 E42.32639
G1 X55.621 Y78.552 E42.4095
G1 X56.263 Y78.129 E42.49253
G1 X56.946 Y77.774 E42.57567
G1 X57.661 Y77.493 E42.65864
G1 X58.403 Y77.287 E42.7418
G1 X59.161 Y77.159 E42.82483
G1 X60.01 Y77.11 E42.91667
G1 X78.99 Y77.11 E44.96651
G1 X79.758 Y77.15 E45.04957
G1 X80.518 Y77.269 E45.13265
G1 X81.261 Y77.467 E45.21569
G1 X81.98 Y77.741 E45.29879
G1 X82.666 Y78.088 E45.38182
G1 X83.313 Y78.504 E45.46489
G1 X83.913 Y78.985 E45.54794
G1 X84.46 Y79.526 E45.63103
G1 X84.948 Y80.121 E45.71414
G1 X85.371 Y80.763 E45.79717
G1 X85.551 Y81.11 E45.83939
G1 X147.411 Y81.11 E52.52027
G1 X148.004 Y80.187 E52.63876
G1 X148.485 Y79.587 E52.72181
G1 X149.026 Y79.04 E52.8049
G1 X149.621 Y78.552 E52.88801
G1 X150.263 Y78.129 E52.97104
G1 X150.946 Y77.774 E53.05417
G1 X151.661 Y77.493 E53.13714
G1 X152.403 Y77.287 E53.22031
G1 X153.161 Y77.159 E53.30333
G1 X154.01 Y77.11 E53.39518
G1 X162.99 Y77.11 E54.36502
G1 X163.758 Y77.15 E54.44807
G1 X164.518 Y77.269 E54.53115
G1 X165.261 Y77.467 E54.6142
G1 X165.98 Y77.741 E54.6973
G1 X166.666 Y78.088 E54.78032
G1 X167.313 Y78.504 E54.8634
G1 X167.913 Y78.985 E54.94645
G1 X168.46 Y79.526 E55.02954
G1 X168.948 Y80.121 E55.11265
G1 X169.371 Y80.763 E55.19568
G1 X169.477 Y80.966 E55.22041
G1 X170.313 Y81.504 E55.32778
G1 X170.913 Y81.985 E55.41083
G1 X171.46 Y82.526 E55.49392
G1 X171.948 Y83.121 E55.57703
G1 X172.371 Y83.763 E55.66006
G1 X172.726 Y84.446 E55.7432
G1 X173.007 Y85.161 E55.82617
G1 X173.213 Y85.903 E55.90933
G1 X173.341 Y86.661 E55.99236
G1 X173.39 Y87.51 E56.0842
G1 X173.39 Y92.49 E56.62204
G1 X173.35 Y93.258 E56.7051
G1 X173.231 Y94.018 E56.78818
G1 X173.033 Y94.761 E56.87122
G1 X172.759 Y95.48 E56.95432
G1 X172.412 Y96.166 E57.03735
G1 X171.996 Y96.813 E57.12042
G1 X171.515 Y97.413 E57.20347
G1 X170.974 Y97.96 E57.28656
G1 X170.39 Y98.439 E57.36814
G1 X170.39 Y102.566 E57.81385
G1 X170.913 Y102.985 E57.88623
G1 X171.46 Y103.526 E57.96932
G1 X171.948 Y104.121 E58.05243
G1 X172.371 Y104.763 E58.13546
G1 X172.726 Y105.446 E58.21859
G1 X173.007 Y106.161 E58.30156
G1 X173.213 Y106.903 E58.38473
G1 X173.341 Y107.661 E58.46775
G1 X173.39 Y108.51 E58.5596
G1 X173.39 Y113.49 E59.09744
G1 X173.35 Y114.258 E59.18049
G1 X173.231 Y115.018 E59.26357
G1 X173.033 Y115.761 E59.34662
G1 X172.759 Y116.48 E59.42972
G1 X172.412 Y117.166 E59.51274
G1 X171.996 Y117.813 E59.59582
G1 X171.515 Y118.413 E59.67887
G1 X170.974 Y118.96 E59.76196
G1 X170.39 Y119.439 E59.84353
G1 X170.39 Y124.566 E60.39725
G1 X170.913 Y124.985 E60.46962
G1 X171.46 Y125.526 E60.55271
G1 X171.948 Y126.121 E60.63582
G1 X172.371 Y126.763 E60.71885
G1 X172.726 Y127.446 E60.80199
G1 X173.007 Y128.161 E60.88496
G1 X173.213 Y128.903 E60.96812
G1 X173.341 Y129.661 E61.05115
G1 X173.39 Y130.51 E61.14299
G1 X173.39 Y135.49 E61.68083
G1 X173.35 Y136.258 E61.76389
G1 X173.231 Y137.018 E61.84697
G1 X173.033 Y137.761 E61.93001
G1 X172.759 Y138.48 E62.01311
G1 X172.412 Y139.166 E62.09614
G1 X171.996 Y139.813 E62.17921
G1 X171.515 Y140.413 E62.26226
G1 X170.974 Y140.96 E62.34535
G1 X170.379 Y141.448 E62.42846
G1 X169.737 Y141.871 E62.51149
G1 X169.534 Y141.977 E62.53623
G1 X168.996 Y142.813 E62.6436
G1 X168.515 Y143.413 E62.72665
G1 X167.974 Y143.96 E62.80974
G1 X167.379 Y144.448 E62.89285
G1 X166.737 Y144.871 E62.97588
G1 X166.054 Y145.226 E63.05901
G1 X165.339 Y145.507 E63.14198
G1 X164.597 Y145.713 E63.22515
G1 X163.839 Y145.841 E63.30817
G1 X162.99 Y145.89 E63.40002
G1 X147.01 Y145.89 E65.12586
G1 X146.242 Y145.85 E65.20891
G1 X145.482 Y145.731 E65.29199
G1 X144.739 Y145.533 E65.37504
G1 X144.02 Y145.259 E65.45814
G1 X143.334 Y144.912 E65.54116
G1 X142.687 Y144.496 E65.62424
G1 X142.087 Y144.015 E65.70729
G1 X141.54 Y143.474 E65.79038
G1 X141.052 Y142.879 E65.87349
G1 X140.629 Y142.237 E65.95652
G1 X140.449 Y141.89 E65.99874
G1 X86.589 Y141.89 E71.81562
G1 X85.996 Y142.813 E71.9341
G1 X85.515 Y143.413 E72.01715
G1 X84.974 Y143.96 E72.10024
G1 X84.379 Y144.448 E72.18335
G1 X83.737 Y144.871 E72.26639
G1 X83.054 Y145.226 E72.34952
G1 X82.339 Y145.507 E72.43249
G1 X81.597 Y145.713 E72.51565
G1 X80.839 Y145.841 E72.59868
G1 X79.99 Y145.89 E72.69052
G1 X60.01 Y145.89 E74.84836
G1 X59.242 Y145.85 E74.93142
G1 X58.482 Y145.731 E75.0145
G1 X57.739 Y145.533 E75.09754
G1 X57.02 Y145.259 E75.18064
G1 X56.334 Y144.912 E75.26367
G1 X55.687 Y144.496 E75.34674
G1 X55.087 Y144.015 E75.4298
G1 X54.54 Y143.474 E75.51288
G1 X54.052 Y142.879 E75.59599
G1 X53.629 Y142.237 E75.67903
G1 X53.523 Y142.034 E75.70376
G1 X52.687 Y141.496 E75.81113
G1 X52.087 Y141.015 E75.89418
G1 X51.54 Y140.474 E75.97727
G1 X51.052 Y139.879 E76.06038
G1 X50.629 Y139.237 E76.14341
G1 X50.274 Y138.554 E76.22654
G1 X49.993 Y137.839 E76.30951
G1 X49.787 Y137.097 E76.39268
G1 X49.659 Y136.339 E76.4757
G1 X49.61 Y135.49 E76.56755
G1 X49.61 Y130.51 E77.10539
G1 X49.65 Y129.742 E77.18844
G1 X49.769 Y128.982 E77.27152
G1 X49.967 Y128.239 E77.35457
G1 X50.241 Y127.52 E77.43767
G1 X50.588 Y126.834 E77.5207
G1 X51.004 Y126.187 E77.60377
G1 X51.485 Y125.587 E77.68682
G1 X52.026 Y125.04 E77.76991
G1 X52.61 Y124.561 E77.85148
G1 X52.61 Y119.434 E78.4052
G1 X52.087 Y119.015 E78.47757
G1 X51.54 Y118.474 E78.56066
G1 X51.052 Y117.879 E78.64377
G1 X50.629 Y117.237 E78.72681
G1 X50.274 Y116.554 E78.80994
G1 X49.993 Y115.839 E78.89291
G1 X49.787 Y115.097 E78.97607
G1 X49.659 Y114.339 E79.0591
G1 X49.61 Y113.49 E79.15094
G1 X49.61 Y108.51 E79.68878
G1 X49.65 Y107.742 E79.77184
G1 X49.769 Y106.982 E79.85492
G1 X49.967 Y106.239 E79.93796
G1 X50.241 Y105.52 E80.02106
G1 X50.588 Y104.834 E80.10409
G1 X51.004 Y104.187 E80.18716
G1 X51.485 Y103.587 E80.27022
G1 X52.026 Y103.04 E80.3533
G1 X52.61 Y102.561 E80.43488
G1 X52.61 Y98.434 E80.88059
G1 X52.087 Y98.015 E80.95297
G1 X51.54 Y97.474 E81.03606
G1 X51.052 Y96.879 E81.11917
G1 X50.629 Y96.237 E81.2022
G1 X50.274 Y95.554 E81.28533
G1 X49.993 Y94.839 E81.3683
G1 X49.787 Y94.097 E81.45147
G1 X49.659 Y93.339 E81.53449
G1 X49.61 Y92.49 E81.62634
G1 X49.61 Y87.51 E82.16418
G0 F4320 X50.01 Y87.51
G1 F1800 X50.05 Y86.763 E82.24497
G1 X50.169 Y86.025 E82.3257
G1 X50.367 Y85.303 E82.40656
G1 X50.64 Y84.607 E82.4873
G1 X50.987 Y83.944 E82.56812
G1 X51.402 Y83.321 E82.64896
G1 X51.881 Y82.747 E82.72971
G1 X52.418 Y82.226 E82.81051
G1 X53.008 Y81.767 E82.89124
G1 X53.821 Y81.262 E82.99461
G1 X53.987 Y80.944 E83.03335
G1 X54.402 Y80.321 E83.1142
G1 X54.881 Y79.747 E83.19494
G1 X55.418 Y79.226 E83.27574
G1 X56.008 Y78.767 E83.35648
G1 X56.644 Y78.372 E83.43733
G1 X57.318 Y78.048 E83.5181
G1 X58.023 Y77.798 E83.59888
G1 X58.751 Y77.624 E83.67972
G1 X59.493 Y77.529 E83.76051
G1 X60.01 Y77.51 E83.81639
G1 X78.99 Y77.51 E85.86623
G1 X79.737 Y77.55 E85.94702
G1 X80.475 Y77.669 E86.02775
G1 X81.197 Y77.867 E86.10861
G1 X81.893 Y78.14 E86.18935
G1 X82.556 Y78.487 E86.27017
G1 X83.179 Y78.902 E86.35101
G1 X83.753 Y79.381 E86.43176
G1 X84.274 Y79.918 E86.51256
G1 X84.733 Y80.508 E86.59329
G1 X85.128 Y81.144 E86.67415
G1 X85.304 Y81.51 E86.71801
G1 X147.691 Y81.51 E93.45581
G1 X147.987 Y80.944 E93.52479
G1 X148.402 Y80.321 E93.60563
G1 X148.881 Y79.747 E93.68638
G1 X149.418 Y79.226 E93.76718
G1 X150.008 Y78.767 E93.84791
G1 X150.644 Y78.372 E93.92877
G1 X151.318 Y78.048 E94.00954
G1 X152.023 Y77.798 E94.09032
G1 X152.751 Y77.624 E94.17116
G1 X153.493 Y77.529 E94.25195
G1 X154.01 Y77.51 E94.30783
G1 X162.99 Y77.51 E95.27767
G1 X163.737 Y77.55 E95.35846
G1 X164.475 Y77.669 E95.43919
G1 X165.197 Y77.867 E95.52005
G1 X165.893 Y78.14 E95.60079
G1 X166.556 Y78.487 E95.68161
G1 X167.179 Y78.902 E95.76245
G1 X167.753 Y79.381 E95.84319
G1 X168.274 Y79.918 E95.924
G1 X168.733 Y80.508 E96.00473
G1 X169.238 Y81.321 E96.1081
G1 X169.556 Y81.487 E96.14684
G1 X170.179 Y81.902 E96.22768
G1 X170.753 Y82.381 E96.30843
G1 X171.274 Y82.918 E96.38923
G1 X171.733 Y83.508 E96.46996
G1 X172.128 Y84.144 E96.55082
G1 X172.452 Y84.818 E96.63159
G1 X172.702 Y85.523 E96.71237
G1 X172.876 Y86.251 E96.79321
G1 X172.971 Y86.993 E96.874
G1 X172.99 Y87.51 E96.92987
G1 X172.99 Y92.49 E97.46771
G1 X172.95 Y93.237 E97.54851
G1 X172.831 Y93.975 E97.62924
G1 X172.633 Y94.697 E97.71009
G1 X172.36 Y95.393 E97.79084
G1 X172.013 Y96.056 E97.87166
G1 X171.598 Y96.679 E97.9525
G1 X171.119 Y97.253 E98.03324
G1 X170.582 Y97.774 E98.11405
G1 X169.99 Y98.234 E98.19502
G1 X169.99 Y102.744 E98.6821
G1 X170.753 Y103.381 E98.78944
G1 X171.274 Y103.918 E98.87025
G1 X171.733 Y104.508 E98.95098
G1 X172.128 Y105.144 E99.03184
G1 X172.452 Y105.818 E99.11261
G1 X172.702 Y106.523 E99.19339
G1 X172.876 Y107.251 E99.27423
G1 X172.971 Y107.993 E99.35502
G1 X172.99 Y108.51 E99.41089
G1 X172.99 Y113.49 E99.94873
G1 X172.95 Y114.237 E100.02952
G1 X172.831 Y114.975 E100.11026
G1 X172.633 Y115.697 E100.19111
G1 X172.36 Y116.393 E100.27186
G1 X172.013 Y117.056 E100.35268
G1 X171.598 Y117.679 E100.43352
G1 X171.119 Y118.253 E100.51426
G1 X170.582 Y118.774 E100.59507
G1 X169.99 Y119.234 E100.67604
G1 X169.99 Y124.744 E101.27112
G1 X170.753 Y125.381 E101.37846
G1 X171.274 Y125.918 E101.45927
