;FLAVOR:UltiGCode
;TIME:6800
;MATERIAL:6660
;MATERIAL2:0
;NOZZLE_DIAMETER:0.4
;MINX:76.861
;MINY:76.861
;MINZ:0.27
;MAXX:146.139
;MAXY:146.14
;MAXZ:4.37
;Generated with Cura_SteamEngine main
M82 ;absolute extrusion mode
G0 F3000 Y50 ;avoid prime blob
G92 E0
G92 E0
G10
;LAYER_COUNT:42
;LAYER:0
M107
G0 F4320 X88.339 Y82.444 Z0.27
G0 X87.335 Y83.66
;TYPE:SKIRT
G11
G1 F1800 X87.806 Y83.027 E0.08521
G1 X88.339 Y82.444 E0.17052
G1 X88.928 Y81.919 E0.25574
G1 X89.566 Y81.449 E0.34132
G1 X90.332 Y80.988 E0.43787
G1 X91.047 Y80.652 E0.5232
G1 X91.792 Y80.39 E0.60849
G1 X92.559 Y80.204 E0.69372
G1 X93.222 Y80.108 E0.76607
G1 X93.746 Y80.059 E0.82291
G1 X100.406 Y79.582 E1.54404
G1 X100.918 Y79.562 E1.59937
G1 X107.296 Y79.525 E2.28821
G1 X117.913 Y77.416 E3.45725
G1 X118.423 Y77.341 E3.51292
G1 X118.897 Y77.19 E3.56665
G1 X119.664 Y77.001 E3.65196
G1 X120.446 Y76.891 E3.73725
G1 X121.235 Y76.861 E3.82252
G1 X122.023 Y76.91 E3.90779
G1 X122.756 Y77.023 E3.98789
G1 X123.618 Y77.236 E4.08379
G1 X124.362 Y77.503 E4.16916
G1 X125.074 Y77.843 E4.25437
G1 X125.696 Y78.218 E4.33281
G1 X139.34 Y87.335 E6.10506
G1 X139.973 Y87.806 E6.19027
G1 X140.556 Y88.339 E6.27558
G1 X141.081 Y88.928 E6.3608
G1 X141.551 Y89.566 E6.44638
G1 X142.012 Y90.332 E6.54293
G1 X142.348 Y91.047 E6.62825
G1 X142.61 Y91.792 E6.71355
G1 X142.796 Y92.559 E6.79878
G1 X142.914 Y93.374 E6.88772
G1 X142.961 Y94.297 E6.98753
G1 X142.923 Y95.051 E7.06907
G1 X143.22 Y95.67 E7.14322
G1 X143.488 Y96.413 E7.22852
G1 X143.675 Y97.161 E7.31179
G1 X145.543 Y106.555 E8.34621
G1 X145.668 Y107.449 E8.4437
G1 X145.744 Y108.391 E8.54577
G1 X145.769 Y109.104 E8.62282
G1 X145.694 Y115.908 E9.35769
G1 X145.645 Y116.696 E9.44296
G1 X145.517 Y117.475 E9.52822
G1 X145.434 Y117.781 E9.56246
G1 X145.777 Y118.761 E9.6746
G1 X145.998 Y119.662 E9.77479
G1 X146.109 Y120.444 E9.8601
G1 X146.139 Y121.233 E9.94537
G1 X146.09 Y122.021 E10.03064
G1 X145.977 Y122.755 E10.11084
G1 X145.764 Y123.618 E10.20684
G1 X145.497 Y124.362 E10.29221
G1 X145.157 Y125.074 E10.37743
G1 X144.782 Y125.696 E10.45587
G1 X135.665 Y139.34 E12.22812
G1 X135.194 Y139.973 E12.31333
G1 X134.661 Y140.556 E12.39864
G1 X134.072 Y141.081 E12.48385
G1 X133.434 Y141.551 E12.56944
G1 X132.668 Y142.012 E12.66599
G1 X131.953 Y142.348 E12.75131
G1 X131.208 Y142.61 E12.8366
G1 X130.435 Y142.803 E12.92265
G1 X129.56 Y142.934 E13.0182
G1 X128.404 Y142.961 E13.14308
G1 X123.44 Y142.711 E13.67988
G1 X120.955 Y142.711 E13.94826
G1 X120.28 Y142.682 E14.02122
G1 X120.029 Y142.66 E14.04843
G1 X119.613 Y142.732 E14.09403
G1 X103.954 Y145.846 E15.81832
G1 X103.361 Y145.994 E15.88433
G1 X102.579 Y146.107 E15.96966
G1 X101.79 Y146.14 E16.05495
G1 X101.002 Y146.093 E16.1402
G1 X100.246 Y145.977 E16.22281
G1 X99.382 Y145.764 E16.31891
G1 X98.638 Y145.497 E16.40428
G1 X97.926 Y145.157 E16.48949
G1 X97.304 Y144.782 E16.56793
G1 X83.66 Y135.665 E18.34018
G1 X83.027 Y135.194 E18.4254
G1 X82.444 Y134.661 E18.51071
G1 X81.919 Y134.072 E18.59592
G1 X81.449 Y133.434 E18.6815
G1 X80.988 Y132.668 E18.77806
G1 X80.652 Y131.953 E18.86338
G1 X80.39 Y131.208 E18.94867
G1 X80.193 Y130.412 E19.03723
G1 X80.064 Y129.534 E19.13307
G1 X80.024 Y128.642 E19.22951
G1 X80.516 Y120.383 E20.12306
G1 X77.611 Y105.774 E21.73172
G1 X77.503 Y105.04 E21.81185
G1 X77.223 Y104.239 E21.90349
G1 X77.002 Y103.338 E22.00368
G1 X76.891 Y102.556 E22.08898
G1 X76.861 Y101.767 E22.17426
G1 X76.91 Y100.979 E22.25953
G1 X77.023 Y100.245 E22.33973
G1 X77.236 Y99.382 E22.43573
G1 X77.503 Y98.638 E22.5211
G1 X77.843 Y97.926 E22.60632
G1 X78.218 Y97.304 E22.68476
G1 X87.335 Y83.66 E24.457
G0 F4320 X87.667 Y83.883
G1 F1800 X88.127 Y83.266 E24.54012
G1 X88.649 Y82.701 E24.6232
G1 X89.226 Y82.193 E24.70622
G1 X89.795 Y81.777 E24.78235
G1 X90.538 Y81.332 E24.87588
G1 X91.235 Y81.007 E24.95894
G1 X91.963 Y80.757 E25.04207
G1 X92.712 Y80.583 E25.12512
G1 X93.262 Y80.506 E25.1851
G1 X93.774 Y80.458 E25.24064
G1 X100.68 Y79.963 E25.9884
G1 X107.335 Y79.925 E26.70715
G1 X117.991 Y77.808 E27.88049
G1 X118.507 Y77.733 E27.9368
G1 X119.012 Y77.573 E27.99401
G1 X119.759 Y77.39 E28.07708
G1 X120.522 Y77.286 E28.16024
G1 X121.29 Y77.262 E28.24323
G1 X122.057 Y77.317 E28.32627
G1 X122.688 Y77.417 E28.39527
G1 X123.522 Y77.625 E28.4881
G1 X124.245 Y77.888 E28.57119
G1 X124.937 Y78.224 E28.65427
G1 X125.473 Y78.55 E28.72203
G1 X139.117 Y87.667 E30.49428
G1 X139.734 Y88.127 E30.57739
G1 X140.299 Y88.649 E30.66047
G1 X140.807 Y89.226 E30.7435
G1 X141.223 Y89.795 E30.81962
G1 X141.668 Y90.538 E30.91315
G1 X141.993 Y91.235 E30.99621
G1 X142.243 Y91.963 E31.07934
G1 X142.417 Y92.712 E31.16239
G1 X142.517 Y93.426 E31.24025
G1 X142.561 Y94.317 E31.3366
G1 X142.517 Y95.128 E31.42432
G1 X142.859 Y95.843 E31.50991
G1 X143.116 Y96.567 E31.59289
G1 X143.283 Y97.239 E31.66767
G1 X145.151 Y106.633 E32.70209
G1 X145.269 Y107.481 E32.79455
G1 X145.345 Y108.423 E32.89662
G1 X145.369 Y109.1 E32.96978
G1 X145.294 Y115.904 E33.70466
G1 X145.245 Y116.671 E33.78766
G1 X145.117 Y117.43 E33.87079
G1 X145.002 Y117.843 E33.91709
G1 X145.155 Y118.183 E33.95736
G1 X145.397 Y118.887 E34.03776
G1 X145.609 Y119.757 E34.13447
G1 X145.714 Y120.519 E34.21754
G1 X145.739 Y121.288 E34.30064
G1 X145.683 Y122.055 E34.38369
G1 X145.583 Y122.687 E34.4528
G1 X145.375 Y123.522 E34.54573
G1 X145.112 Y124.245 E34.62882
G1 X144.776 Y124.937 E34.7119
G1 X144.45 Y125.473 E34.77966
G1 X135.333 Y139.117 E36.55191
G1 X134.873 Y139.734 E36.63502
G1 X134.351 Y140.299 E36.7181
G1 X133.774 Y140.807 E36.80113
G1 X133.205 Y141.223 E36.87725
G1 X132.462 Y141.668 E36.97079
G1 X131.765 Y141.993 E37.05384
G1 X131.037 Y142.243 E37.13697
G1 X130.348 Y142.411 E37.21357
G1 X129.501 Y142.537 E37.30605
G1 X128.424 Y142.562 E37.4224
G1 X123.44 Y142.311 E37.96135
G1 X120.955 Y142.311 E38.22973
G1 X120.315 Y142.283 E38.29892
G1 X120.024 Y142.258 E38.33046
G1 X119.535 Y142.34 E38.38401
G1 X103.862 Y145.457 E40.10984
G1 X103.264 Y145.605 E40.17638
G1 X102.502 Y145.712 E40.25948
G1 X101.734 Y145.739 E40.34247
G1 X100.966 Y145.686 E40.42562
G1 X100.314 Y145.583 E40.49691
G1 X99.478 Y145.375 E40.58995
G1 X98.755 Y145.112 E40.67304
G1 X98.063 Y144.776 E40.75612
G1 X97.527 Y144.45 E40.82387
G1 X83.883 Y135.333 E42.59612
G1 X83.266 Y134.873 E42.67924
G1 X82.701 Y134.351 E42.76231
G1 X82.193 Y133.774 E42.84534
G1 X81.777 Y133.205 E42.92146
G1 X81.332 Y132.462 E43.015
G1 X81.007 Y131.765 E43.09805
G1 X80.757 Y131.037 E43.18118
G1 X80.584 Y130.328 E43.26
G1 X80.461 Y129.476 E43.35297
G1 X80.442 Y128.354 E43.47417
G1 X80.918 Y120.355 E44.33959
G1 X78.003 Y105.696 E45.95376
G1 X77.891 Y104.92 E46.03843
G1 X77.845 Y104.817 E46.05062
G1 X77.603 Y104.113 E46.13102
G1 X77.391 Y103.243 E46.22772
G1 X77.286 Y102.481 E46.3108
G1 X77.261 Y101.712 E46.39389
G1 X77.317 Y100.945 E46.47695
G1 X77.417 Y100.313 E46.54606
G1 X77.625 Y99.478 E46.63899
G1 X77.888 Y98.755 E46.72208
G1 X78.224 Y98.063 E46.80516
G1 X78.55 Y97.527 E46.87292
G1 X87.667 Y83.883 E48.64516
G0 F4320 X88 Y84.105
G1 F1800 X88.448 Y83.506 E48.72595
G1 X88.958 Y82.958 E48.8068
G1 X89.523 Y82.468 E48.88757
G1 X90.102 Y82.059 E48.96413
G1 X90.744 Y81.676 E49.04486
G1 X91.423 Y81.363 E49.12561
G1 X92.132 Y81.124 E49.20642
G1 X93.003 Y80.932 E49.30274
G1 X93.803 Y80.857 E49.38952
G1 X100.696 Y80.363 E50.13588
G1 X107.374 Y80.325 E50.85711
G1 X118.069 Y78.2 E52.03475
G1 X118.647 Y78.117 E52.09782
G1 X119.127 Y77.956 E52.15249
G1 X119.854 Y77.779 E52.2333
G1 X120.596 Y77.681 E52.31414
G1 X121.344 Y77.663 E52.39494
G1 X122.089 Y77.725 E52.47568
G1 X122.699 Y77.832 E52.54257
G1 X123.425 Y78.014 E52.6234
G1 X124.127 Y78.272 E52.70418
G1 X124.797 Y78.604 E52.78493
G1 X125.251 Y78.883 E52.84248
G1 X138.895 Y88 E54.61473
G1 X139.494 Y88.448 E54.69552
G1 X140.042 Y88.958 E54.77636
G1 X140.532 Y89.523 E54.85714
G1 X140.941 Y90.102 E54.9337
G1 X141.324 Y90.744 E55.01443
G1 X141.637 Y91.423 E55.09518
G1 X141.876 Y92.132 E55.17599
G1 X142.037 Y92.863 E55.25683
G1 X142.125 Y93.589 E55.33581
G1 X142.161 Y94.337 E55.41669
G1 X142.109 Y95.202 E55.51027
G1 X142.497 Y96.015 E55.60756
G1 X142.745 Y96.721 E55.68838
G1 X142.891 Y97.317 E55.75465
G1 X144.759 Y106.711 E56.78907
G1 X144.87 Y107.513 E56.87651
G1 X144.946 Y108.455 E56.97858
G1 X144.969 Y109.095 E57.04774
G1 X144.894 Y115.899 E57.78262
G1 X144.845 Y116.646 E57.86347
G1 X144.718 Y117.383 E57.94424
G1 X144.578 Y117.87 E57.99896
G1 X144.811 Y118.404 E58.06188
G1 X145.043 Y119.125 E58.14368
G1 X145.22 Y119.852 E58.22449
G1 X145.319 Y120.594 E58.30534
G1 X145.337 Y121.342 E58.38615
G1 X145.276 Y122.087 E58.46688
G1 X145.168 Y122.699 E58.53399
G1 X144.986 Y123.425 E58.61483
G1 X144.728 Y124.127 E58.6956
G1 X144.396 Y124.797 E58.77636
G1 X144.117 Y125.251 E58.83391
G1 X135 Y138.895 E60.60616
G1 X134.552 Y139.494 E60.68694
G1 X134.042 Y140.042 E60.76779
G1 X133.477 Y140.532 E60.84856
G1 X132.898 Y140.941 E60.92512
G1 X132.256 Y141.324 E61.00586
G1 X131.577 Y141.637 E61.08661
G1 X130.868 Y141.876 E61.16741
G1 X130.182 Y142.032 E61.24339
G1 X129.442 Y142.141 E61.32417
G1 X128.444 Y142.162 E61.43198
G1 X123.46 Y141.911 E61.97094
G1 X120.955 Y141.911 E62.24148
G1 X120.349 Y141.885 E62.30698
G1 X120.019 Y141.856 E62.34276
G1 X119.457 Y141.948 E62.40427
G1 X103.788 Y145.064 E64.12966
G1 X103.168 Y145.217 E64.19862
G1 X102.427 Y145.317 E64.27938
G1 X101.679 Y145.338 E64.36019
G1 X100.933 Y145.279 E64.44101
G1 X100.301 Y145.168 E64.51031
G1 X99.575 Y144.986 E64.59115
G1 X98.873 Y144.728 E64.67192
G1 X98.203 Y144.396 E64.75268
G1 X97.749 Y144.117 E64.81023
G1 X84.105 Y135 E66.58248
G1 X83.506 Y134.552 E66.66326
G1 X82.958 Y134.042 E66.74411
G1 X82.468 Y133.477 E66.82488
G1 X82.059 Y132.898 E66.90144
G1 X81.676 Y132.256 E66.98218
G1 X81.363 Y131.577 E67.06293
G1 X81.124 Y130.868 E67.14373
G1 X80.976 Y130.241 E67.21331
G1 X80.857 Y129.419 E67.30301
G1 X80.841 Y128.378 E67.41545
G1 X81.32 Y120.328 E68.28639
G1 X78.395 Y105.618 E69.90617
G1 X78.278 Y104.8 E69.99542
G1 X78.189 Y104.596 E70.01945
G1 X77.957 Y103.875 E70.10125
G1 X77.78 Y103.148 E70.18206
G1 X77.681 Y102.406 E70.26291
G1 X77.663 Y101.658 E70.34372
G1 X77.724 Y100.913 E70.42445
G1 X77.832 Y100.301 E70.49156
G1 X78.014 Y99.575 E70.5724
G1 X78.272 Y98.873 E70.65317
G1 X78.604 Y98.203 E70.73393
G1 X78.883 Y97.749 E70.79148
G1 X88 Y84.105 E72.56373
G0 F4320 X88.332 Y84.327
G1 F1800 X88.769 Y83.746 E72.64224
G1 X89.266 Y83.217 E72.72063
G1 X89.818 Y82.745 E72.79907
G1 X90.325 Y82.391 E72.86585
G1 X90.949 Y82.02 E72.94426
G1 X91.61 Y81.719 E73.0227
G1 X92.3 Y81.493 E73.10112
G1 X93.441 Y81.284 E73.22639
G1 X100.712 Y80.763 E74.01367
G1 X107.418 Y80.725 E74.73793
G1 X118.147 Y78.593 E75.91932
G1 X118.735 Y78.509 E75.98347
G1 X119.242 Y78.339 E76.04122
G1 X119.949 Y78.169 E76.11976
G1 X120.669 Y78.077 E76.19815
G1 X121.395 Y78.065 E76.27657
G1 X122.496 Y78.192 E76.39626
G1 X123.327 Y78.402 E76.48883
G1 X124.007 Y78.656 E76.56723
G1 X124.768 Y79.041 E76.65934
G1 X138.673 Y88.332 E78.46546
G1 X139.254 Y88.769 E78.54398
G1 X139.783 Y89.266 E78.62237
G1 X140.255 Y89.818 E78.70081
G1 X140.609 Y90.325 E78.76759
G1 X140.98 Y90.949 E78.84599
G1 X141.281 Y91.61 E78.92443
G1 X141.507 Y92.3 E79.00285
G1 X141.719 Y93.455 E79.12967
G1 X141.761 Y94.356 E79.22709
G1 X141.708 Y95.119 E79.30969
G1 X141.818 Y95.52 E79.3546
G1 X142.135 Y96.187 E79.43436
G1 X142.372 Y96.873 E79.51274
G1 X142.498 Y97.395 E79.57074
G1 X144.366 Y106.789 E80.60515
G1 X144.472 Y107.545 E80.6876
G1 X144.548 Y108.487 E80.78967
G1 X144.569 Y109.091 E80.85494
G1 X144.494 Y115.895 E81.58981
G1 X144.446 Y116.62 E81.66828
G1 X144.318 Y117.335 E81.74673
G1 X144.156 Y117.887 E81.80886
G1 X144.618 Y119.066 E81.94562
G1 X144.831 Y119.946 E82.04341
G1 X144.923 Y120.667 E82.12191
G1 X144.935 Y121.393 E82.20032
G1 X144.808 Y122.495 E82.32013
G1 X144.598 Y123.327 E82.4128
G1 X144.344 Y124.007 E82.4912
G1 X143.959 Y124.768 E82.58331
G1 X134.668 Y138.673 E84.38943
G1 X134.231 Y139.254 E84.46795
G1 X133.734 Y139.783 E84.54634
G1 X133.182 Y140.255 E84.62478
G1 X132.675 Y140.609 E84.69156
G1 X132.051 Y140.98 E84.76996
G1 X131.39 Y141.281 E84.8484
G1 X130.7 Y141.507 E84.92682
G1 X130.103 Y141.64 E84.99288
G1 X129.384 Y141.745 E85.07135
G1 X128.464 Y141.763 E85.17073
G1 X123.46 Y141.511 E85.71185
G1 X120.955 Y141.511 E85.98239
G1 X120.384 Y141.486 E86.04412
G1 X120.014 Y141.454 E86.08422
G1 X119.379 Y141.555 E86.15367
G1 X103.72 Y144.669 E87.87795
G1 X103.072 Y144.827 E87.94999
G1 X102.352 Y144.922 E88.02842
G1 X101.626 Y144.936 E88.10684
G1 X100.505 Y144.808 E88.2287
G1 X99.673 Y144.598 E88.32137
G1 X98.993 Y144.344 E88.39977
G1 X98.232 Y143.959 E88.49188
G1 X84.327 Y134.668 E90.298
G1 X83.746 Y134.231 E90.37652
G1 X83.217 Y133.734 E90.45491
G1 X82.745 Y133.182 E90.53335
G1 X82.391 Y132.675 E90.60013
G1 X82.02 Y132.051 E90.67854
G1 X81.719 Y131.39 E90.75698
G1 X81.493 Y130.7 E90.83539
G1 X81.356 Y130.081 E90.90386
G1 X81.254 Y129.362 E90.98229
G1 X81.241 Y128.401 E91.08609
G1 X81.723 Y120.3 E91.96254
G1 X78.788 Y105.54 E93.58783
G1 X78.685 Y104.821 E93.66628
G1 X78.681 Y104.697 E93.67968
G1 X78.382 Y103.934 E93.76818
G1 X78.169 Y103.054 E93.86597
G1 X78.077 Y102.333 E93.94447
G1 X78.065 Y101.607 E94.02289
G1 X78.192 Y100.505 E94.14269
G1 X78.402 Y99.673 E94.23536
G1 X78.656 Y98.993 E94.31376
G1 X79.041 Y98.232 E94.40587
G1 X88.332 Y84.327 E96.21199
G0 F4320 X88.665 Y84.549
G1 F1800 X89.089 Y83.987 E96.28802
G1 X89.573 Y83.477 E96.36396
G1 X90.434 Y82.791 E96.48285
G1 X91.153 Y82.364 E96.57317
G1 X91.796 Y82.076 E96.64926
G1 X92.467 Y81.863 E96.72529
G1 X93.485 Y81.682 E96.83696
G1 X100.727 Y81.163 E97.6211
G1 X107.457 Y81.124 E98.34795
G1 X118.225 Y78.985 E99.53362
G1 X118.818 Y78.902 E99.59829
G1 X119.358 Y78.722 E99.65976
G1 X120.042 Y78.558 E99.73573
G1 X120.741 Y78.473 E99.81178
G1 X121.445 Y78.467 E99.88781
G1 X122.425 Y78.586 E99.99443
G1 X123.228 Y78.791 E100.08393
G1 X123.887 Y79.04 E100.16002
G1 X124.807 Y79.548 E100.27352
G1 X138.451 Y88.665 E102.04577
G1 X139.013 Y89.089 E102.1218
G1 X139.523 Y89.573 E102.19773
G1 X140.209 Y90.434 E102.31663
G1 X140.636 Y91.153 E102.40694
G1 X140.924 Y91.796 E102.48303
G1 X141.137 Y92.467 E102.55906
G1 X141.321 Y93.502 E102.6726
G1 X141.361 Y94.374 E102.76687
G1 X141.306 Y95.163 E102.85229
G1 X141.446 Y95.672 E102.9093
G1 X141.773 Y96.358 E102.99138
G1 X142.042 Y97.153 E103.08202
G1 X143.974 Y106.867 E104.15168
G1 X144.073 Y107.577 E104.2291
G1 X144.149 Y108.519 E104.33117
G1 X144.169 Y109.086 E104.39244
G1 X144.094 Y115.89 E105.12732
G1 X144.046 Y116.593 E105.20342
G1 X143.919 Y117.285 E105.27941
G1 X143.718 Y117.946 E105.35402
G1 X143.851 Y118.189 E105.38394
G1 X144.237 Y119.189 E105.49971
G1 X144.441 Y120.04 E105.59422
G1 X144.527 Y120.739 E105.67028
G1 X144.533 Y121.443 E105.74631
G1 X144.414 Y122.425 E105.85315
G1 X144.209 Y123.228 E105.94265
G1 X143.96 Y123.887 E106.01873
G1 X143.452 Y124.807 E106.13223
G1 X134.335 Y138.451 E107.90448
G1 X133.911 Y139.013 E107.98052
G1 X133.427 Y139.523 E108.05645
G1 X132.566 Y140.209 E108.17534
G1 X131.847 Y140.636 E108.26566
G1 X131.204 Y140.924 E108.34175
G1 X130.142 Y141.231 E108.46114
G1 X129.327 Y141.348 E108.55006
G1 X128.484 Y141.363 E108.64112
G1 X123.48 Y141.111 E109.18224
G1 X120.955 Y141.111 E109.45494
G1 X120.419 Y141.088 E109.51288
G1 X120.004 Y141.052 E109.55787
G1 X119.505 Y141.108 E109.6121
G1 X119.301 Y141.163 E109.63492
G1 X103.636 Y144.278 E111.35986
G1 X102.978 Y144.438 E111.433
G1 X102.279 Y144.526 E111.50908
G1 X101.575 Y144.533 E111.58512
G1 X100.577 Y144.414 E111.69367
G1 X99.772 Y144.209 E111.78338
G1 X99.113 Y143.96 E111.85947
G1 X98.193 Y143.452 E111.97297
G1 X84.549 Y134.335 E113.74522
G1 X83.987 Y133.911 E113.82125
G1 X83.477 Y133.427 E113.89718
G1 X82.791 Y132.566 E114.01608
G1 X82.364 Y131.847 E114.10639
G1 X82.076 Y131.204 E114.18248
G1 X81.765 Y130.124 E114.30386
G1 X81.65 Y129.306 E114.39307
G1 X81.64 Y128.425 E114.48823
G1 X82.125 Y120.273 E115.3702
G1 X79.18 Y105.462 E117.0011
G1 X79.082 Y104.765 E117.07712
G1 X79.079 Y104.628 E117.09192
G1 X78.763 Y103.811 E117.18653
G1 X78.559 Y102.96 E117.28104
G1 X78.473 Y102.261 E117.3571
G1 X78.467 Y101.557 E117.43313
