;FLAVOR:UltiGCode
;TIME:10351
;MATERIAL:9743
;MATERIAL2:0
;NOZZLE_DIAMETER:0.4
;MINX:76.71
;MINY:47.901
;MINZ:0.27
;MAXX:146.29
;MAXY:173.105
;MAXZ:1.97
;Generated with Cura_SteamEngine main
M82 ;absolute extrusion mode
G0 F3000 Y50 ;avoid prime blob
G92 E0
G92 E0
G10
;LAYER_COUNT:18
;LAYER:0
M107
G0 F4320 X78.107 Y53.799 Z0.27
G0 X76.71 Y58.253
;TYPE:SKIRT
G11
G1 F1800 X76.75 Y57.464 E0.08532
G1 X76.869 Y56.684 E0.17054
G1 X77.067 Y55.919 E0.25588
G1 X77.341 Y55.179 E0.3411
G1 X77.689 Y54.47 E0.4264
G1 X78.107 Y53.799 E0.51178
G1 X78.59 Y53.175 E0.597
G1 X79.133 Y52.602 E0.68226
G1 X79.732 Y52.087 E0.76757
G1 X80.38 Y51.636 E0.85284
G1 X81.071 Y51.252 E0.93822
G1 X81.796 Y50.94 E1.02346
G1 X82.549 Y50.703 E1.10872
G1 X83.323 Y50.544 E1.19405
G1 X84.205 Y50.453 E1.28981
G1 X86.467 Y50.453 E1.53411
G1 X86.848 Y50.051 E1.59393
G1 X87.447 Y49.536 E1.67924
G1 X88.095 Y49.085 E1.76451
G1 X88.786 Y48.701 E1.84989
G1 X89.511 Y48.389 E1.93513
G1 X90.264 Y48.152 E2.02038
G1 X91.038 Y47.993 E2.10572
G1 X91.92 Y47.902 E2.20148
G1 X99.918 Y47.901 E3.06527
G1 X100.707 Y47.941 E3.15059
G1 X101.487 Y48.06 E3.2358
G1 X102.252 Y48.258 E3.32115
G1 X102.992 Y48.532 E3.40637
G1 X103.802 Y48.929 E3.50379
G1 X104.214 Y48.7 E3.5547
G1 X104.939 Y48.388 E3.63994
G1 X105.692 Y48.151 E3.7252
G1 X106.466 Y47.992 E3.81054
G1 X107.348 Y47.901 E3.9063
G1 X115.347 Y47.901 E4.77019
G1 X116.136 Y47.941 E4.85551
G1 X116.916 Y48.06 E4.94073
G1 X117.681 Y48.258 E5.02607
G1 X118.421 Y48.532 E5.11129
G1 X119.23 Y48.929 E5.20862
G1 X119.642 Y48.7 E5.25952
G1 X120.367 Y48.388 E5.34477
G1 X121.12 Y48.151 E5.43002
G1 X121.894 Y47.992 E5.51536
G1 X122.776 Y47.901 E5.61112
G1 X130.776 Y47.901 E6.47512
G1 X131.565 Y47.941 E6.56044
G1 X132.345 Y48.06 E6.64566
G1 X133.11 Y48.258 E6.731
G1 X133.85 Y48.532 E6.81622
G1 X134.559 Y48.88 E6.90152
G1 X135.23 Y49.298 E6.9869
G1 X135.854 Y49.781 E7.07212
G1 X136.563 Y50.453 E7.17762
G1 X138.49 Y50.453 E7.38574
G1 X139.279 Y50.493 E7.47106
G1 X140.059 Y50.612 E7.55628
G1 X140.824 Y50.81 E7.64162
G1 X141.564 Y51.084 E7.72684
G1 X142.273 Y51.432 E7.81214
G1 X142.944 Y51.85 E7.89752
G1 X143.568 Y52.333 E7.98274
G1 X144.141 Y52.876 E8.068
G1 X144.656 Y53.475 E8.15331
G1 X145.107 Y54.123 E8.23858
G1 X145.491 Y54.814 E8.32396
G1 X145.803 Y55.539 E8.4092
G1 X146.04 Y56.292 E8.49446
G1 X146.199 Y57.066 E8.57979
G1 X146.29 Y57.948 E8.67556
G1 X146.29 Y70.916 E10.0761
G1 X146.25 Y71.705 E10.16142
G1 X146.131 Y72.485 E10.24664
G1 X145.933 Y73.25 E10.33198
G1 X145.659 Y73.99 E10.4172
G1 X145.311 Y74.699 E10.5025
G1 X144.893 Y75.37 E10.58788
G1 X144.41 Y75.994 E10.6731
G1 X143.867 Y76.567 E10.75836
G1 X143.268 Y77.082 E10.84367
G1 X142.62 Y77.533 E10.92894
G1 X141.82 Y77.978 E11.0278
G1 X141.82 Y137.066 E17.40931
G1 X142.273 Y137.288 E17.46379
G1 X142.944 Y137.706 E17.54917
G1 X143.568 Y138.189 E17.63439
G1 X144.141 Y138.732 E17.71965
G1 X144.656 Y139.331 E17.80496
G1 X145.107 Y139.979 E17.89023
G1 X145.491 Y140.67 E17.97561
G1 X145.803 Y141.395 E18.06085
G1 X146.04 Y142.148 E18.14611
G1 X146.199 Y142.922 E18.23144
G1 X146.29 Y143.804 E18.32721
G1 X146.29 Y162.308 E20.32564
G1 X146.25 Y163.097 E20.41096
G1 X146.131 Y163.877 E20.49617
G1 X145.933 Y164.642 E20.58152
G1 X145.659 Y165.382 E20.66674
G1 X145.311 Y166.091 E20.75204
G1 X144.893 Y166.762 E20.83742
G1 X144.41 Y167.386 E20.92264
G1 X143.867 Y167.959 E21.0079
G1 X143.268 Y168.474 E21.09321
G1 X142.62 Y168.925 E21.17848
G1 X141.929 Y169.309 E21.26385
G1 X141.204 Y169.621 E21.3491
G1 X140.451 Y169.858 E21.43435
G1 X139.677 Y170.017 E21.51969
G1 X138.795 Y170.108 E21.61545
G1 X136.908 Y170.108 E21.81925
G1 X136.695 Y170.383 E21.85682
G1 X136.152 Y170.956 E21.94207
G1 X135.553 Y171.471 E22.02739
G1 X134.905 Y171.922 E22.11265
G1 X134.214 Y172.306 E22.19803
G1 X133.489 Y172.618 E22.28327
G1 X132.736 Y172.855 E22.36853
G1 X131.962 Y173.014 E22.45387
G1 X131.08 Y173.105 E22.54963
G1 X123.081 Y173.105 E23.41352
G1 X122.292 Y173.065 E23.49884
G1 X121.512 Y172.946 E23.58406
G1 X120.747 Y172.748 E23.6694
G1 X120.007 Y172.474 E23.75462
G1 X119.198 Y172.077 E23.85195
G1 X118.786 Y172.306 E23.90285
G1 X118.061 Y172.618 E23.9881
G1 X117.308 Y172.855 E24.07335
G1 X116.534 Y173.014 E24.15869
G1 X115.652 Y173.105 E24.25445
G1 X107.653 Y173.105 E25.11835
G1 X106.864 Y173.065 E25.20367
G1 X106.084 Y172.946 E25.28888
G1 X105.319 Y172.748 E25.37422
G1 X104.579 Y172.474 E25.45945
G1 X103.77 Y172.077 E25.55677
G1 X103.358 Y172.306 E25.60768
G1 X102.633 Y172.618 E25.69292
G1 X101.88 Y172.855 E25.77818
G1 X101.106 Y173.014 E25.86352
G1 X100.224 Y173.105 E25.95928
G1 X92.224 Y173.105 E26.82328
G1 X91.435 Y173.065 E26.9086
G1 X90.655 Y172.946 E26.99381
G1 X89.89 Y172.748 E27.07916
G1 X89.15 Y172.474 E27.16438
G1 X88.441 Y172.126 E27.24968
G1 X87.77 Y171.708 E27.33506
G1 X87.146 Y171.225 E27.42028
G1 X86.573 Y170.682 E27.50554
G1 X86.08 Y170.108 E27.58725
G1 X84.509 Y170.108 E27.75692
G1 X83.72 Y170.068 E27.84224
G1 X82.94 Y169.948 E27.92748
G1 X82.175 Y169.75 E28.01282
G1 X81.435 Y169.476 E28.09804
G1 X80.726 Y169.128 E28.18334
G1 X80.055 Y168.711 E28.26866
G1 X79.431 Y168.228 E28.35388
G1 X78.858 Y167.684 E28.43921
G1 X78.344 Y167.085 E28.52446
G1 X77.892 Y166.437 E28.60979
G1 X77.509 Y165.747 E28.69502
G1 X77.197 Y165.021 E28.78036
G1 X76.96 Y164.268 E28.86562
G1 X76.801 Y163.494 E28.95095
G1 X76.71 Y162.612 E29.04671
G1 X76.71 Y141.993 E31.27357
G1 X76.75 Y141.204 E31.35889
G1 X76.869 Y140.424 E31.4441
G1 X77.067 Y139.659 E31.52945
G1 X77.341 Y138.919 E31.61467
G1 X77.689 Y138.21 E31.69997
G1 X78.107 Y137.539 E31.78535
G1 X78.59 Y136.915 E31.87057
G1 X79.133 Y136.342 E31.95582
G1 X79.732 Y135.827 E32.04114
G1 X80.38 Y135.376 E32.1264
G1 X80.994 Y135.035 E32.20226
G1 X80.994 Y86.019 E37.49599
G1 X80.056 Y85.435 E37.61532
G1 X79.432 Y84.952 E37.70054
G1 X78.859 Y84.409 E37.7858
G1 X78.344 Y83.81 E37.87111
G1 X77.893 Y83.162 E37.95638
G1 X77.509 Y82.471 E38.04176
G1 X77.197 Y81.746 E38.127
G1 X76.96 Y80.993 E38.21226
G1 X76.801 Y80.219 E38.29759
G1 X76.71 Y79.337 E38.39335
G1 X76.71 Y58.253 E40.67043
G0 F4320 X77.11 Y58.253
G1 F1800 X77.15 Y57.485 E40.75348
G1 X77.269 Y56.725 E40.83656
G1 X77.467 Y55.982 E40.91961
G1 X77.741 Y55.263 E41.00271
G1 X78.088 Y54.577 E41.08573
G1 X78.504 Y53.93 E41.16881
G1 X78.985 Y53.33 E41.25186
G1 X79.526 Y52.783 E41.33495
G1 X80.121 Y52.295 E41.41806
G1 X80.763 Y51.872 E41.50109
G1 X81.446 Y51.517 E41.58422
G1 X82.161 Y51.236 E41.66719
G1 X82.903 Y51.03 E41.75036
G1 X83.661 Y50.902 E41.83338
G1 X84.509 Y50.853 E41.92512
G1 X86.627 Y50.853 E42.15386
G1 X87.241 Y50.232 E42.24818
G1 X87.836 Y49.744 E42.33129
G1 X88.478 Y49.321 E42.41432
G1 X89.161 Y48.966 E42.49745
G1 X89.876 Y48.685 E42.58042
G1 X90.618 Y48.479 E42.66359
G1 X91.376 Y48.351 E42.74661
G1 X92.224 Y48.302 E42.83835
G1 X99.918 Y48.301 E43.6693
G1 X100.686 Y48.341 E43.75236
G1 X101.446 Y48.46 E43.83544
G1 X102.189 Y48.658 E43.91848
G1 X102.908 Y48.932 E44.00158
G1 X103.794 Y49.378 E44.10871
G1 X104.589 Y48.965 E44.20546
G1 X105.304 Y48.684 E44.28843
G1 X106.046 Y48.478 E44.3716
G1 X106.804 Y48.35 E44.45462
G1 X107.653 Y48.301 E44.54647
G1 X115.347 Y48.301 E45.37742
G1 X116.115 Y48.341 E45.46048
G1 X116.875 Y48.46 E45.54356
G1 X117.618 Y48.658 E45.6266
G1 X118.337 Y48.932 E45.7097
G1 X119.221 Y49.379 E45.81668
G1 X120.017 Y48.965 E45.91358
G1 X120.732 Y48.684 E45.99655
G1 X121.474 Y48.478 E46.07972
G1 X122.232 Y48.35 E46.16274
G1 X123.081 Y48.301 E46.25459
G1 X130.776 Y48.301 E47.08565
G1 X131.544 Y48.341 E47.16871
G1 X132.304 Y48.46 E47.25179
G1 X133.047 Y48.658 E47.33483
G1 X133.766 Y48.932 E47.41793
G1 X134.452 Y49.279 E47.50096
G1 X135.099 Y49.695 E47.58403
G1 X135.699 Y50.176 E47.66708
G1 X136.384 Y50.853 E47.7711
G1 X138.49 Y50.853 E47.99854
G1 X139.258 Y50.893 E48.0816
G1 X140.018 Y51.012 E48.16468
G1 X140.761 Y51.21 E48.24772
G1 X141.48 Y51.484 E48.33082
G1 X142.166 Y51.831 E48.41385
G1 X142.813 Y52.247 E48.49692
G1 X143.413 Y52.728 E48.57998
G1 X143.96 Y53.269 E48.66307
G1 X144.448 Y53.864 E48.74617
G1 X144.871 Y54.506 E48.82921
G1 X145.226 Y55.189 E48.91234
G1 X145.507 Y55.904 E48.99531
G1 X145.713 Y56.646 E49.07848
G1 X145.841 Y57.404 E49.1615
G1 X145.89 Y58.253 E49.25334
G1 X145.89 Y70.916 E50.62095
G1 X145.85 Y71.684 E50.70401
G1 X145.731 Y72.444 E50.78709
G1 X145.533 Y73.187 E50.87013
G1 X145.259 Y73.906 E50.95323
G1 X144.912 Y74.592 E51.03626
G1 X144.496 Y75.239 E51.11933
G1 X144.015 Y75.839 E51.20238
G1 X143.474 Y76.386 E51.28547
G1 X142.879 Y76.874 E51.36858
G1 X142.237 Y77.297 E51.45161
G1 X141.42 Y77.722 E51.55107
G1 X141.42 Y137.31 E57.98658
G1 X142.166 Y137.687 E58.07685
G1 X142.813 Y138.103 E58.15992
G1 X143.413 Y138.584 E58.24297
G1 X143.96 Y139.125 E58.32606
G1 X144.448 Y139.72 E58.40917
G1 X144.871 Y140.362 E58.49221
G1 X145.226 Y141.045 E58.57534
G1 X145.507 Y141.76 E58.65831
G1 X145.713 Y142.502 E58.74147
G1 X145.841 Y143.26 E58.8245
G1 X145.89 Y144.109 E58.91634
G1 X145.89 Y162.308 E60.88183
G1 X145.85 Y163.076 E60.96489
G1 X145.731 Y163.836 E61.04797
G1 X145.533 Y164.579 E61.13101
G1 X145.259 Y165.298 E61.21411
G1 X144.912 Y165.984 E61.29714
G1 X144.496 Y166.631 E61.38021
G1 X144.015 Y167.231 E61.46327
G1 X143.474 Y167.778 E61.54636
G1 X142.879 Y168.266 E61.62946
G1 X142.237 Y168.689 E61.7125
G1 X141.554 Y169.044 E61.79563
G1 X140.839 Y169.325 E61.8786
G1 X140.097 Y169.531 E61.96177
G1 X139.339 Y169.659 E62.04479
G1 X138.49 Y169.708 E62.13663
G1 X136.717 Y169.708 E62.32812
G1 X136.3 Y170.228 E62.40011
G1 X135.759 Y170.775 E62.4832
G1 X135.164 Y171.263 E62.5663
G1 X134.522 Y171.686 E62.64934
G1 X133.839 Y172.041 E62.73247
G1 X133.124 Y172.322 E62.81544
G1 X132.382 Y172.528 E62.89861
G1 X131.624 Y172.656 E62.98163
G1 X130.775 Y172.705 E63.07347
G1 X123.081 Y172.705 E63.90443
G1 X122.313 Y172.665 E63.98748
G1 X121.553 Y172.546 E64.07056
G1 X120.81 Y172.348 E64.15361
G1 X120.091 Y172.074 E64.23671
G1 X119.207 Y171.627 E64.34369
G1 X118.411 Y172.041 E64.44059
G1 X117.696 Y172.322 E64.52356
G1 X116.954 Y172.528 E64.60673
G1 X116.196 Y172.656 E64.68975
G1 X115.347 Y172.705 E64.78159
G1 X107.653 Y172.705 E65.61255
G1 X106.885 Y172.665 E65.6956
G1 X106.125 Y172.546 E65.77868
G1 X105.382 Y172.348 E65.86173
G1 X104.663 Y172.074 E65.94483
G1 X103.779 Y171.627 E66.05181
G1 X102.983 Y172.041 E66.14871
G1 X102.268 Y172.322 E66.23168
G1 X101.526 Y172.528 E66.31485
G1 X100.768 Y172.656 E66.39787
G1 X99.919 Y172.705 E66.48971
G1 X92.224 Y172.705 E67.32077
G1 X91.456 Y172.665 E67.40383
G1 X90.696 Y172.546 E67.48691
G1 X89.953 Y172.348 E67.56996
G1 X89.234 Y172.074 E67.65305
G1 X88.548 Y171.727 E67.73608
G1 X87.901 Y171.311 E67.81916
G1 X87.301 Y170.83 E67.90221
G1 X86.754 Y170.289 E67.9853
G1 X86.278 Y169.708 E68.06641
G1 X84.509 Y169.708 E68.25747
G1 X83.741 Y169.668 E68.34052
G1 X82.981 Y169.548 E68.42362
G1 X82.238 Y169.351 E68.50664
G1 X81.519 Y169.077 E68.58974
G1 X80.833 Y168.73 E68.67276
G1 X80.186 Y168.313 E68.75589
G1 X79.586 Y167.832 E68.83895
G1 X79.039 Y167.291 E68.92204
G1 X78.552 Y166.696 E69.00508
G1 X78.128 Y166.054 E69.08817
G1 X77.774 Y165.371 E69.17125
G1 X77.492 Y164.656 E69.25426
G1 X77.286 Y163.915 E69.33732
G1 X77.159 Y163.156 E69.42044
G1 X77.11 Y162.308 E69.51217
G1 X77.11 Y141.993 E71.70619
G1 X77.15 Y141.225 E71.78925
G1 X77.269 Y140.465 E71.87233
G1 X77.467 Y139.722 E71.95537
G1 X77.741 Y139.003 E72.03847
G1 X78.088 Y138.317 E72.1215
G1 X78.504 Y137.67 E72.20457
G1 X78.985 Y137.07 E72.28762
G1 X79.526 Y136.523 E72.37071
G1 X80.121 Y136.035 E72.45382
G1 X80.763 Y135.612 E72.53686
G1 X81.394 Y135.284 E72.61366
G1 X81.394 Y85.737 E77.96474
G1 X80.834 Y85.454 E78.0325
G1 X80.187 Y85.038 E78.11557
G1 X79.587 Y84.557 E78.19863
G1 X79.04 Y84.016 E78.28172
G1 X78.552 Y83.421 E78.36482
G1 X78.129 Y82.779 E78.44786
G1 X77.774 Y82.096 E78.53099
G1 X77.493 Y81.381 E78.61396
G1 X77.287 Y80.639 E78.69713
G1 X77.159 Y79.881 E78.78015
G1 X77.11 Y79.032 E78.87199
G1 X77.11 Y58.253 E81.11613
G0 F4320 X77.51 Y58.253
G1 F1800 X77.55 Y57.506 E81.19692
G1 X77.669 Y56.768 E81.27765
G1 X77.867 Y56.046 E81.35851
G1 X78.14 Y55.35 E81.43925
G1 X78.487 Y54.687 E81.52007
G1 X78.902 Y54.064 E81.60091
G1 X79.381 Y53.49 E81.68166
G1 X79.918 Y52.969 E81.76246
G1 X80.508 Y52.51 E81.84319
G1 X81.144 Y52.115 E81.92405
G1 X81.818 Y51.791 E82.00482
G1 X82.523 Y51.541 E82.0856
G1 X83.251 Y51.367 E82.16644
G1 X83.993 Y51.272 E82.24723
G1 X84.509 Y51.253 E82.303
G1 X86.834 Y51.253 E82.5541
G1 X87.096 Y50.939 E82.59826
G1 X87.633 Y50.418 E82.67907
G1 X88.223 Y49.959 E82.7598
G1 X88.859 Y49.564 E82.84066
G1 X89.533 Y49.24 E82.92142
G1 X90.238 Y48.99 E83.00221
G1 X90.966 Y48.816 E83.08305
G1 X91.708 Y48.721 E83.16384
G1 X92.224 Y48.702 E83.2196
G1 X99.918 Y48.701 E84.05056
G1 X100.665 Y48.741 E84.13135
G1 X101.404 Y48.86 E84.21219
G1 X102.125 Y49.058 E84.29294
G1 X102.821 Y49.331 E84.37368
G1 X103.485 Y49.677 E84.45455
G1 X103.783 Y49.876 E84.49325
G1 X104.287 Y49.563 E84.55732
G1 X104.961 Y49.239 E84.63809
G1 X105.666 Y48.989 E84.71887
G1 X106.394 Y48.815 E84.79971
G1 X107.136 Y48.72 E84.8805
G1 X107.653 Y48.701 E84.93637
G1 X115.347 Y48.701 E85.76733
G1 X116.094 Y48.741 E85.84812
G1 X116.832 Y48.86 E85.92885
G1 X117.554 Y49.058 E86.00971
G1 X118.25 Y49.331 E86.09045
G1 X118.913 Y49.678 E86.17127
G1 X119.211 Y49.876 E86.20991
G1 X119.715 Y49.563 E86.27398
G1 X120.389 Y49.239 E86.35475
G1 X121.094 Y48.989 E86.43554
G1 X121.822 Y48.815 E86.51637
G1 X122.564 Y48.72 E86.59716
G1 X123.081 Y48.701 E86.65304
G1 X130.776 Y48.701 E87.4841
G1 X131.523 Y48.741 E87.56489
G1 X132.261 Y48.86 E87.64562
G1 X132.983 Y49.058 E87.72648
G1 X133.679 Y49.331 E87.80722
G1 X134.342 Y49.678 E87.88804
G1 X134.965 Y50.093 E87.96888
G1 X135.539 Y50.572 E88.04963
G1 X136.2 Y51.253 E88.15212
G1 X138.49 Y51.253 E88.39944
G1 X139.237 Y51.293 E88.48023
G1 X139.975 Y51.412 E88.56097
G1 X140.697 Y51.61 E88.64182
G1 X141.393 Y51.883 E88.72257
G1 X142.056 Y52.23 E88.80338
G1 X142.679 Y52.645 E88.88423
G1 X143.253 Y53.124 E88.96497
G1 X143.774 Y53.661 E89.04578
G1 X144.233 Y54.251 E89.12651
G1 X144.628 Y54.887 E89.20737
G1 X144.952 Y55.561 E89.28813
G1 X145.202 Y56.266 E89.36892
G1 X145.376 Y56.994 E89.44976
G1 X145.471 Y57.736 E89.53055
G1 X145.49 Y58.253 E89.58642
G1 X145.49 Y70.916 E90.95402
G1 X145.45 Y71.663 E91.03482
G1 X145.331 Y72.401 E91.11555
G1 X145.133 Y73.123 E91.1964
G1 X144.86 Y73.819 E91.27715
G1 X144.513 Y74.482 E91.35797
G1 X144.098 Y75.105 E91.43881
G1 X143.619 Y75.679 E91.51955
G1 X143.082 Y76.2 E91.60036
G1 X142.492 Y76.659 E91.68109
G1 X141.856 Y77.054 E91.76195
G1 X141.02 Y77.456 E91.86213
G1 X141.02 Y137.593 E98.35693
G1 X141.393 Y137.739 E98.40019
G1 X142.056 Y138.086 E98.48101
G1 X142.679 Y138.501 E98.56185
G1 X143.253 Y138.98 E98.64259
G1 X143.774 Y139.517 E98.7234
G1 X144.233 Y140.107 E98.80413
G1 X144.628 Y140.743 E98.88499
G1 X144.952 Y141.417 E98.96576
G1 X145.202 Y142.122 E99.04654
G1 X145.376 Y142.85 E99.12738
G1 X145.471 Y143.592 E99.20817
G1 X145.49 Y144.109 E99.26404
G1 X145.49 Y162.308 E101.22954
G1 X145.45 Y163.055 E101.31033
G1 X145.331 Y163.793 E101.39106
G1 X145.133 Y164.515 E101.47192
G1 X144.86 Y165.211 E101.55266
G1 X144.513 Y165.874 E101.63348
G1 X144.098 Y166.497 E101.71432
G1 X143.619 Y167.071 E101.79506
G1 X143.082 Y167.592 E101.87587
G1 X142.492 Y168.051 E101.9566
G1 X141.856 Y168.446 E102.03746
G1 X141.182 Y168.77 E102.11823
G1 X140.477 Y169.02 E102.19901
G1 X139.749 Y169.194 E102.27985
G1 X139.007 Y169.289 E102.36064
G1 X138.49 Y169.308 E102.41651
G1 X136.538 Y169.308 E102.62733
G1 X135.904 Y170.068 E102.73422
G1 X135.367 Y170.589 E102.81503
G1 X134.777 Y171.048 E102.89576
G1 X134.141 Y171.443 E102.97661
G1 X133.467 Y171.767 E103.05738
G1 X132.762 Y172.017 E103.13817
G1 X132.034 Y172.191 E103.219
G1 X131.292 Y172.286 E103.29979
G1 X130.775 Y172.305 E103.35567
G1 X123.081 Y172.305 E104.18662
G1 X122.334 Y172.265 E104.26741
G1 X121.596 Y172.146 E104.34815
G1 X120.874 Y171.948 E104.429
G1 X120.178 Y171.675 E104.50974
G1 X119.515 Y171.328 E104.59056
G1 X119.217 Y171.13 E104.6292
G1 X118.713 Y171.443 E104.69328
G1 X118.039 Y171.767 E104.77404
G1 X117.334 Y172.017 E104.85483
