;FLAVOR:UltiGCode
;TIME:5740
;MATERIAL:5550
;MATERIAL2:0
;NOZZLE_DIAMETER:0.4
;MINX:74.25
;MINY:74.226
;MINZ:0.27
;MAXX:148.764
;MAXY:148.774
;MAXZ:2.97
;Generated with Cura_SteamEngine main
M82 ;absolute extrusion mode
G0 F3000 Y50 ;avoid prime blob
G92 E0
G92 E0
G10
;LAYER_COUNT:28
;LAYER:0
M107
G0 F4320 X86.023 Y84.31 Z0.27
G0 X81.617 Y89.248
;TYPE:SKIRT
G11
G1 F1800 X82.027 Y88.694 E0.07444
G1 X83.127 Y87.337 E0.26309
G1 X83.59 Y86.816 E0.33837
G1 X86.023 Y84.31 E0.71559
G1 X86.705 Y83.685 E0.8155
G1 X89.421 Y81.482 E1.19319
G1 X89.978 Y81.07 E1.26801
G1 X91.426 Y80.095 E1.45654
G1 X92.015 Y79.735 E1.5311
G1 X95.075 Y78.047 E1.90852
G1 X95.91 Y77.65 E2.00838
G1 X99.15 Y76.335 E2.38602
G1 X99.811 Y76.1 E2.46178
G1 X101.479 Y75.592 E2.6501
G1 X102.143 Y75.422 E2.72412
G1 X105.565 Y74.701 E3.10181
G1 X106.481 Y74.564 E3.20184
G1 X109.961 Y74.254 E3.57917
G1 X110.885 Y74.226 E3.67901
G1 X114.375 Y74.33 E4.05609
G1 X115.294 Y74.412 E4.15574
G1 X118.751 Y74.928 E4.53323
G1 X119.654 Y75.118 E4.63289
G1 X123.025 Y76.038 E5.01028
G1 X123.904 Y76.335 E5.11048
G1 X127.14 Y77.648 E5.48764
G1 X127.974 Y78.046 E5.58744
G1 X131.036 Y79.735 E5.96511
G1 X131.626 Y80.095 E6.03976
G1 X133.074 Y81.07 E6.22829
G1 X133.63 Y81.482 E6.30303
G1 X136.345 Y83.684 E6.68056
G1 X136.869 Y84.149 E6.75623
G1 X138.121 Y85.366 E6.9448
G1 X138.592 Y85.866 E7.01898
G1 X140.873 Y88.512 E7.39628
G1 X141.434 Y89.246 E7.49605
G1 X143.386 Y92.143 E7.87332
G1 X143.855 Y92.938 E7.97301
G1 X145.453 Y96.049 E8.35073
G1 X145.827 Y96.898 E8.45093
G1 X147.042 Y100.171 E8.82798
G1 X147.311 Y101.053 E8.92757
G1 X148.132 Y104.448 E9.3048
G1 X148.296 Y105.359 E9.40477
G1 X148.709 Y108.829 E9.78217
G1 X148.764 Y109.751 E9.88192
G1 X148.764 Y113.246 E10.25938
G1 X148.709 Y114.167 E10.35903
G1 X148.296 Y117.639 E10.73665
G1 X148.133 Y118.549 E10.83649
G1 X147.313 Y121.945 E11.2138
G1 X147.042 Y122.832 E11.31397
G1 X145.825 Y126.105 E11.6911
G1 X145.453 Y126.949 E11.79071
G1 X143.857 Y130.058 E12.16814
G1 X143.503 Y130.677 E12.24515
G1 X142.406 Y132.405 E12.46621
G1 X141.307 Y133.938 E12.66992
G1 X140.876 Y134.486 E12.74522
G1 X138.595 Y137.133 E13.12259
G1 X138.116 Y137.641 E13.198
G1 X136.861 Y138.858 E13.3868
G1 X136.345 Y139.315 E13.46125
G1 X133.631 Y141.517 E13.8387
G1 X133.075 Y141.929 E13.91344
G1 X131.626 Y142.905 E14.10212
G1 X131.036 Y143.266 E14.17682
G1 X127.978 Y144.953 E14.554
G1 X127.14 Y145.352 E14.65424
G1 X123.901 Y146.665 E15.03171
G1 X123.027 Y146.96 E15.13133
G1 X119.656 Y147.881 E15.50874
G1 X118.751 Y148.072 E15.60863
G1 X115.294 Y148.588 E15.98613
G1 X114.375 Y148.67 E16.08577
G1 X110.885 Y148.774 E16.46286
G1 X109.961 Y148.746 E16.5627
G1 X106.481 Y148.436 E16.94003
G1 X105.569 Y148.3 E17.03961
G1 X102.148 Y147.581 E17.41715
G1 X101.253 Y147.337 E17.51734
G1 X97.942 Y146.217 E17.89483
G1 X97.295 Y145.965 E17.96982
G1 X95.698 Y145.261 E18.15831
G1 X95.076 Y144.953 E18.23327
G1 X92.015 Y143.264 E18.61085
G1 X91.425 Y142.904 E18.68549
G1 X89.976 Y141.928 E18.87417
G1 X89.422 Y141.518 E18.94861
G1 X86.707 Y139.317 E19.32608
G1 X86.022 Y138.69 E19.42637
G1 X83.588 Y136.182 E19.80382
G1 X82.984 Y135.482 E19.90367
G1 X80.865 Y132.705 E20.28093
G1 X80.47 Y132.137 E20.35565
G1 X79.537 Y130.659 E20.54442
G1 X79.194 Y130.058 E20.61915
G1 X77.598 Y126.95 E20.99648
G1 X77.225 Y126.102 E21.09654
G1 X76.009 Y122.827 E21.47383
G1 X75.796 Y122.166 E21.54883
G1 X75.336 Y120.481 E21.73747
G1 X75.184 Y119.805 E21.8123
G1 X74.566 Y116.363 E22.18998
G1 X74.457 Y115.448 E22.2895
G1 X74.25 Y111.965 E22.66633
G1 X74.25 Y111.04 E22.76623
G1 X74.457 Y107.553 E23.14349
G1 X74.566 Y106.634 E23.24344
G1 X75.185 Y103.192 E23.62114
G1 X75.401 Y102.297 E23.72057
G1 X76.42 Y98.956 E24.09781
G1 X76.743 Y98.087 E24.19794
G1 X78.152 Y94.889 E24.57536
G1 X78.459 Y94.268 E24.65017
G1 X79.302 Y92.739 E24.83874
G1 X79.664 Y92.147 E24.91368
G1 X81.617 Y89.248 E25.29119
G10
G0 F4320 X80.444 Y95.64
G11
G1 F1800 X81.522 Y93.684 E25.5324
G1 X83.737 Y90.396 E25.96056
G1 X85.145 Y88.659 E26.20205
G1 X87.745 Y85.981 E26.60516
G1 X88.217 Y85.549 E26.67427
G1 X91.115 Y83.198 E27.07729
G1 X92.964 Y81.953 E27.31803
G1 X96.235 Y80.149 E27.72146
G1 X96.812 Y79.873 E27.79054
G1 X100.275 Y78.468 E28.19416
G1 X102.403 Y77.82 E28.4344
G1 X106.06 Y77.049 E28.83804
G1 X106.694 Y76.954 E28.90727
G1 X110.174 Y76.644 E29.2846
G1 X110.814 Y76.625 E29.35375
G1 X114.304 Y76.729 E29.73084
G1 X114.94 Y76.786 E29.7998
G1 X118.397 Y77.302 E30.1773
G1 X119.022 Y77.434 E30.24628
G1 X122.393 Y78.354 E30.62367
G1 X123.001 Y78.559 E30.69296
G1 X126.237 Y79.872 E31.07012
G1 X126.815 Y80.148 E31.1393
G1 X130.088 Y81.953 E31.54297
G1 X131.937 Y83.198 E31.78371
G1 X135.02 Y85.699 E32.21246
G1 X136.619 Y87.253 E32.45327
G1 X139.055 Y90.079 E32.85622
G1 X139.443 Y90.588 E32.92534
G1 X141.395 Y93.485 E33.30262
G1 X141.72 Y94.035 E33.37161
G1 X143.318 Y97.146 E33.74933
G1 X143.577 Y97.734 E33.81872
G1 X144.792 Y101.007 E34.19578
G1 X144.979 Y101.617 E34.26468
G1 X145.8 Y105.012 E34.64191
G1 X145.913 Y105.643 E34.71114
G1 X146.326 Y109.113 E35.08855
G1 X146.364 Y109.751 E35.15758
G1 X146.364 Y113.246 E35.53504
G1 X146.326 Y113.884 E35.60406
G1 X145.913 Y117.356 E35.98168
G1 X145.8 Y117.985 E36.0507
G1 X144.98 Y121.381 E36.42801
G1 X144.792 Y121.996 E36.49746
G1 X143.575 Y125.269 E36.87459
G1 X143.318 Y125.853 E36.9435
G1 X141.609 Y129.181 E37.34755
G1 X140.416 Y131.062 E37.58811
G1 X139.214 Y132.738 E37.81085
G1 X136.619 Y135.749 E38.24015
G1 X135.024 Y137.296 E38.48012
G1 X131.925 Y139.81 E38.9111
G1 X130.093 Y141.044 E39.14965
G1 X126.818 Y142.851 E39.55362
G1 X126.239 Y143.127 E39.62289
G1 X123 Y144.44 E40.00035
G1 X122.394 Y144.645 E40.06944
G1 X119.023 Y145.566 E40.44686
G1 X118.397 Y145.698 E40.51595
G1 X114.94 Y146.214 E40.89344
G1 X114.304 Y146.271 E40.96241
G1 X110.814 Y146.375 E41.33949
G1 X110.174 Y146.356 E41.40864
G1 X106.694 Y146.046 E41.78597
G1 X106.062 Y145.952 E41.85498
G1 X102.641 Y145.233 E42.23252
G1 X102.022 Y145.063 E42.30185
G1 X98.482 Y143.865 E42.70547
G1 X96.442 Y142.966 E42.94623
G1 X92.962 Y141.046 E43.37548
G1 X91.118 Y139.804 E43.61559
G1 X88.218 Y137.453 E44.01878
G1 X87.744 Y137.019 E44.08819
G1 X85.31 Y134.511 E44.46564
G1 X84.892 Y134.026 E44.53479
G1 X82.629 Y131.06 E44.93771
G1 X81.436 Y129.171 E45.179
G1 X79.733 Y125.854 E45.58169
G1 X79.475 Y125.267 E45.65094
G1 X78.176 Y121.768 E46.05404
G1 X77.588 Y119.614 E46.29518
G1 X76.928 Y115.939 E46.69843
G1 X76.853 Y115.305 E46.76738
G1 X76.646 Y111.822 E47.14421
G1 X76.645 Y111.182 E47.21333
G1 X76.852 Y107.695 E47.59059
G1 X76.928 Y107.059 E47.65976
G1 X77.547 Y103.617 E48.03746
G1 X77.697 Y102.998 E48.10625
G1 X78.716 Y99.657 E48.48349
G1 X78.939 Y99.055 E48.55282
G1 X80.444 Y95.64 E48.95587
G10
G0 F4320 X79.936 Y99.77
G11
G1 F1800 X81.525 Y96.163 E49.38155
G1 X82.545 Y94.314 E49.60961
G1 X84.709 Y91.102 E50.02789
G1 X86.038 Y89.462 E50.25587
G1 X88.781 Y86.637 E50.68113
G1 X91.834 Y84.16 E51.10572
G1 X93.594 Y82.975 E51.33487
G1 X97.029 Y81.08 E51.75856
G1 X100.68 Y79.598 E52.18412
G1 X102.704 Y78.982 E52.41261
G1 X106.546 Y78.173 E52.83664
G1 X110.531 Y77.818 E53.26873
G1 X114.518 Y77.936 E53.69951
G1 X118.468 Y78.526 E54.13084
G1 X122.317 Y79.577 E54.56176
G1 X126.021 Y81.079 E54.99343
G1 X129.458 Y82.975 E55.41736
G1 X131.218 Y84.16 E55.6465
G1 X134.222 Y86.597 E56.06427
G1 X135.742 Y88.074 E56.29317
G1 X138.31 Y91.054 E56.71802
G1 X140.539 Y94.362 E57.14882
G1 X142.364 Y97.914 E57.58011
G1 X143.753 Y101.657 E58.01129
G1 X144.693 Y105.543 E58.44308
G1 X145.164 Y109.499 E58.87335
G1 X145.164 Y113.498 E59.30524
G1 X144.693 Y117.461 E59.73626
G1 X143.755 Y121.344 E60.16768
G1 X142.367 Y125.077 E60.59781
G1 X140.564 Y128.59 E61.02427
G1 X139.419 Y130.393 E61.25494
G1 X138.271 Y131.994 E61.46771
G1 X135.748 Y134.922 E61.88513
G1 X134.22 Y136.404 E62.11503
G1 X131.226 Y138.834 E62.53148
G1 X129.449 Y140.03 E62.76281
G1 X126.026 Y141.919 E63.18505
G1 X122.312 Y143.424 E63.61785
G1 X118.471 Y144.474 E64.0479
G1 X114.518 Y145.064 E64.47955
G1 X110.531 Y145.182 E64.91033
G1 X106.55 Y144.828 E65.34198
G1 X102.638 Y144.005 E65.77372
G1 X98.925 Y142.75 E66.19701
G1 X96.979 Y141.892 E66.4267
G1 X93.594 Y140.023 E66.84431
G1 X91.825 Y138.832 E67.07462
G1 X88.974 Y136.521 E67.47098
G1 X88.605 Y136.183 E67.52503
G1 X85.997 Y133.495 E67.92952
G1 X83.612 Y130.371 E68.35399
G1 X82.484 Y128.583 E68.58231
G1 X80.688 Y125.086 E69.00689
G1 X79.317 Y121.393 E69.43233
G1 X78.76 Y119.355 E69.66051
G1 X78.065 Y115.48 E70.08568
G1 X77.828 Y111.502 E70.51607
G1 X78.065 Y107.518 E70.9471
G1 X78.771 Y103.59 E71.37812
G1 X79.936 Y99.77 E71.80944
G10
G0 F4320 X79.162 Y103.676
G11
G1 F1800 X80.31 Y99.914 E72.23424
G1 X81.885 Y96.339 E72.65614
G1 X82.886 Y94.523 E72.88009
G1 X85.027 Y91.345 E73.29394
G1 X86.338 Y89.727 E73.51885
G1 X89.052 Y86.932 E73.9396
G1 X92.071 Y84.484 E74.35937
G1 X93.798 Y83.321 E74.58424
G1 X97.208 Y81.44 E75.00483
G1 X100.811 Y79.977 E75.42481
G1 X102.801 Y79.371 E75.64948
G1 X106.614 Y78.568 E76.07031
G1 X110.538 Y78.218 E76.49579
G1 X114.481 Y78.336 E76.92182
G1 X118.386 Y78.919 E77.34824
G1 X122.19 Y79.957 E77.77409
G1 X125.841 Y81.438 E78.1996
G1 X129.254 Y83.321 E78.62059
G1 X130.981 Y84.484 E78.84545
G1 X133.962 Y86.901 E79.25993
G1 X135.448 Y88.346 E79.48378
G1 X137.989 Y91.293 E79.90403
G1 X140.195 Y94.568 E80.33049
G1 X141.997 Y98.076 E80.75642
G1 X143.373 Y101.782 E81.18336
G1 X144.297 Y105.601 E81.60771
G1 X144.764 Y109.529 E82.03493
G1 X144.764 Y113.468 E82.46034
G1 X144.297 Y117.395 E82.88744
G1 X143.372 Y121.226 E83.31308
G1 X141.997 Y124.923 E83.73908
G1 X140.22 Y128.385 E84.15935
G1 X139.147 Y130.075 E84.37555
G1 X137.955 Y131.749 E84.59749
G1 X135.46 Y134.644 E85.01025
G1 X133.954 Y136.105 E85.23686
G1 X130.977 Y138.52 E85.65086
G1 X129.254 Y139.68 E85.87519
G1 X125.844 Y141.562 E86.29583
G1 X122.19 Y143.043 E86.72165
G1 X118.391 Y144.081 E87.14698
G1 X114.481 Y144.664 E87.57393
G1 X110.538 Y144.782 E87.99996
G1 X106.609 Y144.432 E88.42597
G1 X102.748 Y143.62 E88.85208
G1 X99.068 Y142.376 E89.27162
G1 X97.156 Y141.532 E89.49734
G1 X93.797 Y139.679 E89.91165
G1 X92.073 Y138.518 E90.13612
G1 X89.052 Y136.069 E90.55613
G1 X86.3 Y133.233 E90.98292
G1 X83.946 Y130.148 E91.40202
G1 X82.829 Y128.378 E91.62806
G1 X81.054 Y124.922 E92.04766
G1 X79.698 Y121.272 E92.46819
G1 X79.151 Y119.268 E92.69254
G1 X78.463 Y115.437 E93.1129
G1 X78.23 Y111.502 E93.53863
G1 X78.464 Y107.561 E93.965
G1 X79.162 Y103.676 E94.3913
G10
G0 F4320 X78.861 Y107.614
G11
G1 F1800 X79.552 Y103.772 E94.8129
G1 X80.687 Y100.049 E95.23325
G1 X82.24 Y96.523 E95.64936
G1 X83.232 Y94.726 E95.87104
G1 X85.346 Y91.587 E96.27977
G1 X86.638 Y89.993 E96.50137
G1 X89.327 Y87.224 E96.91822
G1 X92.305 Y84.808 E97.33238
G1 X94.009 Y83.661 E97.55422
G1 X97.377 Y81.803 E97.96964
G1 X100.955 Y80.351 E98.38667
G1 X102.897 Y79.759 E98.60594
G1 X106.673 Y78.964 E99.02269
G1 X110.545 Y78.619 E99.44252
G1 X114.452 Y78.735 E99.86466
G1 X118.298 Y79.309 E100.28463
G1 X122.065 Y80.337 E100.70634
G1 X125.669 Y81.8 E101.12642
G1 X129.043 Y83.661 E101.54257
G1 X130.747 Y84.808 E101.76441
G1 X133.69 Y87.195 E102.17366
G1 X135.159 Y88.623 E102.39492
G1 X137.675 Y91.541 E102.81103
G1 X139.845 Y94.763 E103.23057
G1 X141.631 Y98.24 E103.65273
G1 X142.989 Y101.897 E104.07404
G1 X143.903 Y105.675 E104.49383
G1 X144.364 Y109.551 E104.91539
G1 X144.364 Y113.446 E105.33605
G1 X143.903 Y117.321 E105.7575
G1 X142.988 Y121.111 E106.17858
G1 X141.63 Y124.762 E106.59928
G1 X139.874 Y128.183 E107.01458
G1 X138.702 Y130.019 E107.24982
G1 X137.641 Y131.5 E107.44658
G1 X135.161 Y134.378 E107.85689
G1 X133.694 Y135.8 E108.07754
G1 X130.74 Y138.196 E108.48832
G1 X129.042 Y139.34 E108.70944
G1 X125.674 Y141.198 E109.12487
G1 X122.06 Y142.663 E109.54603
G1 X118.301 Y143.69 E109.96688
G1 X114.452 Y144.265 E110.38718
G1 X110.545 Y144.381 E110.80932
G1 X106.677 Y144.037 E111.22872
G1 X102.851 Y143.232 E111.65097
G1 X99.212 Y142.002 E112.06583
G1 X97.328 Y141.171 E112.28821
G1 X94.013 Y139.342 E112.69711
G1 X92.31 Y138.195 E112.91886
G1 X89.318 Y135.77 E113.33481
G1 X86.603 Y132.972 E113.75587
G1 X84.274 Y129.919 E114.17058
G1 X83.175 Y128.179 E114.39284
G1 X81.423 Y124.767 E114.80708
G1 X80.08 Y121.149 E115.22388
G1 X79.542 Y119.181 E115.44422
G1 X78.861 Y115.384 E115.86084
G1 X78.63 Y111.503 E116.28073
G1 X78.861 Y107.614 E116.70148
G10
G0 F4320 X77.444 Y111.229
G11
G1 F1800 X77.651 Y107.742 E117.07874
G1 X77.716 Y107.201 E117.13759
G1 X78.335 Y103.759 E117.51529
G1 X78.462 Y103.231 E117.57394
G1 X79.481 Y99.89 E117.95118
G1 X79.671 Y99.377 E118.01026
G1 X81.159 Y96 E118.40881
G1 X82.205 Y94.103 E118.64277
G1 X84.385 Y90.868 E119.06407
G1 X85.739 Y89.196 E119.29643
G1 X88.319 Y86.539 E119.69641
G1 X88.721 Y86.17 E119.75535
G1 X91.593 Y83.841 E120.15469
G1 X93.383 Y82.635 E120.3878
G1 X96.621 Y80.849 E120.78717
G1 X97.113 Y80.615 E120.84601
G1 X100.542 Y79.223 E121.24569
G1 X102.607 Y78.594 E121.47883
G1 X106.225 Y77.832 E121.87814
G1 X106.765 Y77.751 E121.93712
G1 X110.245 Y77.441 E122.31444
G1 X110.79 Y77.425 E122.37333
G1 X114.28 Y77.529 E122.75042
G1 X114.822 Y77.577 E122.80918
G1 X118.279 Y78.093 E123.18667
G1 X118.811 Y78.205 E123.24539
G1 X122.182 Y79.125 E123.62277
G1 X122.7 Y79.301 E123.68186
G1 X125.936 Y80.614 E124.05902
G1 X126.429 Y80.848 E124.11796
G1 X129.669 Y82.635 E124.51757
G1 X131.459 Y83.841 E124.75067
G1 X134.481 Y86.292 E125.1709
G1 X136.036 Y87.803 E125.40507
G1 X138.449 Y90.602 E125.80419
G1 X138.78 Y91.035 E125.86305
G1 X140.732 Y93.932 E126.24032
G1 X141.009 Y94.4 E126.29906
G1 X142.607 Y97.511 E126.67678
G1 X142.827 Y98.012 E126.73587
G1 X144.042 Y101.285 E127.11293
G1 X144.201 Y101.805 E127.17165
G1 X145.022 Y105.2 E127.54888
G1 X145.119 Y105.737 E127.60782
G1 X145.532 Y109.207 E127.98522
G1 X145.564 Y109.751 E128.04407
G1 X145.564 Y113.246 E128.42153
G1 X145.532 Y113.789 E128.48028
G1 X145.119 Y117.261 E128.8579
G1 X145.022 Y117.798 E128.91683
G1 X144.202 Y121.194 E129.29414
G1 X144.043 Y121.717 E129.35318
G1 X142.826 Y124.99 E129.73031
G1 X142.606 Y125.488 E129.78911
G1 X140.914 Y128.784 E130.18924
G1 X139.749 Y130.619 E130.42399
G1 X138.585 Y132.242 E130.63969
G1 X136.042 Y135.193 E131.06041
G1 X134.486 Y136.703 E131.29458
G1 X131.455 Y139.162 E131.7161
G1 X129.666 Y140.367 E131.94906
G1 X126.432 Y142.151 E132.34795
G1 X125.938 Y142.386 E132.40703
G1 X122.699 Y143.699 E132.78449
G1 X122.183 Y143.873 E132.8433
G1 X118.812 Y144.794 E133.22071
G1 X118.279 Y144.907 E133.27956
G1 X114.822 Y145.423 E133.65705
G1 X114.28 Y145.471 E133.71581
G1 X110.79 Y145.575 E134.0929
G1 X110.245 Y145.559 E134.15179
G1 X106.765 Y145.249 E134.52911
G1 X106.227 Y145.169 E134.58786
G1 X102.806 Y144.45 E134.9654
G1 X102.278 Y144.305 E135.02453
G1 X98.768 Y143.118 E135.4247
G1 X96.799 Y142.25 E135.6571
G1 X93.385 Y140.366 E136.07823
G1 X91.595 Y139.16 E136.31133
G1 X88.722 Y136.831 E136.71076
G1 X88.318 Y136.462 E136.76985
G1 X85.884 Y133.954 E137.1473
G1 X85.528 Y133.54 E137.20627
G1 X83.284 Y130.599 E137.6058
G1 X82.135 Y128.778 E137.83835
G1 X80.445 Y125.488 E138.2378
G1 X80.225 Y124.988 E138.2968
G1 X78.935 Y121.514 E138.69702
G1 X78.369 Y119.44 E138.92921
G1 X77.715 Y115.798 E139.32883
G1 X77.651 Y115.258 E139.38756
G1 X77.444 Y111.775 E139.76439
G1 X77.444 Y111.229 E139.82336
G0 F4320 X77.045 Y111.206
G1 F1800 X77.252 Y107.719 E140.20062
G1 X77.322 Y107.13 E140.26468
G1 X77.941 Y103.688 E140.64238
G1 X78.079 Y103.114 E140.70613
G1 X79.098 Y99.773 E141.08337
G1 X79.305 Y99.216 E141.14755
G1 X80.803 Y95.815 E141.54891
G1 X81.862 Y93.894 E141.78581
G1 X84.061 Y90.631 E142.21077
G1 X85.44 Y88.93 E142.44727
G1 X88.032 Y86.26 E142.84916
G1 X88.469 Y85.86 E142.91314
G1 X91.357 Y83.518 E143.31471
G1 X93.175 Y82.294 E143.55141
G1 X96.428 Y80.499 E143.95267
G1 X96.963 Y80.244 E144.01668
G1 X100.412 Y78.844 E144.41869
G1 X102.51 Y78.205 E144.65555
G1 X106.142 Y77.44 E145.05641
G1 X106.729 Y77.353 E145.1205
G1 X110.209 Y77.043 E145.49783
G1 X110.802 Y77.025 E145.5619
G1 X114.292 Y77.129 E145.93899
G1 X114.881 Y77.182 E146.00286
G1 X118.338 Y77.698 E146.38035
G1 X118.916 Y77.819 E146.44413
