;FLAVOR:UltiGCode
;TIME:5227
;MATERIAL:4999
;MATERIAL2:0
;NOZZLE_DIAMETER:0.4
;MINX:74.224
;MINY:74.226
;MINZ:0.27
;MAXX:148.787
;MAXY:148.774
;MAXZ:2.97
;Generated with Cura_SteamEngine main
M82 ;absolute extrusion mode
G0 F3000 Y50 ;avoid prime blob
G92 E0
G92 E0
G10
;LAYER_COUNT:28
;LAYER:0
M107
G0 F4320 X85.997 Y84.31 Z0.27
G0 X81.591 Y89.248
;TYPE:SKIRT
G11
G1 F1800 X82.001 Y88.694 E0.07444
G1 X83.101 Y87.337 E0.26309
G1 X83.564 Y86.816 E0.33837
G1 X85.997 Y84.31 E0.71559
G1 X86.679 Y83.685 E0.8155
G1 X89.395 Y81.482 E1.19319
G1 X89.952 Y81.07 E1.26801
G1 X91.4 Y80.095 E1.45654
G1 X91.988 Y79.736 E1.53095
G1 X95.05 Y78.046 E1.90867
G1 X95.676 Y77.736 E1.98411
G1 X97.275 Y77.032 E2.1728
G1 X97.921 Y76.782 E2.24761
G1 X101.229 Y75.664 E2.62473
G1 X102.12 Y75.42 E2.7245
G1 X105.541 Y74.7 E3.10206
G1 X106.228 Y74.587 E3.17725
G1 X107.965 Y74.381 E3.36616
G1 X108.652 Y74.33 E3.44056
G1 X112.141 Y74.226 E3.81754
G1 X113.065 Y74.254 E3.91738
G1 X116.545 Y74.564 E4.29471
G1 X117.461 Y74.701 E4.39474
G1 X120.883 Y75.422 E4.77243
G1 X121.553 Y75.594 E4.84713
G1 X123.223 Y76.104 E5.03572
G1 X123.876 Y76.336 E5.11056
G1 X127.114 Y77.649 E5.48792
G1 X127.763 Y77.947 E5.56505
G1 X129.576 Y78.883 E5.78541
G1 X131.42 Y79.973 E6.01675
G1 X133.051 Y81.072 E6.22916
G1 X133.603 Y81.481 E6.30335
G1 X136.318 Y83.682 E6.68082
G1 X137.003 Y84.309 E6.78111
G1 X139.435 Y86.815 E7.15826
G1 X140.039 Y87.516 E7.25819
G1 X142.159 Y90.295 E7.63569
G1 X142.563 Y90.876 E7.71211
G1 X143.648 Y92.602 E7.93229
G1 X144.566 Y94.266 E8.13754
G1 X144.875 Y94.891 E8.21284
G1 X146.282 Y98.086 E8.58988
G1 X146.604 Y98.954 E8.68986
G1 X147.624 Y102.297 E9.06734
G1 X147.796 Y102.961 E9.14142
G1 X148.157 Y104.67 E9.33006
G1 X148.27 Y105.36 E9.40558
G1 X148.683 Y108.831 E9.78309
G1 X148.735 Y109.521 E9.85782
G1 X148.787 Y111.266 E10.04636
G1 X148.776 Y111.96 E10.12132
G1 X148.569 Y115.447 E10.49858
G1 X148.461 Y116.361 E10.59798
G1 X147.844 Y119.803 E10.97564
G1 X147.69 Y120.483 E11.05094
G1 X147.229 Y122.17 E11.23982
G1 X147.016 Y122.832 E11.31492
G1 X145.799 Y126.105 E11.69205
G1 X145.427 Y126.949 E11.79167
G1 X143.831 Y130.058 E12.1691
G1 X143.486 Y130.662 E12.24422
G1 X142.553 Y132.139 E12.4329
G1 X142.161 Y132.703 E12.50708
G1 X140.043 Y135.48 E12.88427
G1 X139.437 Y136.183 E12.98451
G1 X137.003 Y138.69 E13.36188
G1 X136.321 Y139.315 E13.46179
G1 X133.605 Y141.518 E13.83948
G1 X133.048 Y141.93 E13.9143
G1 X131.6 Y142.905 E14.10283
G1 X131.011 Y143.265 E14.17738
G1 X127.951 Y144.953 E14.55481
G1 X127.114 Y145.351 E14.65491
G1 X123.876 Y146.664 E15.03227
G1 X123.001 Y146.96 E15.13203
G1 X119.63 Y147.881 E15.50944
G1 X118.725 Y148.072 E15.60933
G1 X115.268 Y148.588 E15.98683
G1 X114.581 Y148.659 E16.06142
G1 X112.837 Y148.763 E16.2501
G1 X112.141 Y148.774 E16.32528
G1 X108.65 Y148.67 E16.70248
G1 X107.962 Y148.619 E16.77698
G1 X106.227 Y148.413 E16.96568
G1 X105.539 Y148.299 E17.041
G1 X102.117 Y147.578 E17.41869
G1 X101.447 Y147.406 E17.49339
G1 X99.777 Y146.896 E17.68198
G1 X99.124 Y146.664 E17.75682
G1 X95.886 Y145.351 E18.13418
G1 X95.049 Y144.953 E18.23428
G1 X91.989 Y143.265 E18.6117
G1 X91.399 Y142.904 E18.68641
G1 X89.95 Y141.928 E18.87509
G1 X89.396 Y141.518 E18.94952
G1 X86.681 Y139.317 E19.32699
G1 X85.996 Y138.69 E19.42728
G1 X83.562 Y136.182 E19.80473
G1 X82.957 Y135.48 E19.90482
G1 X80.839 Y132.703 E20.28201
G1 X80.447 Y132.14 E20.3561
G1 X79.513 Y130.662 E20.54493
G1 X79.168 Y130.058 E20.62005
G1 X77.572 Y126.95 E20.99739
G1 X77.199 Y126.102 E21.09744
G1 X75.983 Y122.827 E21.47473
G1 X75.77 Y122.166 E21.54973
G1 X75.31 Y120.481 E21.73837
G1 X75.158 Y119.805 E21.81321
G1 X74.54 Y116.363 E22.19089
G1 X74.431 Y115.448 E22.2904
G1 X74.224 Y111.965 E22.66723
G1 X74.224 Y111.04 E22.76713
G1 X74.431 Y107.553 E23.14439
G1 X74.54 Y106.634 E23.24434
G1 X75.159 Y103.192 E23.62204
G1 X75.375 Y102.297 E23.72147
G1 X76.394 Y98.956 E24.09871
G1 X76.717 Y98.087 E24.19884
G1 X78.126 Y94.889 E24.57626
G1 X78.433 Y94.268 E24.65107
G1 X79.276 Y92.739 E24.83964
G1 X79.638 Y92.147 E24.91458
G1 X81.591 Y89.248 E25.29209
G10
G0 F4320 X80.418 Y95.64
G11
G1 F1800 X81.496 Y93.684 E25.5333
G1 X83.711 Y90.396 E25.96147
G1 X85.119 Y88.659 E26.20295
G1 X87.719 Y85.981 E26.60606
G1 X88.191 Y85.549 E26.67517
G1 X91.089 Y83.198 E27.07819
G1 X92.942 Y81.951 E27.31941
G1 X96.419 Y80.032 E27.74832
G1 X98.466 Y79.13 E27.98991
G1 X101.997 Y77.937 E28.39244
G1 X102.614 Y77.769 E28.4615
G1 X106.27 Y77 E28.86499
G1 X108.494 Y76.736 E29.10687
G1 X112.212 Y76.625 E29.50859
G1 X112.852 Y76.644 E29.57774
G1 X116.332 Y76.954 E29.95507
G1 X116.966 Y77.049 E30.0243
G1 X120.628 Y77.821 E30.42849
G1 X122.744 Y78.467 E30.66743
G1 X126.45 Y79.97 E31.09934
G1 X128.417 Y80.986 E31.33845
G1 X130.124 Y81.994 E31.55254
G1 X131.91 Y83.197 E31.78511
G1 X134.807 Y85.546 E32.18791
G1 X135.281 Y85.98 E32.25732
G1 X137.713 Y88.486 E32.63447
G1 X138.131 Y88.972 E32.7037
G1 X140.401 Y91.948 E33.10793
G1 X141.591 Y93.842 E33.34951
G1 X142.578 Y95.63 E33.57008
G1 X144.086 Y99.054 E33.97415
G1 X144.309 Y99.654 E34.04328
G1 X145.397 Y103.219 E34.44583
G1 X145.859 Y105.406 E34.68724
G1 X146.329 Y109.36 E35.11728
G1 X146.395 Y111.579 E35.35704
G1 X146.174 Y115.305 E35.76015
G1 X146.098 Y115.938 E35.82901
G1 X145.438 Y119.619 E36.23289
G1 X144.851 Y121.767 E36.47338
G1 X143.549 Y125.269 E36.87689
G1 X143.292 Y125.853 E36.9458
G1 X141.588 Y129.173 E37.34883
G1 X140.393 Y131.065 E37.59051
G1 X138.135 Y134.025 E37.99259
G1 X137.715 Y134.512 E38.06204
G1 X135.281 Y137.019 E38.43942
G1 X134.809 Y137.451 E38.50852
G1 X131.911 Y139.802 E38.91155
G1 X130.062 Y141.047 E39.15229
G1 X126.791 Y142.851 E39.55572
G1 X126.212 Y143.127 E39.62499
G1 X122.974 Y144.44 E40.00235
G1 X122.368 Y144.645 E40.07144
G1 X118.997 Y145.566 E40.44886
G1 X118.371 Y145.698 E40.51795
G1 X114.684 Y146.248 E40.92055
G1 X112.444 Y146.382 E41.16291
G1 X108.49 Y146.264 E41.59013
G1 X106.267 Y146 E41.8319
G1 X102.372 Y145.179 E42.2618
G1 X100.256 Y144.533 E42.50074
G1 X96.788 Y143.127 E42.9049
G1 X96.209 Y142.851 E42.97417
G1 X92.932 Y141.043 E43.37838
G1 X91.092 Y139.804 E43.61795
G1 X88.192 Y137.453 E44.02114
G1 X87.718 Y137.019 E44.09055
G1 X85.284 Y134.511 E44.468
G1 X84.865 Y134.025 E44.5373
G1 X82.604 Y131.06 E44.94001
G1 X81.412 Y129.175 E45.18088
G1 X79.707 Y125.854 E45.58405
G1 X79.449 Y125.267 E45.6533
G1 X78.15 Y121.768 E46.05639
G1 X77.562 Y119.614 E46.29754
G1 X76.902 Y115.939 E46.70079
G1 X76.827 Y115.305 E46.76974
G1 X76.62 Y111.822 E47.14656
G1 X76.619 Y111.182 E47.21568
G1 X76.826 Y107.695 E47.59294
G1 X76.902 Y107.059 E47.66212
G1 X77.521 Y103.617 E48.03982
G1 X77.671 Y102.998 E48.10861
G1 X78.69 Y99.657 E48.48584
G1 X78.913 Y99.055 E48.55518
G1 X80.418 Y95.64 E48.95822
G10
G0 F4320 X79.91 Y99.77
G11
G1 F1800 X81.499 Y96.163 E49.38391
G1 X82.519 Y94.314 E49.61197
G1 X84.683 Y91.102 E50.03025
G1 X86.012 Y89.462 E50.25822
G1 X88.755 Y86.637 E50.68348
G1 X91.808 Y84.16 E51.10808
G1 X93.56 Y82.981 E51.33615
G1 X96.957 Y81.106 E51.7552
G1 X98.899 Y80.251 E51.98437
G1 X102.616 Y78.994 E52.40814
G1 X106.469 Y78.184 E52.83336
G1 X108.569 Y77.935 E53.06174
G1 X112.495 Y77.818 E53.48594
G1 X116.48 Y78.173 E53.91803
G1 X120.323 Y78.982 E54.34217
G1 X122.345 Y79.6 E54.57051
G1 X125.939 Y81.057 E54.98935
G1 X127.841 Y82.04 E55.22058
G1 X129.489 Y83.013 E55.42727
G1 X131.196 Y84.163 E55.64956
G1 X134.051 Y86.478 E56.04653
G1 X134.42 Y86.816 E56.10057
G1 X137.023 Y89.499 E56.50429
G1 X139.412 Y92.63 E56.92963
G1 X140.555 Y94.449 E57.16165
G1 X141.506 Y96.171 E57.3741
G1 X143.087 Y99.763 E57.79795
G1 X144.234 Y103.521 E58.2223
G1 X144.675 Y105.606 E58.45246
G1 X145.13 Y109.436 E58.86901
G1 X145.194 Y111.566 E59.09916
G1 X144.962 Y115.477 E59.52229
G1 X144.268 Y119.349 E59.94713
G1 X143.704 Y121.411 E60.178
G1 X142.341 Y125.077 E60.60041
G1 X140.54 Y128.586 E61.02638
G1 X139.409 Y130.375 E61.25497
G1 X137.181 Y133.297 E61.65182
G1 X136.854 Y133.676 E61.70588
G1 X134.245 Y136.363 E62.11036
G1 X131.192 Y138.84 E62.53496
G1 X129.432 Y140.025 E62.76411
G1 X125.999 Y141.919 E63.18756
G1 X122.286 Y143.424 E63.62025
G1 X118.444 Y144.474 E64.0504
G1 X114.548 Y145.055 E64.47582
G1 X112.442 Y145.181 E64.70368
G1 X108.567 Y145.065 E65.12237
G1 X106.466 Y144.816 E65.35086
G1 X102.677 Y144.018 E65.76905
G1 X100.655 Y143.4 E65.9974
G1 X97.001 Y141.918 E66.42325
G1 X93.576 Y140.029 E66.84568
G1 X91.799 Y138.832 E67.07708
G1 X88.948 Y136.521 E67.47344
G1 X88.579 Y136.183 E67.52748
G1 X85.969 Y133.493 E67.93228
G1 X83.593 Y130.378 E68.35539
G1 X82.455 Y128.578 E68.58539
G1 X80.662 Y125.086 E69.00933
G1 X79.291 Y121.393 E69.43477
G1 X78.734 Y119.355 E69.66295
G1 X78.039 Y115.48 E70.08813
G1 X77.802 Y111.502 E70.51851
G1 X78.039 Y107.518 E70.94955
G1 X78.745 Y103.59 E71.38057
G1 X79.91 Y99.77 E71.81189
G10
G0 F4320 X79.136 Y103.676
G11
G1 F1800 X80.284 Y99.914 E72.23668
G1 X81.859 Y96.339 E72.65859
G1 X82.86 Y94.523 E72.88254
G1 X85.001 Y91.345 E73.29638
G1 X86.312 Y89.727 E73.52129
G1 X89.026 Y86.932 E73.94204
G1 X92.045 Y84.484 E74.36182
G1 X93.776 Y83.318 E74.58722
G1 X97.133 Y81.465 E75.00134
G1 X99.042 Y80.625 E75.22659
G1 X102.726 Y79.38 E75.64657
G1 X106.53 Y78.579 E76.06641
G1 X108.594 Y78.334 E76.29089
G1 X112.488 Y78.218 E76.71163
G1 X116.412 Y78.568 E77.1371
G1 X120.226 Y79.371 E77.55804
G1 X122.215 Y79.979 E77.78267
G1 X125.775 Y81.423 E78.19757
G1 X127.646 Y82.389 E78.42498
G1 X129.276 Y83.352 E78.62945
G1 X130.954 Y84.483 E78.848
G1 X133.973 Y86.93 E79.2677
G1 X136.723 Y89.764 E79.69419
G1 X139.088 Y92.864 E80.11529
G1 X140.148 Y94.551 E80.33047
G1 X141.146 Y96.347 E80.55237
G1 X142.713 Y99.905 E80.97225
G1 X143.846 Y103.619 E81.39161
G1 X144.277 Y105.66 E81.6169
G1 X144.731 Y109.472 E82.03151
G1 X144.793 Y111.554 E82.25646
G1 X144.563 Y115.433 E82.67613
G1 X143.874 Y119.275 E83.09769
G1 X143.327 Y121.276 E83.32172
G1 X141.971 Y124.923 E83.74194
G1 X140.196 Y128.381 E84.16174
G1 X139.086 Y130.137 E84.3861
G1 X136.723 Y133.237 E84.80707
G1 X133.974 Y136.067 E85.23317
G1 X130.955 Y138.516 E85.65301
G1 X129.228 Y139.679 E85.87788
G1 X125.82 Y141.559 E86.29823
G1 X122.157 Y143.045 E86.72515
G1 X118.365 Y144.081 E87.14969
G1 X114.51 Y144.656 E87.57064
G1 X112.43 Y144.78 E87.79568
G1 X108.603 Y144.666 E88.20918
G1 X106.53 Y144.42 E88.43463
G1 X102.774 Y143.629 E88.84918
G1 X100.785 Y143.021 E89.0738
G1 X97.18 Y141.559 E89.49394
G1 X93.766 Y139.676 E89.91502
G1 X92.047 Y138.518 E90.13886
G1 X89.026 Y136.069 E90.55887
G1 X86.277 Y133.236 E90.9852
G1 X83.916 Y130.14 E91.4057
G1 X82.804 Y128.381 E91.63045
G1 X81.028 Y124.922 E92.05039
G1 X79.672 Y121.272 E92.47091
G1 X79.125 Y119.268 E92.69526
G1 X78.437 Y115.437 E93.11563
G1 X78.204 Y111.502 E93.54136
G1 X78.438 Y107.561 E93.96773
G1 X79.136 Y103.676 E94.39403
G10
G0 F4320 X78.835 Y107.614
G11
G1 F1800 X79.526 Y103.772 E94.81563
G1 X80.661 Y100.049 E95.23598
G1 X82.214 Y96.523 E95.65209
G1 X83.206 Y94.726 E95.87377
G1 X85.32 Y91.587 E96.2825
G1 X86.612 Y89.993 E96.5041
G1 X89.301 Y87.224 E96.92095
G1 X92.279 Y84.808 E97.33511
G1 X93.988 Y83.658 E97.55758
G1 X97.309 Y81.825 E97.96725
G1 X99.185 Y80.999 E98.18863
G1 X102.826 Y79.768 E98.60372
G1 X106.593 Y78.975 E99.01948
G1 X108.632 Y78.734 E99.24122
G1 X112.481 Y78.619 E99.6571
G1 X116.353 Y78.964 E100.07693
G1 X120.125 Y79.758 E100.49324
G1 X122.084 Y80.356 E100.71445
G1 X125.607 Y81.785 E101.12504
G1 X127.368 Y82.695 E101.33912
G1 X128.972 Y83.636 E101.53996
G1 X130.715 Y84.804 E101.76656
G1 X133.707 Y87.229 E102.18251
G1 X136.416 Y90.021 E102.60265
G1 X138.76 Y93.094 E103.02006
G1 X139.907 Y94.93 E103.25387
G1 X140.787 Y96.524 E103.45051
G1 X142.336 Y100.043 E103.86575
G1 X143.461 Y103.73 E104.28207
G1 X143.882 Y105.722 E104.50196
G1 X144.331 Y109.497 E104.91253
G1 X144.393 Y111.553 E105.13468
G1 X144.165 Y115.39 E105.54981
G1 X143.487 Y119.175 E105.9651
G1 X142.945 Y121.157 E106.18701
G1 X141.604 Y124.762 E106.60242
G1 X139.847 Y128.185 E107.01796
G1 X138.759 Y129.908 E107.23803
G1 X136.423 Y132.971 E107.65406
G1 X133.699 Y135.776 E108.07635
G1 X130.721 Y138.192 E108.4905
G1 X129.017 Y139.339 E108.71234
G1 X125.644 Y141.2 E109.12839
G1 X122.037 Y142.663 E109.54877
G1 X118.275 Y143.69 E109.96994
G1 X114.473 Y144.258 E110.38511
G1 X112.429 Y144.38 E110.60625
G1 X108.628 Y144.266 E111.01695
G1 X106.591 Y144.025 E111.23848
G1 X102.875 Y143.242 E111.64862
G1 X100.916 Y142.644 E111.86983
G1 X97.355 Y141.199 E112.28487
G1 X93.983 Y139.339 E112.70078
G1 X92.284 Y138.195 E112.92199
G1 X89.292 Y135.77 E113.33793
G1 X86.581 Y132.976 E113.75838
G1 X84.247 Y129.916 E114.17402
G1 X83.148 Y128.176 E114.39629
G1 X81.397 Y124.767 E114.81019
G1 X80.054 Y121.149 E115.22698
G1 X79.516 Y119.181 E115.44733
G1 X78.835 Y115.384 E115.86395
G1 X78.604 Y111.503 E116.28384
G1 X78.835 Y107.614 E116.70459
G10
G0 F4320 X77.418 Y111.229
G11
G1 F1800 X77.625 Y107.742 E117.08185
G1 X77.69 Y107.201 E117.1407
G1 X78.309 Y103.759 E117.51839
G1 X78.436 Y103.231 E117.57705
G1 X79.455 Y99.89 E117.95428
G1 X79.645 Y99.377 E118.01336
G1 X81.133 Y96 E118.41192
G1 X82.179 Y94.103 E118.64587
G1 X84.359 Y90.868 E119.06718
G1 X85.713 Y89.196 E119.29954
G1 X88.293 Y86.539 E119.69952
G1 X88.695 Y86.17 E119.75845
G1 X91.567 Y83.841 E120.1578
G1 X93.353 Y82.638 E120.39036
G1 X96.78 Y80.747 E120.81309
G1 X98.752 Y79.878 E121.04582
G1 X102.253 Y78.695 E121.44494
G1 X102.779 Y78.552 E121.50381
G1 X106.406 Y77.789 E121.9041
G1 X108.544 Y77.535 E122.13662
G1 X112.236 Y77.425 E122.53554
G1 X112.781 Y77.441 E122.59442
G1 X116.261 Y77.751 E122.97175
G1 X116.801 Y77.832 E123.03072
G1 X120.423 Y78.595 E123.43048
G1 X122.49 Y79.226 E123.66389
G1 X126.104 Y80.692 E124.08509
G1 X128.035 Y81.689 E124.3198
G1 X129.695 Y82.67 E124.52804
G1 X131.432 Y83.841 E124.75429
G1 X134.303 Y86.168 E125.15341
G1 X134.707 Y86.537 E125.21251
G1 X137.139 Y89.043 E125.58965
G1 X137.495 Y89.457 E125.64862
G1 X139.742 Y92.403 E126.04877
G1 X140.894 Y94.235 E126.2825
G1 X141.866 Y95.996 E126.49973
G1 X143.354 Y99.376 E126.89858
G1 X143.544 Y99.888 E126.95756
G1 X144.624 Y103.427 E127.35717
G1 X145.069 Y105.532 E127.58954
G1 X145.53 Y109.409 E128.0112
G1 X145.594 Y111.567 E128.24437
G1 X145.375 Y115.258 E128.6437
G1 X145.311 Y115.797 E128.70232
G1 X144.659 Y119.436 E129.10159
G1 X144.087 Y121.53 E129.33603
G1 X142.8 Y124.99 E129.73472
G1 X142.58 Y125.488 E129.79352
G1 X140.889 Y128.782 E130.19341
G1 X139.737 Y130.605 E130.42631
G1 X137.499 Y133.54 E130.82493
G1 X137.141 Y133.954 E130.88404
G1 X134.707 Y136.461 E131.26141
G1 X134.305 Y136.83 E131.32035
G1 X131.433 Y139.159 E131.71969
G1 X129.643 Y140.365 E131.9528
G1 X126.405 Y142.151 E132.35217
G1 X125.912 Y142.386 E132.41115
G1 X122.674 Y143.699 E132.78852
G1 X122.157 Y143.873 E132.84743
G1 X118.786 Y144.794 E133.22484
G1 X118.253 Y144.907 E133.28368
G1 X114.597 Y145.453 E133.68291
G1 X112.443 Y145.581 E133.91595
G1 X108.542 Y145.465 E134.33745
G1 X106.403 Y145.211 E134.57008
G1 X102.577 Y144.405 E134.99236
G1 X100.51 Y143.774 E135.22577
G1 X97.088 Y142.386 E135.62459
G1 X96.595 Y142.151 E135.68357
G1 X93.359 Y140.366 E136.0827
G1 X91.569 Y139.16 E136.3158
G1 X88.696 Y136.831 E136.71523
G1 X88.292 Y136.462 E136.77433
G1 X85.858 Y133.954 E137.15178
G1 X85.501 Y133.54 E137.21082
G1 X83.263 Y130.606 E137.60935
G1 X82.11 Y128.781 E137.84249
G1 X80.419 Y125.488 E138.24229
G1 X80.199 Y124.988 E138.30128
G1 X78.909 Y121.514 E138.70151
G1 X78.343 Y119.44 E138.93369
G1 X77.689 Y115.798 E139.33332
G1 X77.625 Y115.258 E139.39205
G1 X77.418 Y111.775 E139.76887
G1 X77.418 Y111.229 E139.82784
G0 F4320 X77.019 Y111.206
G1 F1800 X77.226 Y107.719 E140.2051
G1 X77.296 Y107.13 E140.26916
G1 X77.915 Y103.688 E140.64686
G1 X78.053 Y103.114 E140.71062
G1 X79.072 Y99.773 E141.08786
G1 X79.279 Y99.216 E141.15203
G1 X80.777 Y95.815 E141.55339
G1 X81.836 Y93.894 E141.7903
G1 X84.035 Y90.631 E142.21526
G1 X85.414 Y88.93 E142.45175
G1 X88.006 Y86.26 E142.85364
G1 X88.443 Y85.86 E142.91762
G1 X91.331 Y83.518 E143.31919
G1 X93.153 Y82.291 E143.55643
G1 X96.595 Y80.391 E143.98104
G1 X98.609 Y79.504 E144.21871
G1 X102.125 Y78.316 E144.61953
G1 X102.696 Y78.16 E144.68346
G1 X106.331 Y77.395 E145.08464
