;FLAVOR:UltiGCode
;TIME:8444
;MATERIAL:9689
;MATERIAL2:0
;NOZZLE_DIAMETER:0.4
;MINX:72.71
;MINY:72.71
;MINZ:0.27
;MAXX:150.29
;MAXY:150.29
;MAXZ:4.97
;Generated with Cura_SteamEngine main
M82 ;absolute extrusion mode
G0 F3000 Y50 ;avoid prime blob
G92 E0
G92 E0
G10
;LAYER_COUNT:48
;LAYER:0
M107
G0 F4320 X84.088 Y84.055 Z0.27
G0 X83.556 Y84.64
;TYPE:SKIRT
G11
G1 F1800 X84.088 Y84.055 E0.0854
G1 X84.635 Y83.561 E0.165
G1 X89.33 Y79.706 E0.82109
G1 X89.965 Y79.236 E0.90641
G1 X90.604 Y78.855 E0.98676
G1 X95.965 Y75.99 E1.64324
G1 X96.679 Y75.653 E1.72851
G1 X97.377 Y75.405 E1.80851
G1 X103.19 Y73.642 E2.46455
G1 X103.957 Y73.451 E2.54992
G1 X104.689 Y73.344 E2.62981
G1 X110.735 Y72.748 E3.28595
G1 X111.524 Y72.71 E3.37126
G1 X112.265 Y72.748 E3.45139
G1 X118.311 Y73.344 E4.10752
G1 X119.092 Y73.461 E4.19281
G1 X119.81 Y73.642 E4.27278
G1 X125.623 Y75.405 E4.92882
G1 X126.366 Y75.672 E5.01409
G1 X127.035 Y75.99 E5.09409
G1 X132.396 Y78.855 E5.75057
G1 X133.073 Y79.262 E5.83588
G1 X133.669 Y79.705 E5.91609
G1 X138.36 Y83.556 E6.57156
G1 X138.944 Y84.088 E6.65688
G1 X139.439 Y84.635 E6.73656
G1 X143.294 Y89.33 E7.39264
G1 X143.764 Y89.965 E7.47796
G1 X144.145 Y90.604 E7.55831
G1 X147.01 Y95.965 E8.21479
G1 X147.347 Y96.679 E8.30006
G1 X147.595 Y97.377 E8.38006
G1 X149.358 Y103.189 E9.036
G1 X149.549 Y103.955 E9.12126
G1 X149.656 Y104.688 E9.20127
G1 X150.252 Y110.732 E9.85718
G1 X150.29 Y111.52 E9.94239
G1 X150.252 Y112.262 E10.02263
G1 X149.656 Y118.311 E10.67908
G1 X149.539 Y119.092 E10.76437
G1 X149.358 Y119.809 E10.84424
G1 X147.596 Y125.62 E11.50004
G1 X147.329 Y126.363 E11.58531
G1 X147.012 Y127.032 E11.66526
G1 X144.148 Y132.393 E12.32169
G1 X143.741 Y133.07 E12.40701
G1 X143.297 Y133.667 E12.48736
G1 X139.444 Y138.36 E13.14314
G1 X138.912 Y138.945 E13.22854
G1 X138.365 Y139.439 E13.30814
G1 X133.67 Y143.294 E13.96423
G1 X133.035 Y143.764 E14.04955
G1 X132.396 Y144.145 E14.1299
G1 X127.035 Y147.01 E14.78638
G1 X126.321 Y147.347 E14.87165
G1 X125.623 Y147.595 E14.95165
G1 X119.81 Y149.358 E15.60769
G1 X119.043 Y149.549 E15.69306
G1 X118.311 Y149.656 E15.77295
G1 X112.265 Y150.252 E16.42909
G1 X111.476 Y150.29 E16.5144
G1 X110.735 Y150.252 E16.59453
G1 X104.689 Y149.656 E17.25066
G1 X103.908 Y149.539 E17.33595
G1 X103.19 Y149.358 E17.41592
G1 X97.377 Y147.595 E18.07196
G1 X96.634 Y147.328 E18.15723
G1 X95.965 Y147.01 E18.23723
G1 X90.604 Y144.145 E18.89371
G1 X89.927 Y143.738 E18.97902
G1 X89.33 Y143.294 E19.05938
G1 X84.635 Y139.439 E19.71546
G1 X84.051 Y138.908 E19.80071
G1 X83.556 Y138.36 E19.88046
G1 X79.703 Y133.667 E20.53624
G1 X79.234 Y133.033 E20.62141
G1 X78.852 Y132.393 E20.70191
G1 X75.988 Y127.032 E21.35834
G1 X75.652 Y126.318 E21.44357
G1 X75.404 Y125.62 E21.52357
G1 X73.642 Y119.809 E22.17937
G1 X73.451 Y119.043 E22.26463
G1 X73.344 Y118.312 E22.34442
G1 X72.748 Y112.269 E23.00023
G1 X72.71 Y111.48 E23.08554
G1 X72.748 Y110.738 E23.16578
G1 X73.344 Y104.688 E23.82235
G1 X73.461 Y103.907 E23.90764
G1 X73.642 Y103.189 E23.98761
G1 X75.404 Y97.379 E24.64331
G1 X75.671 Y96.636 E24.72857
G1 X75.988 Y95.967 E24.80853
G1 X78.853 Y90.605 E25.4651
G1 X79.26 Y89.928 E25.55042
G1 X79.704 Y89.332 E25.63068
G1 X83.556 Y84.64 E26.28631
G0 F4320 X83.866 Y84.893
G1 F1800 X84.384 Y84.325 E26.36933
G1 X84.889 Y83.87 E26.44275
G1 X89.584 Y80.015 E27.09883
G1 X90.203 Y79.558 E27.18193
G1 X90.792 Y79.208 E27.25593
G1 X96.153 Y76.343 E27.91241
G1 X96.849 Y76.016 E27.99546
G1 X97.493 Y75.788 E28.06924
G1 X103.306 Y74.025 E28.72528
G1 X104.053 Y73.84 E28.8084
G1 X104.728 Y73.742 E28.88206
G1 X110.774 Y73.146 E29.53819
G1 X111.542 Y73.11 E29.62123
G1 X112.226 Y73.146 E29.6952
G1 X118.272 Y73.742 E30.35134
G1 X119.032 Y73.857 E30.43435
G1 X119.694 Y74.025 E30.50811
G1 X125.507 Y75.788 E31.16415
G1 X126.23 Y76.049 E31.24717
G1 X126.847 Y76.343 E31.32098
G1 X132.208 Y79.208 E31.97747
G1 X132.866 Y79.605 E32.06046
G1 X133.415 Y80.014 E32.1344
G1 X138.106 Y83.865 E32.78988
G1 X138.675 Y84.384 E32.87305
G1 X139.13 Y84.889 E32.94647
G1 X142.985 Y89.584 E33.60255
G1 X143.442 Y90.203 E33.68565
G1 X143.792 Y90.792 E33.75964
G1 X146.657 Y96.153 E34.41613
G1 X146.984 Y96.849 E34.49918
G1 X147.212 Y97.493 E34.57296
G1 X148.975 Y103.305 E35.2289
G1 X149.16 Y104.052 E35.31201
G1 X149.258 Y104.727 E35.38568
G1 X149.854 Y110.771 E36.04159
G1 X149.89 Y111.539 E36.12463
G1 X149.854 Y112.223 E36.1986
G1 X149.258 Y118.272 E36.85506
G1 X149.143 Y119.032 E36.93807
G1 X148.976 Y119.693 E37.0117
G1 X147.214 Y125.504 E37.66751
G1 X146.952 Y126.228 E37.75066
G1 X146.659 Y126.844 E37.82433
G1 X143.795 Y132.205 E38.48076
G1 X143.398 Y132.864 E38.56385
G1 X142.987 Y133.414 E38.63801
G1 X139.134 Y138.107 E39.29379
G1 X138.616 Y138.675 E39.37681
G1 X138.111 Y139.13 E39.45022
G1 X133.416 Y142.985 E40.10631
G1 X132.797 Y143.442 E40.18941
G1 X132.208 Y143.792 E40.2634
G1 X126.847 Y146.657 E40.91988
G1 X126.151 Y146.984 E41.00293
G1 X125.507 Y147.212 E41.07672
G1 X119.694 Y148.975 E41.73276
G1 X118.947 Y149.16 E41.81587
G1 X118.272 Y149.258 E41.88954
G1 X112.226 Y149.854 E42.54567
G1 X111.458 Y149.89 E42.6287
G1 X110.774 Y149.854 E42.70268
G1 X104.728 Y149.258 E43.35881
G1 X103.968 Y149.143 E43.44183
G1 X103.306 Y148.975 E43.51559
G1 X97.493 Y147.212 E44.17163
G1 X96.77 Y146.951 E44.25465
G1 X96.153 Y146.657 E44.32846
G1 X90.792 Y143.792 E44.98494
G1 X90.134 Y143.395 E45.06794
G1 X89.584 Y142.985 E45.14203
G1 X84.889 Y139.13 E45.79811
G1 X84.321 Y138.612 E45.88114
G1 X83.866 Y138.107 E45.95455
G1 X80.013 Y133.414 E46.61033
G1 X79.556 Y132.795 E46.69343
G1 X79.205 Y132.205 E46.76757
G1 X76.341 Y126.844 E47.424
G1 X76.014 Y126.148 E47.50705
G1 X75.786 Y125.504 E47.58083
G1 X74.024 Y119.693 E48.23664
G1 X73.84 Y118.947 E48.31962
G1 X73.742 Y118.272 E48.39329
G1 X73.146 Y112.229 E49.0491
G1 X73.11 Y111.461 E49.13213
G1 X73.146 Y110.778 E49.206
G1 X73.742 Y104.728 E49.86256
G1 X73.857 Y103.967 E49.94568
G1 X74.024 Y103.305 E50.01942
G1 X75.786 Y97.495 E50.67512
G1 X76.048 Y96.772 E50.75817
G1 X76.341 Y96.156 E50.83184
G1 X79.206 Y90.794 E51.48842
G1 X79.603 Y90.135 E51.57151
G1 X80.014 Y89.585 E51.64566
G1 X83.866 Y84.893 E52.30129
G0 F4320 X84.175 Y85.147
G1 F1800 X84.68 Y84.595 E52.38209
G1 X85.143 Y84.179 E52.44931
G1 X89.838 Y80.324 E53.1054
G1 X90.441 Y79.881 E53.18621
G1 X90.981 Y79.56 E53.25406
G1 X96.342 Y76.695 E53.91054
G1 X97.019 Y76.378 E53.99127
G1 X97.609 Y76.17 E54.05884
G1 X103.422 Y74.407 E54.71488
G1 X104.149 Y74.229 E54.79571
G1 X104.767 Y74.14 E54.86315
G1 X110.813 Y73.544 E55.51928
G1 X111.561 Y73.51 E55.60015
G1 X112.187 Y73.544 E55.66785
G1 X118.233 Y74.14 E56.32399
G1 X118.972 Y74.253 E56.40473
G1 X119.578 Y74.407 E56.47225
G1 X125.391 Y76.17 E57.1283
G1 X126.094 Y76.425 E57.20906
G1 X126.658 Y76.695 E57.27659
G1 X132.019 Y79.56 E57.93307
G1 X132.659 Y79.948 E58.0139
G1 X133.162 Y80.324 E58.08173
G1 X137.853 Y84.175 E58.73721
G1 X138.405 Y84.679 E58.81793
G1 X138.821 Y85.143 E58.88524
G1 X142.676 Y89.838 E59.54132
G1 X143.119 Y90.441 E59.62213
G1 X143.44 Y90.981 E59.68998
G1 X146.305 Y96.342 E60.34646
G1 X146.622 Y97.019 E60.42719
G1 X146.83 Y97.609 E60.49476
G1 X148.593 Y103.421 E61.1507
G1 X148.771 Y104.147 E61.23143
G1 X148.86 Y104.766 E61.29897
G1 X149.456 Y110.81 E61.95489
G1 X149.49 Y111.557 E62.03564
G1 X149.456 Y112.183 E62.10335
G1 X148.86 Y118.232 E62.75981
G1 X148.747 Y118.972 E62.84065
G1 X148.593 Y119.577 E62.90808
G1 X146.831 Y125.388 E63.56388
G1 X146.576 Y126.091 E63.64465
G1 X146.306 Y126.655 E63.71218
G1 X143.442 Y132.016 E64.36861
G1 X143.055 Y132.656 E64.44938
G1 X142.678 Y133.16 E64.51736
G1 X138.825 Y137.853 E65.17314
G1 X138.32 Y138.405 E65.25394
G1 X137.857 Y138.821 E65.32116
G1 X133.162 Y142.676 E65.97725
G1 X132.559 Y143.119 E66.05806
G1 X132.019 Y143.44 E66.12591
G1 X126.658 Y146.305 E66.78239
G1 X125.981 Y146.622 E66.86312
G1 X125.391 Y146.83 E66.93069
G1 X119.578 Y148.593 E67.58673
G1 X118.851 Y148.771 E67.66756
G1 X118.233 Y148.86 E67.735
G1 X112.187 Y149.456 E68.39113
G1 X111.439 Y149.49 E68.472
G1 X110.813 Y149.456 E68.5397
G1 X104.767 Y148.86 E69.19584
G1 X104.028 Y148.747 E69.27658
G1 X103.422 Y148.593 E69.3441
G1 X97.609 Y146.83 E70.00015
G1 X96.906 Y146.575 E70.08091
G1 X96.342 Y146.305 E70.14844
G1 X90.981 Y143.44 E70.80492
G1 X90.341 Y143.052 E70.88575
G1 X89.838 Y142.676 E70.95358
G1 X85.143 Y138.821 E71.60966
G1 X84.591 Y138.316 E71.69047
G1 X84.175 Y137.853 E71.75769
G1 X80.322 Y133.16 E72.41347
G1 X79.879 Y132.557 E72.49428
G1 X79.558 Y132.016 E72.56222
G1 X76.694 Y126.655 E73.21865
G1 X76.377 Y125.978 E73.29938
G1 X76.169 Y125.388 E73.36695
G1 X74.407 Y119.577 E74.02275
G1 X74.229 Y118.851 E74.10348
G1 X74.14 Y118.233 E74.17091
G1 X73.544 Y112.19 E74.82673
G1 X73.51 Y111.443 E74.90748
G1 X73.544 Y110.817 E74.97519
G1 X74.14 Y104.767 E75.63176
G1 X74.253 Y104.027 E75.7126
G1 X74.407 Y103.421 E75.78013
G1 X76.169 Y97.611 E76.43583
G1 X76.424 Y96.908 E76.5166
G1 X76.694 Y96.344 E76.58413
G1 X79.559 Y90.982 E77.2407
G1 X79.946 Y90.342 E77.32148
G1 X80.323 Y89.839 E77.38937
G1 X84.175 Y85.147 E78.045
G0 F4320 X84.484 Y85.401
G1 F1800 X84.975 Y84.866 E78.12342
G1 X85.397 Y84.488 E78.18461
G1 X90.092 Y80.633 E78.84069
G1 X90.678 Y80.204 E78.91913
G1 X91.169 Y79.913 E78.98077
G1 X96.53 Y77.048 E79.63725
G1 X97.189 Y76.742 E79.71572
G1 X97.725 Y76.553 E79.7771
G1 X103.538 Y74.79 E80.43315
G1 X104.244 Y74.618 E80.51162
G1 X104.807 Y74.538 E80.57304
G1 X110.853 Y73.942 E81.22917
G1 X111.578 Y73.91 E81.30755
G1 X112.147 Y73.942 E81.3691
G1 X118.193 Y74.538 E82.02523
G1 X118.911 Y74.649 E82.1037
G1 X119.462 Y74.79 E82.16512
G1 X125.275 Y76.553 E82.82116
G1 X125.957 Y76.802 E82.89958
G1 X126.47 Y77.048 E82.96102
G1 X131.831 Y79.913 E83.6175
G1 X132.452 Y80.29 E83.69596
G1 X132.908 Y80.633 E83.75759
G1 X137.599 Y84.484 E84.41306
G1 X138.134 Y84.975 E84.49149
G1 X138.512 Y85.397 E84.55268
G1 X142.367 Y90.092 E85.20876
G1 X142.796 Y90.678 E85.2872
G1 X143.087 Y91.169 E85.34884
G1 X145.952 Y96.53 E86.00532
G1 X146.258 Y97.189 E86.08379
G1 X146.447 Y97.725 E86.14517
G1 X148.21 Y103.537 E86.80111
G1 X148.382 Y104.243 E86.87959
G1 X148.462 Y104.805 E86.9409
G1 X149.058 Y110.849 E87.59681
G1 X149.09 Y111.575 E87.6753
G1 X149.058 Y112.144 E87.73685
G1 X148.462 Y118.193 E88.3933
G1 X148.351 Y118.911 E88.47177
G1 X148.21 Y119.461 E88.53309
G1 X146.448 Y125.272 E89.18889
G1 X146.199 Y125.955 E89.26741
G1 X145.953 Y126.467 E89.32875
G1 X143.089 Y131.828 E89.98518
G1 X142.712 Y132.449 E90.06364
G1 X142.369 Y132.906 E90.12536
G1 X138.516 Y137.599 E90.78114
G1 X138.025 Y138.134 E90.85956
G1 X137.603 Y138.512 E90.92075
G1 X132.908 Y142.367 E91.57683
G1 X132.322 Y142.796 E91.65527
G1 X131.831 Y143.087 E91.71691
G1 X126.47 Y145.952 E92.37339
G1 X125.811 Y146.258 E92.45186
G1 X125.275 Y146.447 E92.51324
G1 X119.462 Y148.21 E93.16929
G1 X118.756 Y148.382 E93.24776
G1 X118.193 Y148.462 E93.30918
G1 X112.147 Y149.058 E93.96531
G1 X111.422 Y149.09 E94.04369
G1 X110.853 Y149.058 E94.10524
G1 X104.807 Y148.462 E94.76137
G1 X104.089 Y148.351 E94.83984
G1 X103.538 Y148.21 E94.90126
G1 X97.725 Y146.447 E95.5573
G1 X97.043 Y146.198 E95.63572
G1 X96.53 Y145.952 E95.69716
G1 X91.169 Y143.087 E96.35364
G1 X90.548 Y142.71 E96.4321
G1 X90.092 Y142.367 E96.49373
G1 X85.397 Y138.512 E97.14981
G1 X84.862 Y138.021 E97.22824
G1 X84.484 Y137.599 E97.28942
G1 X80.631 Y132.906 E97.94521
G1 X80.202 Y132.32 E98.02364
G1 X79.911 Y131.828 E98.08537
G1 X77.047 Y126.467 E98.74181
G1 X76.74 Y125.808 E98.82032
G1 X76.552 Y125.272 E98.88167
G1 X74.79 Y119.461 E99.53747
G1 X74.618 Y118.755 E99.61595
G1 X74.538 Y118.194 E99.67715
G1 X73.942 Y112.151 E100.33296
G1 X73.91 Y111.425 E100.41145
G1 X73.942 Y110.856 E100.47299
G1 X74.538 Y104.806 E101.12956
G1 X74.649 Y104.088 E101.20802
G1 X74.79 Y103.538 E101.26934
G1 X76.552 Y97.728 E101.92504
G1 X76.801 Y97.045 E102.00356
G1 X77.047 Y96.533 E102.0649
G1 X79.912 Y91.171 E102.72148
G1 X80.289 Y90.55 E102.79994
G1 X80.632 Y90.093 E102.86165
G1 X84.484 Y85.401 E103.51728
G0 F4320 X84.793 Y85.655
G1 F1800 X85.27 Y85.137 E103.59333
G1 X85.651 Y84.797 E103.64848
G1 X90.346 Y80.942 E104.30457
G1 X90.914 Y80.527 E104.38054
G1 X91.358 Y80.266 E104.43616
G1 X96.719 Y77.401 E105.09265
G1 X97.357 Y77.105 E105.1686
G1 X97.842 Y76.936 E105.22407
G1 X103.655 Y75.173 E105.88012
G1 X104.339 Y75.007 E105.95613
G1 X104.846 Y74.936 E106.01142
G1 X110.892 Y74.34 E106.66756
G1 X111.595 Y74.311 E106.74354
G1 X112.108 Y74.34 E106.79904
G1 X118.154 Y74.936 E107.45517
G1 X118.85 Y75.045 E107.53125
G1 X119.345 Y75.173 E107.58647
G1 X125.158 Y76.936 E108.24251
G1 X125.819 Y77.178 E108.31854
G1 X126.281 Y77.401 E108.37394
G1 X131.642 Y80.266 E109.03042
G1 X132.243 Y80.632 E109.10642
G1 X132.654 Y80.942 E109.16202
G1 X137.345 Y84.793 E109.8175
G1 X137.863 Y85.27 E109.89355
G1 X138.203 Y85.651 E109.9487
G1 X142.058 Y90.346 E110.60478
G1 X142.473 Y90.914 E110.68076
G1 X142.734 Y91.358 E110.73638
G1 X145.599 Y96.719 E111.39286
G1 X145.895 Y97.357 E111.46882
G1 X146.064 Y97.841 E111.52419
G1 X147.827 Y103.653 E112.18012
G1 X147.993 Y104.337 E112.25614
G1 X148.064 Y104.845 E112.31154
G1 X148.66 Y110.889 E112.96746
G1 X148.689 Y111.592 E113.04344
G1 X148.66 Y112.105 E113.09894
G1 X148.064 Y118.154 E113.75539
G1 X147.955 Y118.849 E113.83137
G1 X147.827 Y119.345 E113.88669
G1 X146.065 Y125.156 E114.5425
G1 X145.823 Y125.817 E114.61852
G1 X145.601 Y126.278 E114.67378
G1 X142.737 Y131.639 E115.33021
G1 X142.37 Y132.241 E115.40636
G1 X142.06 Y132.652 E115.46195
G1 X138.207 Y137.345 E116.11774
G1 X137.73 Y137.863 E116.19379
G1 X137.349 Y138.203 E116.24894
G1 X132.654 Y142.058 E116.90502
G1 X132.086 Y142.473 E116.98099
G1 X131.642 Y142.734 E117.03662
G1 X126.281 Y145.599 E117.6931
G1 X125.643 Y145.895 E117.76906
G1 X125.158 Y146.064 E117.82453
G1 X119.345 Y147.827 E118.48057
G1 X118.661 Y147.993 E118.55659
G1 X118.154 Y148.064 E118.61188
G1 X112.108 Y148.66 E119.26801
G1 X111.405 Y148.689 E119.344
G1 X110.892 Y148.66 E119.39949
G1 X104.846 Y148.064 E120.05562
G1 X104.15 Y147.955 E120.13171
G1 X103.655 Y147.827 E120.18693
G1 X97.842 Y146.064 E120.84297
G1 X97.181 Y145.822 E120.91899
G1 X96.719 Y145.599 E120.97439
G1 X91.358 Y142.734 E121.63088
G1 X90.757 Y142.368 E121.70687
G1 X90.346 Y142.058 E121.76247
G1 X85.651 Y138.203 E122.41856
G1 X85.133 Y137.726 E122.49461
G1 X84.793 Y137.345 E122.54976
G1 X80.94 Y132.652 E123.20554
G1 X80.525 Y132.084 E123.28151
G1 X80.263 Y131.639 E123.33728
G1 X77.399 Y126.278 E123.99371
G1 X77.104 Y125.64 E124.06963
G1 X76.935 Y125.156 E124.12499
G1 X75.173 Y119.345 E124.7808
G1 X75.007 Y118.661 E124.85682
G1 X74.936 Y118.155 E124.912
G1 X74.34 Y112.112 E125.56781
G1 X74.311 Y111.408 E125.64391
G1 X74.34 Y110.895 E125.6994
G1 X74.936 Y104.845 E126.35596
G1 X75.045 Y104.15 E126.43194
G1 X75.173 Y103.654 E126.48726
G1 X76.935 Y97.844 E127.14296
G1 X77.177 Y97.183 E127.21898
G1 X77.4 Y96.721 E127.27439
G1 X80.265 Y91.359 E127.93097
G1 X80.631 Y90.758 E128.00696
G1 X80.941 Y90.347 E128.06256
G1 X84.793 Y85.655 E128.71819
G0 F4320 X85.102 Y85.909
G1 F1800 X85.655 Y85.31 E128.80624
G1 X90.599 Y81.251 E129.49709
G1 X91.256 Y80.774 E129.58477
G1 X96.907 Y77.754 E130.27677
G1 X97.647 Y77.413 E130.36476
G1 X103.771 Y75.556 E131.05589
G1 X104.563 Y75.366 E131.14386
G1 X110.931 Y74.738 E131.83494
G1 X111.742 Y74.706 E131.92259
G1 X118.115 Y75.334 E132.61421
G1 X118.91 Y75.459 E132.70113
G1 X125.042 Y77.319 E133.39318
G1 X125.802 Y77.599 E133.48065
G1 X131.454 Y80.619 E134.17274
G1 X132.146 Y81.043 E134.26039
G1 X137.091 Y85.102 E134.95132
G1 X137.69 Y85.655 E135.03937
G1 X141.749 Y90.599 E135.73022
G1 X142.226 Y91.256 E135.81791
G1 X145.246 Y96.907 E136.5099
G1 X145.587 Y97.649 E136.59809
G1 X147.444 Y103.769 E137.28881
G1 X147.634 Y104.56 E137.37667
G1 X148.262 Y110.928 E138.06775
G1 X148.294 Y111.739 E138.15541
G1 X147.666 Y118.115 E138.84735
G1 X147.54 Y118.911 E138.93438
G1 X145.682 Y125.04 E139.62606
G1 X145.402 Y125.803 E139.71384
G1 X142.384 Y131.451 E140.40545
G1 X141.959 Y132.145 E140.49334
G1 X137.898 Y137.091 E141.18449
G1 X137.345 Y137.69 E141.27254
G1 X132.401 Y141.749 E141.96339
