;FLAVOR:UltiGCode
;TIME:8080
;MATERIAL:8211
;MATERIAL2:0
;NOZZLE_DIAMETER:0.4
;MINX:72.67
;MINY:72.653
;MINZ:0.27
;MAXX:150.216
;MAXY:150.199
;MAXZ:12.47
;Generated with Cura_SteamEngine main
M82 ;absolute extrusion mode
G0 F3000 Y50 ;avoid prime blob
G92 E0
G92 E0
G10
;LAYER_COUNT:123
;LAYER:0
M107
G0 F4320 X84.83 Y83.204 Z0.27
G0 X84.283 Y83.773
;TYPE:SKIRT
G11
G1 F1800 X84.83 Y83.204 E0.08524
G1 X85.395 Y82.722 E0.16545
G1 X90.2 Y79.005 E0.82154
G1 X90.849 Y78.555 E0.90683
G1 X91.496 Y78.193 E0.9869
G1 X96.937 Y75.483 E1.64338
G1 X97.66 Y75.167 E1.7286
G1 X98.365 Y74.939 E1.80862
G1 X104.224 Y73.344 E2.46442
G1 X104.996 Y73.175 E2.54977
G1 X105.733 Y73.089 E2.62991
G1 X111.794 Y72.668 E3.28607
G1 X112.583 Y72.653 E3.3713
G1 X113.321 Y72.712 E3.45126
G1 X119.35 Y73.481 E4.10767
G1 X120.127 Y73.62 E4.19291
G1 X120.843 Y73.823 E4.27329
G1 X126.6 Y75.754 E4.92909
G1 X127.335 Y76.043 E5.01438
G1 X127.992 Y76.378 E5.09403
G1 X133.264 Y79.393 E5.74994
G1 X133.929 Y79.819 E5.83523
G1 X134.511 Y80.279 E5.91535
G1 X139.096 Y84.267 E6.57164
G1 X139.665 Y84.814 E6.65688
G1 X140.146 Y85.379 E6.73702
G1 X143.863 Y90.183 E7.39302
G1 X144.314 Y90.831 E7.47828
G1 X144.676 Y91.479 E7.55845
G1 X147.386 Y96.92 E8.21493
G1 X147.702 Y97.643 E8.30015
G1 X147.93 Y98.348 E8.38017
G1 X149.525 Y104.208 E9.03607
G1 X149.694 Y104.98 E9.12142
G1 X149.78 Y105.716 E9.20145
G1 X150.201 Y111.774 E9.85729
G1 X150.216 Y112.564 E9.94263
G1 X150.157 Y113.302 E10.02259
G1 X149.388 Y119.333 E10.67921
G1 X149.249 Y120.11 E10.76446
G1 X149.046 Y120.826 E10.84483
G1 X147.115 Y126.583 E11.50063
G1 X146.826 Y127.318 E11.58593
G1 X146.491 Y127.975 E11.66558
G1 X143.476 Y133.247 E12.32149
G1 X143.05 Y133.912 E12.40678
G1 X142.59 Y134.494 E12.4869
G1 X138.602 Y139.079 E13.14318
G1 X138.055 Y139.648 E13.22842
G1 X137.491 Y140.128 E13.30841
G1 X132.687 Y143.846 E13.96448
G1 X132.039 Y144.297 E14.04974
G1 X131.389 Y144.66 E14.13015
G1 X125.948 Y147.369 E14.78658
G1 X125.225 Y147.685 E14.8718
G1 X124.521 Y147.913 E14.95172
G1 X118.661 Y149.508 E15.60762
G1 X117.889 Y149.677 E15.69297
G1 X117.153 Y149.763 E15.773
G1 X111.093 Y150.184 E16.42906
G1 X110.303 Y150.199 E16.51439
G1 X109.565 Y150.14 E16.59435
G1 X103.536 Y149.371 E17.25076
G1 X102.759 Y149.232 E17.33601
G1 X102.043 Y149.029 E17.41638
G1 X96.286 Y147.098 E18.07218
G1 X95.551 Y146.809 E18.15748
G1 X94.894 Y146.474 E18.23713
G1 X89.621 Y143.459 E18.89313
G1 X88.957 Y143.033 E18.97833
G1 X88.374 Y142.573 E19.05854
G1 X83.789 Y138.585 E19.71482
G1 X83.22 Y138.038 E19.80006
G1 X82.739 Y137.473 E19.8802
G1 X79.021 Y132.668 E20.53635
G1 X78.57 Y132.02 E20.62162
G1 X78.207 Y131.371 E20.70193
G1 X75.499 Y125.931 E21.35822
G1 X75.184 Y125.207 E21.44349
G1 X74.956 Y124.504 E21.52331
G1 X73.361 Y118.645 E22.17911
G1 X73.192 Y117.873 E22.26446
G1 X73.106 Y117.137 E22.34449
G1 X72.685 Y111.078 E23.00044
G1 X72.67 Y110.288 E23.08577
G1 X72.729 Y109.55 E23.16573
G1 X73.498 Y103.519 E23.82235
G1 X73.637 Y102.742 E23.9076
G1 X73.84 Y102.026 E23.98798
G1 X75.771 Y96.269 E24.64378
G1 X76.06 Y95.534 E24.72907
G1 X76.394 Y94.878 E24.80857
G1 X79.408 Y89.606 E25.46443
G1 X79.835 Y88.941 E25.54978
G1 X80.295 Y88.358 E25.62998
G1 X84.283 Y83.773 E26.28627
G0 F4320 X84.585 Y84.036
G1 F1800 X85.119 Y83.482 E26.36937
G1 X85.64 Y83.039 E26.44323
G1 X90.445 Y79.322 E27.09932
G1 X91.077 Y78.884 E27.18236
G1 X91.674 Y78.551 E27.25619
G1 X97.115 Y75.841 E27.91267
G1 X97.82 Y75.534 E27.99572
G1 X98.47 Y75.325 E28.06946
G1 X104.329 Y73.73 E28.72526
G1 X105.081 Y73.567 E28.80836
G1 X105.76 Y73.488 E28.88219
G1 X111.821 Y73.067 E29.53835
G1 X112.59 Y73.053 E29.62142
G1 X113.27 Y73.108 E29.6951
G1 X119.299 Y73.877 E30.3515
G1 X120.056 Y74.014 E30.43459
G1 X120.716 Y74.202 E30.5087
G1 X126.473 Y76.133 E31.1645
G1 X127.189 Y76.415 E31.24761
G1 X127.794 Y76.725 E31.32103
G1 X133.066 Y79.74 E31.97694
G1 X133.713 Y80.156 E32.06001
G1 X134.248 Y80.581 E32.13381
G1 X138.833 Y84.569 E32.79009
G1 X139.387 Y85.103 E32.87319
G1 X139.83 Y85.624 E32.94705
G1 X143.547 Y90.428 E33.60305
G1 X143.985 Y91.06 E33.6861
G1 X144.318 Y91.657 E33.75992
G1 X147.028 Y97.098 E34.41641
G1 X147.335 Y97.803 E34.49945
G1 X147.544 Y98.454 E34.5733
G1 X149.139 Y104.314 E35.2292
G1 X149.302 Y105.065 E35.3122
G1 X149.381 Y105.744 E35.38602
G1 X149.802 Y111.802 E36.04186
G1 X149.816 Y112.571 E36.12493
G1 X149.761 Y113.251 E36.19861
G1 X148.992 Y119.282 E36.85523
G1 X148.855 Y120.039 E36.93832
G1 X148.667 Y120.699 E37.01243
G1 X146.736 Y126.456 E37.66823
G1 X146.454 Y127.172 E37.75134
G1 X146.144 Y127.777 E37.82476
G1 X143.129 Y133.049 E38.48067
G1 X142.713 Y133.696 E38.56374
G1 X142.288 Y134.231 E38.63753
G1 X138.3 Y138.816 E39.29382
G1 X137.766 Y139.37 E39.37692
G1 X137.246 Y139.812 E39.45063
G1 X132.442 Y143.53 E40.10669
G1 X131.81 Y143.969 E40.1898
G1 X131.211 Y144.302 E40.26382
G1 X125.77 Y147.011 E40.92025
G1 X125.065 Y147.318 E41.0033
G1 X124.415 Y147.527 E41.07704
G1 X118.555 Y149.122 E41.73294
G1 X117.804 Y149.285 E41.81594
G1 X117.125 Y149.364 E41.88976
G1 X111.065 Y149.785 E42.54582
G1 X110.296 Y149.799 E42.62889
G1 X109.616 Y149.744 E42.70257
G1 X103.587 Y148.975 E43.35897
G1 X102.83 Y148.838 E43.44206
G1 X102.17 Y148.65 E43.51617
G1 X96.413 Y146.719 E44.17197
G1 X95.697 Y146.437 E44.25508
G1 X95.093 Y146.127 E44.3284
G1 X89.82 Y143.112 E44.98441
G1 X89.173 Y142.696 E45.06748
G1 X88.637 Y142.271 E45.14136
G1 X84.052 Y138.283 E45.79764
G1 X83.498 Y137.749 E45.88074
G1 X83.055 Y137.229 E45.95452
G1 X79.337 Y132.424 E46.61067
G1 X78.899 Y131.792 E46.69372
G1 X78.565 Y131.193 E46.76779
G1 X75.857 Y125.753 E47.42408
G1 X75.551 Y125.047 E47.50718
G1 X75.342 Y124.399 E47.58071
G1 X73.747 Y118.54 E48.23651
G1 X73.584 Y117.788 E48.31962
G1 X73.505 Y117.109 E48.39344
G1 X73.084 Y111.05 E49.04939
G1 X73.07 Y110.281 E49.13246
G1 X73.125 Y109.601 E49.20614
G1 X73.894 Y103.57 E49.86276
G1 X74.031 Y102.813 E49.94584
G1 X74.219 Y102.153 E50.01996
G1 X76.15 Y96.396 E50.67576
G1 X76.432 Y95.68 E50.75887
G1 X76.742 Y95.076 E50.83219
G1 X79.756 Y89.804 E51.48805
G1 X80.172 Y89.157 E51.57112
G1 X80.597 Y88.621 E51.645
G1 X84.585 Y84.036 E52.30128
G0 F4320 X84.886 Y84.298
G1 F1800 X85.407 Y83.761 E52.38209
G1 X85.885 Y83.355 E52.44982
G1 X90.69 Y79.638 E53.10591
G1 X91.305 Y79.213 E53.18664
G1 X91.852 Y78.909 E53.25423
G1 X97.293 Y76.199 E53.91071
G1 X97.98 Y75.902 E53.99154
G1 X98.575 Y75.711 E54.05903
G1 X104.434 Y74.116 E54.71483
G1 X105.166 Y73.958 E54.79571
G1 X105.788 Y73.887 E54.86332
G1 X111.849 Y73.466 E55.51949
G1 X112.597 Y73.454 E55.60028
G1 X113.22 Y73.505 E55.66779
G1 X119.249 Y74.274 E56.3242
G1 X119.985 Y74.408 E56.40499
G1 X120.589 Y74.581 E56.47285
G1 X126.346 Y76.512 E57.12865
G1 X127.042 Y76.788 E57.20951
G1 X127.595 Y77.073 E57.2767
G1 X132.867 Y80.088 E57.93261
G1 X133.496 Y80.493 E58.0134
G1 X133.986 Y80.882 E58.08097
G1 X138.571 Y84.87 E58.73726
G1 X139.108 Y85.391 E58.81806
G1 X139.513 Y85.868 E58.88564
G1 X143.23 Y90.672 E59.54164
G1 X143.656 Y91.288 E59.62253
G1 X143.96 Y91.835 E59.69012
G1 X146.67 Y97.276 E60.3466
G1 X146.967 Y97.963 E60.42743
G1 X147.158 Y98.559 E60.49502
G1 X148.753 Y104.419 E61.15093
G1 X148.911 Y105.15 E61.2317
G1 X148.982 Y105.772 E61.29931
G1 X149.403 Y111.83 E61.95515
G1 X149.415 Y112.578 E62.03595
G1 X149.364 Y113.2 E62.10335
G1 X148.595 Y119.231 E62.75997
G1 X148.461 Y119.967 E62.84077
G1 X148.288 Y120.572 E62.90873
G1 X146.357 Y126.329 E63.56452
G1 X146.081 Y127.025 E63.64539
G1 X145.796 Y127.578 E63.71258
G1 X142.781 Y132.85 E64.36849
G1 X142.376 Y133.479 E64.44928
G1 X141.987 Y133.969 E64.51685
G1 X137.999 Y138.554 E65.17313
G1 X137.478 Y139.091 E65.25394
G1 X137.001 Y139.496 E65.32152
G1 X132.197 Y143.214 E65.97759
G1 X131.582 Y143.639 E66.05832
G1 X131.033 Y143.944 E66.12615
G1 X125.592 Y146.653 E66.78259
G1 X124.905 Y146.95 E66.86342
G1 X124.31 Y147.141 E66.93091
G1 X118.45 Y148.736 E67.58681
G1 X117.719 Y148.894 E67.66758
G1 X117.097 Y148.965 E67.7352
G1 X111.037 Y149.386 E68.39125
G1 X110.289 Y149.398 E68.47205
G1 X109.666 Y149.347 E68.53956
G1 X103.637 Y148.578 E69.19596
G1 X102.901 Y148.444 E69.27676
G1 X102.297 Y148.271 E69.34461
G1 X96.54 Y146.34 E70.00041
G1 X95.844 Y146.064 E70.08128
G1 X95.291 Y145.78 E70.14842
G1 X90.018 Y142.765 E70.80442
G1 X89.39 Y142.359 E70.88518
G1 X88.899 Y141.97 E70.95284
G1 X84.314 Y137.982 E71.60912
G1 X83.777 Y137.461 E71.68993
G1 X83.372 Y136.984 E71.75751
G1 X79.654 Y132.179 E72.41366
G1 X79.228 Y131.564 E72.49446
G1 X78.923 Y131.014 E72.56238
G1 X76.215 Y125.574 E73.21867
G1 X75.918 Y124.888 E73.2994
G1 X75.728 Y124.294 E73.36676
G1 X74.133 Y118.435 E74.02256
G1 X73.975 Y117.703 E74.10343
G1 X73.904 Y117.081 E74.17104
G1 X73.483 Y111.022 E74.82699
G1 X73.471 Y110.274 E74.90779
G1 X73.522 Y109.652 E74.97519
G1 X74.291 Y103.621 E75.63181
G1 X74.425 Y102.885 E75.71261
G1 X74.598 Y102.28 E75.78057
G1 X76.529 Y96.523 E76.43636
G1 X76.805 Y95.827 E76.51723
G1 X77.089 Y95.275 E76.58427
G1 X80.103 Y90.003 E77.24013
G1 X80.508 Y89.374 E77.32092
G1 X80.898 Y88.883 E77.38864
G1 X84.886 Y84.298 E78.04493
G0 F4320 X85.188 Y84.561
G1 F1800 X85.694 Y84.04 E78.12337
G1 X86.13 Y83.672 E78.18498
G1 X90.935 Y79.955 E78.84107
G1 X91.533 Y79.542 E78.91956
G1 X92.031 Y79.267 E78.981
G1 X97.472 Y76.557 E79.63748
G1 X98.139 Y76.27 E79.7159
G1 X98.68 Y76.097 E79.77725
G1 X104.539 Y74.502 E80.43305
G1 X105.25 Y74.35 E80.51157
G1 X105.816 Y74.286 E80.57309
G1 X111.877 Y73.865 E81.22925
G1 X112.603 Y73.854 E81.30767
G1 X113.169 Y73.902 E81.36902
G1 X119.198 Y74.671 E82.02542
G1 X119.912 Y74.802 E82.10382
G1 X120.462 Y74.961 E82.16565
G1 X126.219 Y76.892 E82.82145
G1 X126.894 Y77.16 E82.89989
G1 X127.397 Y77.42 E82.96104
G1 X132.669 Y80.435 E83.61695
G1 X133.278 Y80.829 E83.69529
G1 X133.723 Y81.184 E83.75677
G1 X138.308 Y85.172 E84.41305
G1 X138.829 Y85.678 E84.49149
G1 X139.197 Y86.113 E84.55303
G1 X142.914 Y90.917 E85.20903
G1 X143.326 Y91.515 E85.28746
G1 X143.602 Y92.014 E85.34904
G1 X146.312 Y97.455 E86.00552
G1 X146.599 Y98.122 E86.08394
G1 X146.772 Y98.664 E86.14539
G1 X148.367 Y104.524 E86.80129
G1 X148.519 Y105.234 E86.87971
G1 X148.583 Y105.799 E86.94112
G1 X149.004 Y111.857 E87.59696
G1 X149.015 Y112.584 E87.67549
G1 X148.967 Y113.15 E87.73684
G1 X148.198 Y119.181 E88.39346
G1 X148.067 Y119.895 E88.47186
G1 X147.908 Y120.445 E88.53369
G1 X145.977 Y126.202 E89.18949
G1 X145.709 Y126.877 E89.26793
G1 X145.449 Y127.38 E89.32908
G1 X142.434 Y132.652 E89.98499
G1 X142.04 Y133.261 E90.06332
G1 X141.685 Y133.706 E90.1248
G1 X137.697 Y138.291 E90.78109
G1 X137.191 Y138.812 E90.85953
G1 X136.757 Y139.179 E90.92091
G1 X131.953 Y142.897 E91.57698
G1 X131.354 Y143.31 E91.65555
G1 X130.855 Y143.586 E91.71714
G1 X125.414 Y146.295 E92.37357
G1 X124.747 Y146.583 E92.45204
G1 X124.205 Y146.755 E92.51345
G1 X118.345 Y148.35 E93.16936
G1 X117.635 Y148.502 E93.24777
G1 X117.069 Y148.566 E93.30929
G1 X111.009 Y148.987 E93.96535
G1 X110.283 Y148.998 E94.04377
G1 X109.717 Y148.95 E94.10511
G1 X103.688 Y148.181 E94.76152
G1 X102.974 Y148.05 E94.83992
G1 X102.424 Y147.891 E94.90175
G1 X96.667 Y145.96 E95.55755
G1 X95.992 Y145.692 E95.63599
G1 X95.49 Y145.433 E95.69699
G1 X90.217 Y142.418 E96.353
G1 X89.607 Y142.023 E96.43148
G1 X89.162 Y141.668 E96.49296
G1 X84.577 Y137.68 E97.14925
G1 X84.056 Y137.174 E97.22768
G1 X83.688 Y136.739 E97.28922
G1 X79.97 Y131.934 E97.94537
G1 X79.558 Y131.336 E98.0238
G1 X79.282 Y130.836 E98.08548
G1 X76.574 Y125.396 E98.74177
G1 X76.286 Y124.729 E98.82024
G1 X76.114 Y124.189 E98.88144
G1 X74.519 Y118.33 E99.53724
G1 X74.367 Y117.619 E99.61577
G1 X74.303 Y117.053 E99.67728
G1 X73.882 Y110.994 E100.33323
G1 X73.871 Y110.268 E100.41165
G1 X73.919 Y109.702 E100.473
G1 X74.688 Y103.671 E101.12962
G1 X74.819 Y102.957 E101.20802
G1 X74.978 Y102.407 E101.26985
G1 X76.909 Y96.65 E101.92565
G1 X77.177 Y95.975 E102.00409
G1 X77.436 Y95.473 E102.06509
G1 X80.45 Y90.201 E102.72095
G1 X80.845 Y89.592 E102.79934
G1 X81.2 Y89.146 E102.86091
G1 X85.188 Y84.561 E103.51719
G0 F4320 X85.49 Y84.823
G1 F1800 X85.981 Y84.319 E103.59318
G1 X86.374 Y83.988 E103.64868
G1 X91.179 Y80.271 E104.30476
G1 X91.76 Y79.873 E104.38082
G1 X92.209 Y79.625 E104.43622
G1 X97.65 Y76.915 E105.0927
G1 X98.297 Y76.638 E105.16871
G1 X98.785 Y76.483 E105.22401
G1 X104.644 Y74.888 E105.87981
G1 X105.333 Y74.742 E105.95587
G1 X105.843 Y74.685 E106.0113
G1 X111.904 Y74.264 E106.66746
G1 X112.608 Y74.255 E106.7435
G1 X113.118 Y74.299 E106.79879
G1 X119.147 Y75.068 E107.45519
G1 X119.84 Y75.196 E107.5313
G1 X120.335 Y75.34 E107.58698
G1 X126.092 Y77.271 E108.24278
G1 X126.745 Y77.532 E108.31873
G1 X127.198 Y77.767 E108.37384
G1 X132.47 Y80.782 E109.02975
G1 X133.06 Y81.166 E109.10578
G1 X133.461 Y81.486 E109.16119
G1 X138.046 Y85.474 E109.81747
G1 X138.55 Y85.965 E109.89346
G1 X138.881 Y86.358 E109.94896
G1 X142.598 Y91.162 E110.60496
G1 X142.996 Y91.742 E110.68093
G1 X143.244 Y92.192 E110.73642
G1 X145.954 Y97.633 E111.3929
G1 X146.231 Y98.28 E111.46891
G1 X146.386 Y98.769 E111.52431
G1 X147.981 Y104.629 E112.18022
G1 X148.127 Y105.317 E112.25618
G1 X148.184 Y105.827 E112.3116
G1 X148.605 Y111.885 E112.96744
G1 X148.614 Y112.589 E113.04348
G1 X148.57 Y113.099 E113.09876
G1 X147.801 Y119.13 E113.75538
G1 X147.673 Y119.822 E113.83139
G1 X147.529 Y120.318 E113.88717
G1 X145.598 Y126.075 E114.54297
G1 X145.337 Y126.728 E114.61892
G1 X145.102 Y127.181 E114.67403
G1 X142.087 Y132.453 E115.32994
G1 X141.703 Y133.043 E115.40597
G1 X141.383 Y133.444 E115.46138
G1 X137.395 Y138.029 E116.11766
G1 X136.904 Y138.533 E116.19365
G1 X136.512 Y138.863 E116.24899
G1 X131.708 Y142.581 E116.90506
G1 X131.127 Y142.98 E116.98118
G1 X130.676 Y143.228 E117.03677
G1 X125.235 Y145.937 E117.6932
G1 X124.588 Y146.215 E117.76925
G1 X124.1 Y146.369 E117.82452
G1 X118.24 Y147.964 E118.48042
G1 X117.552 Y148.11 E118.55638
G1 X117.042 Y148.167 E118.61181
G1 X110.982 Y148.588 E119.26786
G1 X110.278 Y148.597 E119.3439
G1 X109.768 Y148.553 E119.39919
G1 X103.739 Y147.784 E120.05559
G1 X103.046 Y147.656 E120.1317
G1 X102.551 Y147.512 E120.18738
G1 X96.794 Y145.581 E120.84318
G1 X96.141 Y145.32 E120.91913
G1 X95.689 Y145.085 E120.97415
G1 X90.416 Y142.07 E121.63015
G1 X89.825 Y141.687 E121.70621
G1 X89.424 Y141.366 E121.76168
G1 X84.839 Y137.378 E122.41797
G1 X84.335 Y136.887 E122.49396
G1 X84.005 Y136.494 E122.54938
G1 X80.287 Y131.689 E123.20554
G1 X79.888 Y131.109 E123.28157
G1 X79.64 Y130.658 E123.33715
G1 X76.932 Y125.218 E123.99344
G1 X76.654 Y124.571 E124.0695
G1 X76.5 Y124.084 E124.12466
G1 X74.905 Y118.225 E124.78046
G1 X74.759 Y117.536 E124.85652
G1 X74.702 Y117.026 E124.91195
G1 X74.281 Y110.967 E125.5679
G1 X74.272 Y110.263 E125.64393
G1 X74.316 Y109.753 E125.69922
G1 X75.085 Y103.722 E126.35584
G1 X75.213 Y103.03 E126.43184
G1 X75.357 Y102.534 E126.48762
G1 X77.288 Y96.777 E127.14342
G1 X77.549 Y96.124 E127.21937
G1 X77.784 Y95.672 E127.27439
G1 X80.798 Y90.4 E127.93025
G1 X81.181 Y89.809 E128.00631
G1 X81.502 Y89.408 E128.06178
G1 X85.49 Y84.823 E128.71807
G0 F4320 X85.792 Y85.086
G1 F1800 X86.362 Y84.503 E128.80612
G1 X91.424 Y80.587 E129.49731
G1 X92.095 Y80.128 E129.58511
G1 X97.828 Y77.273 E130.27681
G1 X98.571 Y76.956 E130.36405
G1 X104.75 Y75.274 E131.05566
G1 X105.547 Y75.107 E131.14361
G1 X111.932 Y74.663 E131.83485
G1 X112.744 Y74.655 E131.92255
G1 X119.097 Y75.465 E132.61423
G1 X119.893 Y75.614 E132.70169
G1 X125.964 Y77.65 E133.39325
G1 X126.716 Y77.952 E133.48077
G1 X132.271 Y81.129 E134.1719
G1 X132.946 Y81.569 E134.25892
G1 X137.783 Y85.776 E134.95126
G1 X138.362 Y86.342 E135.03871
G1 X142.281 Y91.407 E135.73035
G1 X142.74 Y92.077 E135.81806
G1 X145.596 Y97.811 E136.5099
G1 X145.913 Y98.554 E136.59714
G1 X147.595 Y104.734 E137.28886
G1 X147.762 Y105.531 E137.37681
G1 X148.206 Y111.913 E138.06773
G1 X148.214 Y112.725 E138.15543
G1 X147.404 Y119.08 E138.84732
G1 X147.255 Y119.876 E138.93478
G1 X145.219 Y125.947 E139.62634
G1 X144.917 Y126.699 E139.71386
G1 X141.74 Y132.254 E140.40499
G1 X141.3 Y132.929 E140.49201
G1 X137.093 Y137.766 E141.18435
G1 X136.524 Y138.348 E141.27225
G1 X131.463 Y142.265 E141.96343
