;FLAVOR:UltiGCode
;TIME:11984
;MATERIAL:10613
;MATERIAL2:0
;NOZZLE_DIAMETER:0.4
;MINX:76.79
;MINY:47.08
;MINZ:0.27
;MAXX:146.21
;MAXY:172.123
;MAXZ:1.97
;Generated with Cura_SteamEngine 5.3.1
M82 ;absolute extrusion mode
G0 F3000 Y50 ;avoid prime blob
G92 E0
G92 E0
G10
;LAYER_COUNT:18
;LAYER:0
M107
G0 F7200 X78.436 Y52.586 Z0.27
;TYPE:SKIRT
G11
G1 F1800 X80.447 Y50.635 E0.3026
G1 X83.519 Y49.632 E0.65161
G1 X86.566 Y49.632 E0.98069
G1 X88.162 Y48.084 E1.22082
G1 X91.234 Y47.081 E1.56983
G1 X100.836 Y47.08 E2.60685
G1 X102.928 Y47.54 E2.83818
G1 X103.69 Y48.051 E2.93727
G1 X106.662 Y47.08 E3.27494
G1 X116.245 Y47.08 E4.3099
G1 X118.414 Y47.571 E4.55008
G1 X119.119 Y48.05 E4.64213
G1 X122.09 Y47.08 E4.97967
G1 X131.674 Y47.08 E6.01474
G1 X133.843 Y47.571 E6.25492
G1 X135.542 Y48.726 E6.4768
G1 X136.422 Y49.632 E6.61321
G1 X139.388 Y49.632 E6.93353
G1 X141.557 Y50.123 E7.17371
G1 X143.256 Y51.278 E7.39559
G1 X145.207 Y53.289 E7.69819
G1 X146.21 Y56.361 E8.04721
G1 X146.21 Y162.306 E19.48927
G1 X145.79 Y164.234 E19.70237
G1 X144.68 Y166.054 E19.93261
G1 X142.534 Y168.136 E20.25552
G1 X139.477 Y169.127 E20.60259
G1 X136.89 Y169.127 E20.88199
G1 X134.816 Y171.139 E21.19406
G1 X131.778 Y172.123 E21.53895
G1 X122.164 Y172.123 E22.57726
G1 X120.07 Y171.663 E22.80881
G1 X119.167 Y171.06 E22.92608
G1 X118.857 Y171.256 E22.96569
G1 X116.469 Y172.123 E23.24006
G1 X106.736 Y172.123 E24.29123
G1 X104.641 Y171.663 E24.52288
G1 X103.848 Y171.131 E24.62601
G1 X103.685 Y171.224 E24.64628
G1 X100.906 Y172.123 E24.96172
G1 X91.307 Y172.123 E25.99841
G1 X89.213 Y171.663 E26.22996
G1 X87.545 Y170.551 E26.44646
G1 X86.168 Y169.128 E26.66032
G1 X83.612 Y169.127 E26.93637
G1 X81.443 Y168.636 E27.17655
G1 X79.744 Y167.481 E27.39843
G1 X77.793 Y165.47 E27.70103
G1 X76.79 Y162.398 E28.05004
G1 X76.79 Y56.454 E39.49199
G1 X77.281 Y54.285 E39.73217
G1 X78.436 Y52.586 E39.95405
G0 F7200 X78.744 Y52.845
G1 F1800 X80.66 Y50.986 E40.24237
G1 X83.582 Y50.032 E40.57434
G1 X86.729 Y50.032 E40.91421
G1 X88.375 Y48.435 E41.1619
G1 X91.297 Y47.481 E41.49387
G1 X100.791 Y47.48 E42.51922
G1 X102.769 Y47.915 E42.73795
G1 X103.722 Y48.553 E42.86181
G1 X103.983 Y48.376 E42.89587
G1 X106.725 Y47.48 E43.20742
G1 X116.201 Y47.48 E44.23082
G1 X118.251 Y47.944 E44.45782
G1 X119.148 Y48.554 E44.57498
G1 X119.409 Y48.376 E44.6091
G1 X122.153 Y47.48 E44.92085
G1 X131.63 Y47.48 E45.94436
G1 X133.68 Y47.944 E46.17137
G1 X135.283 Y49.034 E46.38072
G1 X136.252 Y50.032 E46.53095
G1 X139.344 Y50.032 E46.86489
G1 X141.394 Y50.496 E47.09189
G1 X142.997 Y51.586 E47.30124
G1 X144.856 Y53.502 E47.58957
G1 X145.81 Y56.424 E47.92153
G1 X145.81 Y162.262 E59.35204
G1 X145.413 Y164.085 E59.55354
G1 X144.367 Y165.8 E59.77049
G1 X142.322 Y167.784 E60.07821
G1 X139.413 Y168.727 E60.40848
G1 X136.667 Y168.727 E60.70504
G1 X136.504 Y168.944 E60.73436
G1 X134.604 Y170.787 E61.02023
G1 X131.714 Y171.723 E61.34831
G1 X122.209 Y171.723 E62.37485
G1 X120.229 Y171.288 E62.59379
G1 X119.165 Y170.578 E62.73194
G1 X118.72 Y170.88 E62.79002
G1 X116.398 Y171.723 E63.05681
G1 X106.781 Y171.723 E64.09545
G1 X104.8 Y171.288 E64.3145
G1 X103.844 Y170.647 E64.4388
G1 X103.562 Y170.843 E64.47589
G1 X100.842 Y171.723 E64.78465
G1 X91.352 Y171.723 E65.80957
G1 X89.372 Y171.288 E66.02851
G1 X87.8 Y170.24 E66.23255
G1 X86.337 Y168.728 E66.45978
G1 X83.656 Y168.727 E66.74932
G1 X81.606 Y168.263 E66.97632
G1 X80.003 Y167.173 E67.18568
G1 X78.144 Y165.257 E67.474
G1 X77.19 Y162.335 E67.80597
G1 X77.19 Y56.498 E79.23637
G1 X77.654 Y54.448 E79.46337
G1 X78.744 Y52.845 E79.67272
G0 F7200 X79.052 Y53.104
G1 F1800 X80.873 Y51.337 E79.94676
G1 X83.645 Y50.432 E80.26169
G1 X86.892 Y50.432 E80.61236
G1 X88.588 Y48.786 E80.86761
G1 X91.36 Y47.881 E81.18254
G1 X100.746 Y47.88 E82.19623
G1 X102.612 Y48.29 E82.40256
G1 X103.746 Y49.049 E82.54994
G1 X104.107 Y48.756 E82.60015
G1 X106.788 Y47.88 E82.90476
G1 X116.157 Y47.88 E83.91661
G1 X118.088 Y48.317 E84.13044
G1 X119.169 Y49.052 E84.27161
G1 X119.533 Y48.756 E84.32228
G1 X122.216 Y47.88 E84.6271
G1 X131.586 Y47.88 E85.63906
G1 X133.517 Y48.317 E85.85288
G1 X135.024 Y49.342 E86.04972
G1 X136.082 Y50.432 E86.21377
G1 X139.3 Y50.432 E86.56132
G1 X141.231 Y50.869 E86.77514
G1 X142.738 Y51.894 E86.97197
G1 X144.505 Y53.715 E87.24601
G1 X145.41 Y56.487 E87.56094
G1 X145.41 Y162.218 E98.97989
G1 X145.036 Y163.936 E99.16978
G1 X144.054 Y165.546 E99.37345
G1 X142.11 Y167.432 E99.66597
G1 X139.349 Y168.327 E99.97943
G1 X136.461 Y168.327 E100.29134
G1 X136.225 Y168.657 E100.33515
G1 X134.392 Y170.435 E100.61095
G1 X131.65 Y171.323 E100.92223
G1 X122.254 Y171.323 E101.93699
G1 X120.388 Y170.913 E102.14333
G1 X119.156 Y170.091 E102.30328
G1 X118.584 Y170.504 E102.37948
G1 X116.328 Y171.323 E102.63868
G1 X106.826 Y171.323 E103.6649
G1 X104.959 Y170.913 E103.87134
G1 X103.82 Y170.149 E104.01946
G1 X103.439 Y170.462 E104.07272
G1 X100.778 Y171.323 E104.37477
G1 X91.397 Y171.323 E105.38792
G1 X89.531 Y170.913 E105.59426
G1 X88.055 Y169.929 E105.78584
G1 X86.506 Y168.328 E106.02643
G1 X83.7 Y168.327 E106.32948
G1 X81.769 Y167.89 E106.5433
G1 X80.262 Y166.865 E106.74014
G1 X78.495 Y165.044 E107.01417
G1 X77.59 Y162.272 E107.3291
G1 X77.59 Y56.542 E118.74794
G1 X78.027 Y54.611 E118.96176
G1 X79.052 Y53.104 E119.1586
G0 F7200 X79.36 Y53.363
G1 F1800 X81.086 Y51.688 E119.41835
G1 X83.708 Y50.832 E119.71624
G1 X87.055 Y50.832 E120.07771
G1 X88.801 Y49.137 E120.34052
G1 X91.423 Y48.281 E120.63841
G1 X100.701 Y48.28 E121.64043
G1 X102.453 Y48.665 E121.83416
G1 X103.793 Y49.562 E122.00831
G1 X104.231 Y49.136 E122.0743
G1 X106.851 Y48.28 E122.37198
G1 X116.113 Y48.28 E123.37228
G1 X117.925 Y48.69 E123.57292
G1 X119.214 Y49.567 E123.7413
G1 X119.657 Y49.136 E123.80805
G1 X122.279 Y48.28 E124.10594
G1 X131.542 Y48.28 E125.10634
G1 X133.354 Y48.69 E125.30698
G1 X134.765 Y49.65 E125.4913
G1 X135.913 Y50.832 E125.66925
G1 X139.256 Y50.832 E126.0303
G1 X141.068 Y51.242 E126.23094
G1 X142.479 Y52.202 E126.41525
G1 X144.154 Y53.928 E126.67501
G1 X145.01 Y56.55 E126.97289
G1 X145.01 Y162.174 E138.38028
G1 X144.659 Y163.787 E138.55857
G1 X143.741 Y165.292 E138.74896
G1 X141.898 Y167.08 E139.02628
G1 X139.285 Y167.927 E139.32294
G1 X136.25 Y167.927 E139.65072
G1 X135.946 Y168.37 E139.70874
G1 X134.18 Y170.083 E139.97446
G1 X131.586 Y170.923 E140.26893
G1 X122.299 Y170.923 E141.27193
G1 X120.547 Y170.538 E141.46566
G1 X119.147 Y169.604 E141.64742
G1 X118.397 Y170.146 E141.74736
G1 X116.257 Y170.923 E141.99324
G1 X106.871 Y170.923 E143.00693
G1 X105.118 Y170.538 E143.20076
G1 X103.774 Y169.637 E143.37551
G1 X103.316 Y170.081 E143.44441
G1 X100.714 Y170.923 E143.73977
G1 X91.442 Y170.923 E144.74115
G1 X89.69 Y170.538 E144.93488
G1 X88.31 Y169.618 E145.114
G1 X86.811 Y168.072 E145.34657
G1 X86.714 Y167.928 E145.36532
G1 X83.744 Y167.927 E145.68608
G1 X81.932 Y167.517 E145.88672
G1 X80.521 Y166.557 E146.07103
G1 X78.846 Y164.831 E146.33079
G1 X77.99 Y162.209 E146.62867
G1 X77.99 Y56.586 E158.03596
G1 X78.4 Y54.774 E158.2366
G1 X79.36 Y53.363 E158.42092
G0 F7200 X79.668 Y53.622
G1 F1800 X78.773 Y54.937 E158.59271
G1 X78.39 Y56.63 E158.78017
G1 X78.39 Y162.146 E170.1759
G1 X79.197 Y164.618 E170.45674
G1 X80.78 Y166.249 E170.70222
G1 X82.095 Y167.144 E170.87401
G1 X83.788 Y167.527 E171.06147
G1 X86.946 Y167.528 E171.40254
G1 X87.098 Y167.794 E171.43562
G1 X88.565 Y169.307 E171.66323
G1 X89.849 Y170.163 E171.82989
G1 X91.487 Y170.523 E172.01102
G1 X100.65 Y170.523 E173.00062
G1 X103.104 Y169.729 E173.27918
G1 X103.773 Y169.08 E173.37984
G1 X104.024 Y169.327 E173.41788
G1 X105.278 Y170.163 E173.58065
G1 X106.916 Y170.523 E173.76177
G1 X116.187 Y170.523 E174.76304
G1 X118.209 Y169.789 E174.99536
G1 X119.196 Y169.077 E175.1268
G1 X119.447 Y169.323 E175.16475
G1 X120.706 Y170.163 E175.32821
G1 X122.344 Y170.523 E175.50934
G1 X131.522 Y170.523 E176.50056
G1 X133.97 Y169.73 E176.77847
G1 X135.668 Y168.083 E177.03395
G1 X136.034 Y167.527 E177.10584
G1 X139.221 Y167.527 E177.45004
G1 X141.686 Y166.728 E177.72989
G1 X143.428 Y165.038 E177.99201
G1 X144.282 Y163.638 E178.16913
G1 X144.61 Y162.13 E178.3358
G1 X144.61 Y56.613 E189.73163
G1 X143.803 Y54.141 E190.01248
G1 X142.22 Y52.51 E190.25795
G1 X140.905 Y51.615 E190.42974
G1 X139.212 Y51.232 E190.61721
G1 X135.743 Y51.232 E190.99186
G1 X134.506 Y49.958 E191.18364
G1 X133.191 Y49.063 E191.35543
G1 X131.498 Y48.68 E191.54289
G1 X122.342 Y48.68 E192.53174
G1 X119.869 Y49.487 E192.81269
G1 X119.227 Y50.113 E192.90953
G1 X119.043 Y49.935 E192.93718
G1 X117.762 Y49.063 E193.10454
G1 X116.069 Y48.68 E193.292
G1 X106.914 Y48.68 E194.28074
G1 X104.444 Y49.487 E194.56138
G1 X103.795 Y50.119 E194.65921
G1 X103.548 Y49.876 E194.69664
G1 X102.294 Y49.04 E194.8594
G1 X100.656 Y48.68 E195.04053
G1 X91.486 Y48.681 E196.03089
G1 X89.014 Y49.488 E196.31173
G1 X87.468 Y50.989 E196.54445
G1 X87.285 Y51.232 E196.5773
G1 X83.771 Y51.232 E196.95682
G1 X81.299 Y52.039 E197.23766
G1 X79.668 Y53.622 E197.48313
G0 F7200 X79.976 Y53.881
G1 F1800 X79.146 Y55.1 E197.6424
G1 X78.79 Y56.674 E197.81669
G1 X78.79 Y162.083 E209.20086
G1 X79.548 Y164.405 E209.46466
G1 X81.039 Y165.941 E209.69585
G1 X82.258 Y166.771 E209.85512
G1 X83.832 Y167.127 E210.02941
G1 X87.196 Y167.128 E210.39272
G1 X87.385 Y167.516 E210.43933
G1 X88.82 Y168.996 E210.66197
G1 X90.008 Y169.788 E210.81617
G1 X91.532 Y170.123 E210.98469
G1 X100.586 Y170.123 E211.96253
G1 X102.894 Y169.376 E212.22452
G1 X103.782 Y168.515 E212.3581
G1 X104.246 Y168.994 E212.43013
G1 X105.437 Y169.788 E212.58472
G1 X106.961 Y170.123 E212.75324
G1 X116.116 Y170.123 E213.74198
G1 X118.022 Y169.431 E213.96097
G1 X119.241 Y168.551 E214.12335
G1 X119.669 Y168.99 E214.18956
G1 X120.865 Y169.788 E214.34484
G1 X122.389 Y170.123 E214.51337
G1 X131.458 Y170.123 E215.49282
G1 X133.76 Y169.377 E215.75416
G1 X135.357 Y167.828 E215.99444
G1 X135.818 Y167.127 E216.08505
G1 X139.157 Y167.127 E216.44567
G1 X141.474 Y166.376 E216.70872
G1 X143.115 Y164.784 E216.95564
G1 X143.905 Y163.489 E217.11947
G1 X144.21 Y162.086 E217.27454
G1 X144.21 Y56.676 E228.65882
G1 X143.452 Y54.354 E228.92262
G1 X141.961 Y52.818 E229.15381
G1 X140.742 Y51.988 E229.31308
G1 X139.168 Y51.632 E229.48736
G1 X135.573 Y51.632 E229.87562
G1 X134.247 Y50.266 E230.08123
G1 X133.028 Y49.436 E230.2405
G1 X131.454 Y49.08 E230.41479
G1 X122.405 Y49.08 E231.39208
G1 X120.083 Y49.838 E231.65588
G1 X119.219 Y50.679 E231.7861
G1 X118.818 Y50.266 E231.84827
G1 X117.599 Y49.436 E232.00754
G1 X116.025 Y49.08 E232.18182
G1 X106.977 Y49.08 E233.15901
G1 X104.656 Y49.838 E233.42271
G1 X103.787 Y50.685 E233.55376
G1 X103.326 Y50.209 E233.62533
G1 X102.135 Y49.415 E233.77992
G1 X100.611 Y49.08 E233.94844
G1 X91.549 Y49.081 E234.92714
G1 X89.227 Y49.839 E235.19094
G1 X87.747 Y51.276 E235.41373
G1 X87.489 Y51.632 E235.46121
G1 X83.834 Y51.632 E235.85595
G1 X81.512 Y52.39 E236.11975
G1 X79.976 Y53.881 E236.35094
G0 F7200 X80.284 Y54.14
G1 F1800 X81.725 Y52.741 E236.56785
G1 X83.897 Y52.032 E236.8146
G1 X87.697 Y52.032 E237.225
G1 X88.026 Y51.563 E237.28688
G1 X89.44 Y50.19 E237.49973
G1 X91.612 Y49.481 E237.74649
G1 X100.566 Y49.48 E238.71352
G1 X101.976 Y49.79 E238.86944
G1 X103.068 Y50.518 E239.01118
G1 X103.779 Y51.251 E239.12147
G1 X104.868 Y50.189 E239.28575
G1 X107.04 Y49.48 E239.53251
G1 X115.981 Y49.48 E240.49813
G1 X117.436 Y49.809 E240.65924
G1 X118.559 Y50.574 E240.80599
G1 X119.211 Y51.246 E240.90712
G1 X120.296 Y50.189 E241.07071
G1 X122.468 Y49.48 E241.31747
G1 X131.41 Y49.48 E242.2832
G1 X132.865 Y49.809 E242.44431
G1 X133.988 Y50.574 E242.59106
G1 X135.195 Y51.817 E242.77818
G1 X135.324 Y52.032 E242.80526
G1 X139.124 Y52.032 E243.21566
G1 X140.579 Y52.361 E243.37677
G1 X141.702 Y53.126 E243.52352
G1 X143.101 Y54.567 E243.74043
G1 X143.81 Y56.739 E243.98718
G1 X143.81 Y162.042 E255.35991
G1 X143.528 Y163.34 E255.50336
G1 X142.802 Y164.53 E255.65391
G1 X141.262 Y166.024 E255.88564
G1 X139.093 Y166.727 E256.13188
G1 X135.602 Y166.727 E256.50891
G1 X135.048 Y167.57 E256.61786
G1 X133.548 Y169.025 E256.84355
G1 X131.394 Y169.723 E257.08809
G1 X122.434 Y169.723 E258.05577
G1 X121.024 Y169.413 E258.21169
G1 X119.926 Y168.681 E258.35421
G1 X119.288 Y168.024 E258.45311
G1 X117.835 Y169.073 E258.64666
G1 X116.045 Y169.723 E258.85233
G1 X107.006 Y169.723 E259.82854
G1 X105.596 Y169.413 E259.98446
G1 X104.504 Y168.685 E260.1262
G1 X103.791 Y167.95 E260.2368
G1 X102.684 Y169.023 E260.4033
G1 X100.522 Y169.723 E260.64873
G1 X91.577 Y169.723 E261.61479
G1 X90.167 Y169.413 E261.7707
G1 X89.075 Y168.685 E261.91245
G1 X87.672 Y167.238 E262.13012
G1 X87.464 Y166.728 E262.1896
G1 X83.876 Y166.727 E262.57711
G1 X82.421 Y166.398 E262.73821
G1 X81.298 Y165.633 E262.88497
G1 X79.899 Y164.192 E263.10187
G1 X79.19 Y162.02 E263.34863
G1 X79.19 Y56.718 E274.72125
G1 X79.519 Y55.263 E274.88235
G1 X80.284 Y54.14 E275.0291
G0 F7200 X80.592 Y54.399
G1 F1800 X79.892 Y55.426 E275.16333
G1 X79.59 Y56.762 E275.31126
G1 X79.59 Y161.957 E286.67232
G1 X80.25 Y163.979 E286.90204
G1 X81.557 Y165.325 E287.10466
G1 X82.584 Y166.025 E287.23889
G1 X83.92 Y166.327 E287.38682
G1 X87.754 Y166.328 E287.80089
G1 X87.959 Y166.96 E287.87265
G1 X89.33 Y168.374 E288.08536
G1 X90.326 Y169.038 E288.21464
G1 X91.622 Y169.323 E288.35795
G1 X100.458 Y169.323 E289.31224
G1 X102.474 Y168.67 E289.54111
G1 X103.8 Y167.385 E289.74053
G1 X104.759 Y168.374 E289.88931
G1 X105.755 Y169.038 E290.01859
G1 X107.051 Y169.323 E290.1619
G1 X115.975 Y169.323 E291.12569
G1 X117.647 Y168.716 E291.3178
G1 X118.899 Y167.812 E291.48458
G1 X119.227 Y167.386 E291.54264
G1 X120.184 Y168.372 E291.69104
G1 X121.183 Y169.038 E291.82071
G1 X122.479 Y169.323 E291.96403
G1 X131.33 Y169.323 E292.91993
G1 X133.338 Y168.672 E293.14791
G1 X134.737 Y167.315 E293.3584
G1 X135.386 Y166.327 E293.48607
G1 X139.029 Y166.327 E293.87951
G1 X141.05 Y165.672 E294.10896
G1 X142.489 Y164.276 E294.32549
G1 X143.151 Y163.191 E294.46275
G1 X143.41 Y161.998 E294.5946
G1 X143.41 Y56.802 E305.95577
G1 X142.75 Y54.78 E306.18548
G1 X141.443 Y53.434 E306.38811
G1 X140.416 Y52.734 E306.52234
G1 X139.08 Y52.432 E306.67027
G1 X135.078 Y52.432 E307.10248
G1 X134.908 Y52.096 E307.14315
G1 X133.729 Y50.882 E307.32592
G1 X132.702 Y50.182 E307.46015
G1 X131.366 Y49.88 E307.60808
G1 X122.531 Y49.88 E308.56226
G1 X120.508 Y50.54 E308.79207
G1 X119.203 Y51.812 E308.98889
G1 X118.3 Y50.882 E309.12889
G1 X117.273 Y50.182 E309.26312
G1 X115.937 Y49.88 E309.41104
G1 X107.103 Y49.88 E310.36512
G1 X105.08 Y50.54 E310.59493
G1 X103.771 Y51.817 E310.79244
G1 X102.813 Y50.829 E310.94106
G1 X101.817 Y50.165 E311.07034
G1 X100.521 Y49.88 E311.21366
G1 X91.675 Y49.881 E312.16903
G1 X89.653 Y50.541 E312.39874
G1 X88.305 Y51.85 E312.60167
G1 X87.908 Y52.432 E312.67776
G1 X83.96 Y52.432 E313.10414
G1 X81.938 Y53.092 E313.33386
G1 X80.592 Y54.399 E313.53648
G0 F7200 X80.897 Y54.661
G1 F1800 X82.151 Y53.443 E313.72528
G1 X84.023 Y52.832 E313.93795
G1 X88.119 Y52.832 E314.38032
G1 X88.612 Y52.11 E314.47474
G1 X89.866 Y50.892 E314.66354
G1 X91.738 Y50.281 E314.87622
G1 X100.476 Y50.28 E315.81992
G1 X101.658 Y50.54 E315.95063
G1 X102.558 Y51.14 E316.06745
G1 X103.817 Y52.438 E316.26274
G1 X104.068 Y52.082 E316.30979
G1 X105.294 Y50.891 E316.49438
G1 X107.166 Y50.28 E316.70706
G1 X115.893 Y50.28 E317.64957
G1 X117.112 Y50.555 E317.78453
G1 X118.038 Y51.187 E317.90561
G1 X119.248 Y52.433 E318.09319
G1 X119.496 Y52.082 E318.13961
G1 X120.722 Y50.891 E318.32421
G1 X122.594 Y50.28 E318.53688
G1 X131.322 Y50.28 E319.4795
G1 X132.541 Y50.555 E319.61447
G1 X133.467 Y51.187 E319.73555
G1 X134.621 Y52.375 E319.91442
G1 X134.812 Y52.832 E319.96791
G1 X139.036 Y52.832 E320.4241
G1 X140.255 Y53.107 E320.55906
G1 X141.181 Y53.739 E320.68014
G1 X142.399 Y54.993 E320.86894
G1 X143.01 Y56.865 E321.08162
G1 X143.01 Y161.954 E332.43123
G1 X142.774 Y163.042 E332.55147
G1 X142.176 Y164.022 E332.67545
G1 X140.838 Y165.32 E332.87678
G1 X138.965 Y165.927 E333.08942
G1 X135.064 Y165.927 E333.51073
G1 X134.953 Y166.258 E333.54844
G1 X134.428 Y167.057 E333.65169
G1 X133.126 Y168.32 E333.84759
G1 X131.266 Y168.923 E334.05877
G1 X122.524 Y168.923 E335.0029
