;FLAVOR:UltiGCode
;TIME:7487
;MATERIAL:7287
;MATERIAL2:0
;NOZZLE_DIAMETER:0.4
;MINX:72.754
;MINY:72.754
;MINZ:0.27
;MAXX:150.246
;MAXY:150.246
;MAXZ:4.97
;Generated with Cura_SteamEngine 5.3.1
M82 ;absolute extrusion mode
G0 F3000 Y50 ;avoid prime blob
G92 E0
G92 E0
G10
;LAYER_COUNT:48
;LAYER:0
M107
G0 F7200 X84.12 Y84.094 Z0.27
;TYPE:SKIRT
G11
G1 F1800 X89.956 Y79.291 E0.8163
G1 X96.696 Y75.689 E1.64164
G1 X103.926 Y73.5 E2.45749
G1 X111.52 Y72.754 E3.28159
G1 X119.074 Y73.5 E4.10139
G1 X126.328 Y75.701 E4.92009
G1 X133.02 Y79.28 E5.7397
G1 X138.906 Y84.12 E6.5627
G1 X143.709 Y89.956 E7.37899
G1 X147.311 Y96.696 E8.20434
G1 X149.5 Y103.925 E9.02008
G1 X150.246 Y111.518 E9.84408
G1 X149.5 Y119.074 E10.66409
G1 X147.306 Y126.314 E11.48113
G1 X143.714 Y133.033 E12.30397
G1 X138.88 Y138.906 E13.12547
G1 X133.044 Y143.709 E13.94177
G1 X126.304 Y147.311 E14.76712
G1 X119.074 Y149.5 E15.58296
G1 X111.48 Y150.246 E16.40706
G1 X103.926 Y149.5 E17.22686
G1 X96.672 Y147.299 E18.04556
G1 X89.98 Y143.72 E18.86517
G1 X84.092 Y138.878 E19.68848
G1 X79.286 Y133.033 E20.50573
G1 X75.694 Y126.314 E21.32857
G1 X73.5 Y119.074 E22.1456
G1 X72.754 Y111.482 E22.96949
G1 X73.5 Y103.925 E23.78961
G1 X75.701 Y96.672 E24.60821
G1 X79.28 Y89.98 E25.42781
G1 X84.12 Y84.094 E26.25082
G0 F7200 X84.404 Y84.378
G1 F1800 X90.178 Y79.626 E27.05844
G1 X96.851 Y76.06 E27.87558
G1 X104.006 Y73.894 E28.68295
G1 X111.52 Y73.156 E29.49837
G1 X118.994 Y73.894 E30.30948
G1 X126.173 Y76.072 E31.11971
G1 X132.798 Y79.615 E31.9311
G1 X138.622 Y84.404 E32.74544
G1 X143.374 Y90.178 E33.55306
G1 X146.94 Y96.851 E34.3702
G1 X149.106 Y104.005 E35.17747
G1 X149.844 Y111.518 E35.99277
G1 X149.106 Y118.994 E36.80411
G1 X146.935 Y126.159 E37.61267
G1 X143.379 Y132.811 E38.42729
G1 X138.596 Y138.622 E39.24013
G1 X132.822 Y143.374 E40.04776
G1 X126.149 Y146.94 E40.86489
G1 X118.994 Y149.106 E41.67226
G1 X111.48 Y149.844 E42.48768
G1 X104.006 Y149.106 E43.2988
G1 X96.827 Y146.928 E44.10903
G1 X90.202 Y143.385 E44.92042
G1 X84.376 Y138.594 E45.73506
G1 X79.621 Y132.811 E46.54364
G1 X76.065 Y126.159 E47.35826
G1 X73.894 Y118.994 E48.16682
G1 X73.156 Y111.482 E48.98203
G1 X73.894 Y104.005 E49.79347
G1 X76.072 Y96.827 E50.60359
G1 X79.615 Y90.202 E51.41498
G1 X84.404 Y84.378 E52.22932
G0 F7200 X84.688 Y84.662
G1 F1800 X90.4 Y79.961 E53.02827
G1 X97.006 Y76.431 E53.83719
G1 X104.086 Y74.288 E54.63609
G1 X111.52 Y73.558 E55.44282
G1 X118.914 Y74.288 E56.24526
G1 X126.018 Y76.443 E57.04702
G1 X132.576 Y79.95 E57.85019
G1 X138.338 Y84.688 E58.65586
G1 X143.039 Y90.4 E59.45481
G1 X146.569 Y97.006 E60.26373
G1 X148.712 Y104.085 E61.06253
G1 X149.442 Y111.518 E61.86915
G1 X148.712 Y118.914 E62.6718
G1 X146.564 Y126.004 E63.47189
G1 X143.044 Y132.589 E64.2783
G1 X138.312 Y138.338 E65.08247
G1 X132.6 Y143.039 E65.88142
G1 X125.994 Y146.569 E66.69035
G1 X118.914 Y148.712 E67.48924
G1 X111.48 Y149.442 E68.29598
G1 X104.086 Y148.712 E69.09841
G1 X96.982 Y146.557 E69.90017
G1 X90.424 Y143.05 E70.70335
G1 X84.66 Y138.31 E71.50931
G1 X79.956 Y132.589 E72.30922
G1 X76.436 Y126.004 E73.11564
G1 X74.288 Y118.914 E73.91573
G1 X73.558 Y111.482 E74.72224
G1 X74.288 Y104.085 E75.525
G1 X76.443 Y96.982 E76.32665
G1 X79.95 Y90.424 E77.12983
G1 X84.688 Y84.662 E77.93549
G0 F7200 X84.972 Y84.946
G1 F1800 X90.622 Y80.296 E78.72578
G1 X97.161 Y76.802 E79.52648
G1 X104.166 Y74.682 E80.31691
G1 X111.52 Y73.96 E81.11496
G1 X118.834 Y74.682 E81.90871
G1 X125.863 Y76.814 E82.702
G1 X132.354 Y80.285 E83.49696
G1 X138.054 Y84.972 E84.29395
G1 X142.704 Y90.622 E85.08424
G1 X146.198 Y97.161 E85.88494
G1 X148.318 Y104.165 E86.67527
G1 X149.04 Y111.518 E87.47321
G1 X148.318 Y118.834 E88.26718
G1 X146.193 Y125.849 E89.05879
G1 X142.709 Y132.367 E89.85699
G1 X138.028 Y138.054 E90.65249
G1 X132.378 Y142.704 E91.44277
G1 X125.839 Y146.198 E92.24348
G1 X118.834 Y148.318 E93.03391
G1 X111.48 Y149.04 E93.83196
G1 X104.166 Y148.318 E94.62571
G1 X97.137 Y146.186 E95.41899
G1 X90.646 Y142.715 E96.21395
G1 X84.944 Y138.026 E97.01125
G1 X80.291 Y132.367 E97.80249
G1 X76.807 Y125.849 E98.60069
G1 X74.682 Y118.834 E99.39231
G1 X73.96 Y111.482 E100.19014
G1 X74.682 Y104.165 E100.98421
G1 X76.814 Y97.137 E101.7774
G1 X80.285 Y90.646 E102.57236
G1 X84.972 Y84.946 E103.36935
G0 F7200 X85.256 Y85.23
G1 F1800 X90.844 Y80.631 E104.15097
G1 X97.316 Y77.173 E104.94346
G1 X104.246 Y75.076 E105.72541
G1 X111.52 Y74.362 E106.51478
G1 X118.754 Y75.076 E107.29985
G1 X125.708 Y77.185 E108.08466
G1 X132.132 Y80.62 E108.87141
G1 X137.77 Y85.256 E109.65973
G1 X142.369 Y90.844 E110.44134
G1 X145.827 Y97.316 E111.23384
G1 X147.924 Y104.245 E112.01569
G1 X148.638 Y111.518 E112.80495
G1 X147.924 Y118.754 E113.59023
G1 X145.822 Y125.694 E114.37338
G1 X142.374 Y132.145 E115.16336
G1 X137.744 Y137.77 E115.95018
G1 X132.156 Y142.369 E116.7318
G1 X125.684 Y145.827 E117.52429
G1 X118.754 Y147.924 E118.30625
G1 X111.48 Y148.638 E119.09561
G1 X104.246 Y147.924 E119.88068
G1 X97.292 Y145.815 E120.66549
G1 X90.868 Y142.38 E121.45224
G1 X85.228 Y137.742 E122.24087
G1 X80.626 Y132.145 E123.02344
G1 X77.178 Y125.694 E123.81342
G1 X75.076 Y118.754 E124.59657
G1 X74.362 Y111.482 E125.38572
G1 X75.076 Y104.245 E126.17111
G1 X77.185 Y97.292 E126.95582
G1 X80.62 Y90.868 E127.74257
G1 X85.256 Y85.23 E128.53089
G0 F7200 X85.54 Y85.514
G1 F1800 X91.068 Y80.965 E129.30407
G1 X97.469 Y77.545 E130.08786
G1 X104.326 Y75.47 E130.86158
G1 X111.52 Y74.764 E131.64227
G1 X118.674 Y75.47 E132.41865
G1 X125.553 Y77.556 E133.19499
G1 X131.91 Y80.955 E133.97353
G1 X137.486 Y85.54 E134.75318
G1 X142.035 Y91.068 E135.52636
G1 X145.455 Y97.469 E136.31015
G1 X147.53 Y104.325 E137.08377
G1 X148.236 Y111.518 E137.86435
G1 X147.53 Y118.674 E138.64095
G1 X145.451 Y125.539 E139.41562
G1 X142.039 Y131.923 E140.19739
G1 X137.46 Y137.486 E140.97554
G1 X131.932 Y142.035 E141.74872
G1 X125.531 Y145.455 E142.53252
G1 X118.674 Y147.53 E143.30624
G1 X111.48 Y148.236 E144.08692
G1 X104.326 Y147.53 E144.86331
G1 X97.447 Y145.444 E145.63965
G1 X91.09 Y142.045 E146.41818
G1 X85.512 Y137.458 E147.19814
G1 X80.961 Y131.923 E147.97204
G1 X77.549 Y125.539 E148.7538
G1 X75.47 Y118.674 E149.52848
G1 X74.764 Y111.482 E150.30895
G1 X75.47 Y104.325 E151.08565
G1 X77.556 Y97.447 E151.86189
G1 X80.955 Y91.09 E152.64042
G1 X85.54 Y85.514 E153.42008
G0 F7200 X85.824 Y85.798
G1 F1800 X91.292 Y81.299 E154.18482
G1 X97.622 Y77.917 E154.95992
G1 X104.406 Y75.864 E155.7254
G1 X111.52 Y75.166 E156.49741
G1 X118.594 Y75.864 E157.26511
G1 X125.398 Y77.927 E158.03297
G1 X131.688 Y81.29 E158.80329
G1 X137.202 Y85.824 E159.57428
G1 X141.701 Y91.292 E160.33902
G1 X145.083 Y97.622 E161.11412
G1 X147.136 Y104.405 E161.8795
G1 X147.834 Y111.518 E162.65139
G1 X147.136 Y118.594 E163.41931
G1 X145.08 Y125.384 E164.18551
G1 X141.704 Y131.701 E164.95907
G1 X137.176 Y137.202 E165.72855
G1 X131.708 Y141.701 E166.4933
G1 X125.378 Y145.083 E167.26839
G1 X118.594 Y147.136 E168.03388
G1 X111.48 Y147.834 E168.80588
G1 X104.406 Y147.136 E169.57358
G1 X97.602 Y145.073 E170.34145
G1 X91.312 Y141.71 E171.11177
G1 X85.796 Y137.174 E171.88306
G1 X81.296 Y131.701 E172.64829
G1 X77.92 Y125.384 E173.42184
G1 X75.864 Y118.594 E174.18804
G1 X75.166 Y111.482 E174.95983
G1 X75.864 Y104.405 E175.72785
G1 X77.927 Y97.602 E176.49561
G1 X81.29 Y91.312 E177.26593
G1 X85.824 Y85.798 E178.03692
G0 F7200 X86.108 Y86.082
G1 F1800 X91.516 Y81.633 E178.79323
G1 X97.775 Y78.289 E179.55963
G1 X104.486 Y76.258 E180.31688
G1 X111.52 Y75.568 E181.0802
G1 X118.514 Y76.258 E181.83922
G1 X125.243 Y78.298 E182.59861
G1 X131.466 Y81.625 E183.36072
G1 X136.918 Y86.108 E184.12303
G1 X141.367 Y91.516 E184.87934
G1 X144.711 Y97.775 E185.64574
G1 X146.742 Y104.485 E186.40288
G1 X147.432 Y111.518 E187.1661
G1 X146.742 Y118.514 E187.92533
G1 X144.709 Y125.229 E188.68306
G1 X141.369 Y131.479 E189.4484
G1 X136.892 Y136.918 E190.20921
G1 X131.484 Y141.367 E190.96552
G1 X125.225 Y144.711 E191.73192
G1 X118.514 Y146.742 E192.48917
G1 X111.48 Y147.432 E193.25249
G1 X104.486 Y146.742 E194.01151
G1 X97.757 Y144.702 E194.77091
G1 X91.534 Y141.375 E195.53301
G1 X86.08 Y136.89 E196.29563
G1 X81.631 Y131.479 E197.05219
G1 X78.291 Y125.229 E197.81753
G1 X76.258 Y118.514 E198.57525
G1 X75.568 Y111.482 E199.33836
G1 X76.258 Y104.485 E200.0977
G1 X78.298 Y97.757 E200.85699
G1 X81.625 Y91.534 E201.6191
G1 X86.108 Y86.082 E202.38141
G0 F7200 X86.392 Y86.366
G1 F1800 X91.74 Y81.967 E203.12928
G1 X97.928 Y78.661 E203.88698
G1 X104.566 Y76.652 E204.636
G1 X111.52 Y75.97 E205.39064
G1 X118.434 Y76.652 E206.14097
G1 X125.088 Y78.669 E206.8919
G1 X131.244 Y81.96 E207.64579
G1 X136.634 Y86.392 E208.39943
G1 X141.033 Y91.74 E209.1473
G1 X144.339 Y97.928 E209.90501
G1 X146.348 Y104.565 E210.65392
G1 X147.03 Y111.518 E211.40845
G1 X146.348 Y118.434 E212.159
G1 X144.338 Y125.074 E212.90826
G1 X141.034 Y131.257 E213.66538
G1 X136.608 Y136.634 E214.41753
G1 X131.26 Y141.033 E215.1654
G1 X125.072 Y144.339 E215.9231
G1 X118.434 Y146.348 E216.67212
G1 X111.48 Y147.03 E217.42676
G1 X104.566 Y146.348 E218.17709
G1 X97.912 Y144.331 E218.92801
G1 X91.756 Y141.04 E219.68191
G1 X86.364 Y136.606 E220.43585
G1 X81.966 Y131.257 E221.18374
G1 X78.662 Y125.074 E221.94086
G1 X76.652 Y118.434 E222.69012
G1 X75.97 Y111.482 E223.44454
G1 X76.652 Y104.565 E224.1952
G1 X78.669 Y97.912 E224.94602
G1 X81.96 Y91.756 E225.69991
G1 X86.392 Y86.366 E226.45355
G0 F7200 X86.676 Y86.65
G1 F1800 X91.964 Y82.301 E227.19299
G1 X98.081 Y79.033 E227.942
G1 X104.646 Y77.046 E228.68278
G1 X111.52 Y76.372 E229.42873
G1 X118.354 Y77.046 E230.17038
G1 X124.933 Y79.04 E230.91283
G1 X131.022 Y82.295 E231.65851
G1 X136.35 Y86.676 E232.40348
G1 X140.699 Y91.964 E233.14292
G1 X143.967 Y98.081 E233.89193
G1 X145.954 Y104.645 E234.63261
G1 X146.628 Y111.518 E235.37845
G1 X145.954 Y118.354 E236.12032
G1 X143.967 Y124.919 E236.8611
G1 X140.699 Y131.035 E237.61001
G1 X136.324 Y136.35 E238.35349
G1 X131.036 Y140.699 E239.09293
G1 X124.919 Y143.967 E239.84193
G1 X118.354 Y145.954 E240.58272
G1 X111.48 Y146.628 E241.32867
G1 X104.646 Y145.954 E242.07032
G1 X98.067 Y143.96 E242.81277
G1 X91.978 Y140.705 E243.55845
G1 X86.648 Y136.322 E244.30373
G1 X82.301 Y131.035 E245.04294
G1 X79.033 Y124.919 E245.79185
G1 X77.046 Y118.354 E246.53264
G1 X76.372 Y111.482 E247.27838
G1 X77.046 Y104.645 E248.02035
G1 X79.04 Y98.067 E248.7627
G1 X82.295 Y91.978 E249.50837
G1 X86.676 Y86.65 E250.25334
G0 F7200 X86.96 Y86.934
G1 F1800 X92.188 Y82.635 E250.98435
G1 X98.234 Y79.405 E251.72466
G1 X104.726 Y77.44 E252.45721
G1 X111.52 Y76.774 E253.19448
G1 X118.274 Y77.44 E253.92745
G1 X124.778 Y79.411 E254.66142
G1 X130.8 Y82.63 E255.39889
G1 X136.066 Y86.96 E256.13519
G1 X140.365 Y92.188 E256.86619
G1 X143.595 Y98.234 E257.6065
G1 X145.56 Y104.725 E258.33895
G1 X146.226 Y111.518 E259.07611
G1 X145.56 Y118.274 E259.80929
G1 X143.596 Y124.764 E260.5416
G1 X140.364 Y130.813 E261.2823
G1 X136.04 Y136.066 E262.0171
G1 X130.812 Y140.365 E262.74811
G1 X124.766 Y143.595 E263.48842
G1 X118.274 Y145.56 E264.22097
G1 X111.48 Y146.226 E264.95824
G1 X104.726 Y145.56 E265.69121
G1 X98.222 Y143.589 E266.42518
G1 X92.2 Y140.37 E267.16265
G1 X86.932 Y136.038 E267.89925
G1 X82.636 Y130.813 E268.6298
G1 X79.404 Y124.764 E269.3705
G1 X77.44 Y118.274 E270.10281
G1 X76.774 Y111.482 E270.83986
G1 X77.44 Y104.725 E271.57315
G1 X79.411 Y98.222 E272.30703
G1 X82.63 Y92.2 E273.04449
G1 X86.96 Y86.934 E273.78079
G0 F7200 X87.244 Y87.218
G1 F1800 X92.412 Y82.969 E274.50336
G1 X98.387 Y79.777 E275.23497
G1 X104.806 Y77.834 E275.95929
G1 X111.52 Y77.176 E276.68787
G1 X118.194 Y77.834 E277.41216
G1 X124.623 Y79.782 E278.13767
G1 X130.578 Y82.965 E278.86691
G1 X135.782 Y87.244 E279.59454
G1 X140.031 Y92.412 E280.31711
G1 X143.223 Y98.387 E281.04872
G1 X145.166 Y104.805 E281.77294
G1 X145.824 Y111.518 E282.50141
G1 X145.166 Y118.194 E283.22592
G1 X143.224 Y124.611 E283.94999
G1 X140.03 Y130.589 E284.68199
G1 X135.756 Y135.782 E285.40836
G1 X130.588 Y140.031 E286.13093
G1 X124.613 Y143.223 E286.86254
G1 X118.194 Y145.166 E287.58686
G1 X111.48 Y145.824 E288.31544
G1 X104.806 Y145.166 E289.03973
G1 X98.377 Y143.218 E289.76524
G1 X92.422 Y140.035 E290.49449
G1 X87.216 Y135.754 E291.22242
G1 X82.97 Y130.589 E291.94453
G1 X79.776 Y124.611 E292.67653
G1 X77.834 Y118.194 E293.40061
G1 X77.176 Y111.482 E294.12898
G1 X77.834 Y104.805 E294.85359
G1 X79.782 Y98.377 E295.57899
G1 X82.965 Y92.422 E296.30824
G1 X87.244 Y87.218 E297.03587
G0 F7200 X87.528 Y87.502
G1 F1800 X92.636 Y83.303 E297.75
G1 X98.54 Y80.149 E298.47292
G1 X104.886 Y78.228 E299.189
G1 X111.52 Y77.578 E299.9089
G1 X118.114 Y78.228 E300.62451
G1 X124.468 Y80.153 E301.34154
G1 X130.356 Y83.3 E302.06257
G1 X135.498 Y87.528 E302.78153
G1 X139.697 Y92.636 E303.49567
G1 X142.851 Y98.54 E304.21858
G1 X144.772 Y104.885 E304.93456
G1 X145.422 Y111.518 E305.65435
G1 X144.772 Y118.114 E306.37017
G1 X142.852 Y124.458 E307.08602
G1 X139.696 Y130.365 E307.80932
G1 X135.472 Y135.498 E308.52725
G1 X130.364 Y139.697 E309.24139
G1 X124.46 Y142.851 E309.9643
G1 X118.114 Y144.772 E310.68038
G1 X111.48 Y145.422 E311.40029
G1 X104.886 Y144.772 E312.11589
G1 X98.532 Y142.847 E312.83292
G1 X92.644 Y139.7 E313.55396
G1 X87.5 Y135.47 E314.27322
G1 X83.304 Y130.365 E314.9869
G1 X80.148 Y124.458 E315.7102
G1 X78.228 Y118.114 E316.42604
G1 X77.578 Y111.482 E317.14573
G1 X78.228 Y104.885 E317.86166
G1 X80.153 Y98.532 E318.57859
G1 X83.3 Y92.644 E319.29962
G1 X87.528 Y87.502 E320.01858
G0 F7200 X87.812 Y87.786
G1 F1800 X92.86 Y83.637 E320.72428
G1 X98.693 Y80.521 E321.4385
G1 X104.966 Y78.622 E322.14635
G1 X111.52 Y77.98 E322.85756
G1 X118.034 Y78.622 E323.56449
G1 X124.313 Y80.524 E324.27305
G1 X130.134 Y83.635 E324.98587
G1 X135.214 Y87.812 E325.69616
G1 X139.363 Y92.86 E326.40186
G1 X142.479 Y98.693 E327.11607
G1 X144.378 Y104.965 E327.82382
G1 X145.02 Y111.518 E328.53493
G1 X144.378 Y118.034 E329.24206
G1 X142.48 Y124.305 E329.94967
G1 X139.362 Y130.141 E330.66428
G1 X135.188 Y135.214 E331.37378
G1 X130.14 Y139.363 E332.07948
G1 X124.307 Y142.479 E332.79369
G1 X118.034 Y144.378 E333.50154
G1 X111.48 Y145.02 E334.21276
G1 X104.966 Y144.378 E334.91968
G1 X98.687 Y142.476 E335.62824
G1 X92.866 Y139.365 E336.34106
G1 X87.784 Y135.186 E337.05165
G1 X83.638 Y130.141 E337.7569
G1 X80.52 Y124.305 E338.4715
G1 X78.622 Y118.034 E339.17911
G1 X77.98 Y111.482 E339.89012
G1 X78.622 Y104.965 E340.59736
G1 X80.524 Y98.687 E341.30582
G1 X83.635 Y92.866 E342.01864
G1 X87.812 Y87.786 E342.72893
G0 F7200 X88.096 Y88.07
G1 F1800 X93.084 Y83.971 E343.42619
G1 X98.846 Y80.893 E344.13171
G1 X105.046 Y79.016 E344.83132
G1 X111.52 Y78.382 E345.53386
G1 X117.954 Y79.016 E346.2321
G1 X124.158 Y80.895 E346.93219
G1 X129.912 Y83.97 E347.63679
G1 X134.93 Y88.096 E348.33841
G1 X139.029 Y93.084 E349.03568
G1 X142.107 Y98.846 E349.7412
G1 X143.984 Y105.045 E350.4407
G1 X144.618 Y111.518 E351.14313
G1 X143.984 Y117.954 E351.84159
G1 X142.108 Y124.152 E352.54096
G1 X139.028 Y129.917 E353.24687
G1 X134.904 Y134.93 E353.94793
G1 X129.916 Y139.029 E354.6452
G1 X124.154 Y142.107 E355.35072
G1 X117.954 Y143.984 E356.05033
G1 X111.48 Y144.618 E356.75287
G1 X105.046 Y143.984 E357.4511
G1 X98.842 Y142.105 E358.15119
G1 X93.088 Y139.03 E358.8558
G1 X88.068 Y134.902 E359.55772
G1 X83.972 Y129.917 E360.25453
G1 X80.892 Y124.152 E360.96044
G1 X79.016 Y117.954 E361.65981
G1 X78.382 Y111.482 E362.36213
G1 X79.016 Y105.045 E363.06069
G1 X80.895 Y98.842 E363.76068
G1 X83.97 Y93.088 E364.46528
G1 X88.096 Y88.07 E365.1669
G0 F7200 X88.38 Y88.354
G1 F1800 X93.308 Y84.305 E365.85573
G1 X98.999 Y81.265 E366.55256
G1 X105.126 Y79.41 E367.24393
G1 X111.52 Y78.784 E367.93779
G1 X117.874 Y79.41 E368.62734
G1 X124.003 Y81.266 E369.31896
G1 X129.69 Y84.305 E370.01535
G1 X134.646 Y88.38 E370.7083
G1 X138.695 Y93.308 E371.39713
G1 X141.735 Y98.999 E372.09395
G1 X143.59 Y105.125 E372.78523
G1 X144.216 Y111.518 E373.47897
G1 X143.59 Y117.874 E374.16874
G1 X141.736 Y123.999 E374.85988
G1 X138.694 Y129.693 E375.55709
G1 X134.62 Y134.646 E376.24972
G1 X129.692 Y138.695 E376.93855
G1 X124.001 Y141.735 E377.63538
